/* XPM */
static char *_79cd310939f4fbddf78f813a2560a0bNWxrI07iydAVBN5U[] = {
/* columns rows colors chars-per-pixel */
"64 64 20 1 ",
"  c #E1DC5F",
". c #E3DE69",
"X c #E5E073",
"o c #E6E37D",
"O c #E8E587",
"+ c #EAE791",
"@ c #ECE99B",
"# c #EEEBA5",
"$ c #EEECA5",
"% c #F0EDAF",
"& c #F2EFB9",
"* c #F2F0B9",
"= c #F4F2C3",
"- c #F6F4CD",
"; c #F7F6D7",
": c #F8F6D7",
"> c #F9F8E1",
", c #FBFBEB",
"< c #FDFDF5",
"1 c white",
/* pixels */
"                                                                ",
"                                                                ",
"                                                                ",
"                                                                ",
"                                                                ",
"                                                                ",
"                                                                ",
"                                                                ",
"                                                                ",
"                                                                ",
"                                                                ",
"                                                                ",
"                                                                ",
"                                                                ",
"                                                                ",
"                                                                ",
"                                                                ",
"                                                                ",
"                                                                ",
"                        OOOOOOOOOOOOOOOOOo                      ",
"                       X11111111111111111-                      ",
"                       X11111111111111111,                      ",
"                       X111111111111111:$X                      ",
"                       .1111-@@@@@1111,                         ",
"                        <111+     1111,                         ",
"                        :111.     1111,                         ",
"                        O%=&      1111,                         ",
"                                  1111,                         ",
"                          X*,1X   ,111>                         ",
"                          %111+   ,111;                         ",
"                          %111-%%%<111;                         ",
"                          %11111111111;                         ",
"                          %11111111111;                         ",
"                          %111,,,,1111;                         ",
"                          %11;    ,111;                         ",
"                          %11@    ,111-                         ",
"                          .XX     ,111=                         ",
"                                  >111=                         ",
"                       X%==o      :111=                         ",
"                       +111&      :111=                         ",
"                       %111>      :111=                         ",
"                       =1111%%%%%%,111=                         ",
"                       =111111111111111;@X                      ",
"                       =11111111111111111&                      ",
"                       =11111111111111111#                      ",
"                                                                ",
"                                                                ",
"                                                                ",
"                                                                ",
"                                                                ",
"                                                                ",
"                                                                ",
"                                                                ",
"                                                                ",
"                                                                ",
"                                                                ",
"                                                                ",
"                                                                ",
"                                                                ",
"                                                                ",
"                                                                ",
"                                                                ",
"                                                                ",
"                                                                "
};
