/* XPM */
static char *b7b65951dd9246a2b3991d79d22584a7dfXpAvo3mlhpwVCT[] = {
/* columns rows colors chars-per-pixel */
"64 64 23 1 ",
"  c #E96758",
". c #EA7162",
"X c #EB7A6D",
"o c #EC7A6D",
"O c #ED8377",
"+ c #ED8477",
"@ c #ED8378",
"# c #EF8D81",
"$ c #EF978C",
"% c #F0978C",
"& c #F1A096",
"* c #F3A9A1",
"= c #F4B3AB",
"- c #F4B3AC",
"; c #F5BCB6",
": c #F6C6C0",
"> c #F8CFCB",
", c #F8D0CB",
"< c #F9D9D5",
"1 c #FBE3E0",
"2 c #FCECEA",
"3 c #FEF5F5",
"4 c white",
/* pixels */
"                                                                ",
"                                                                ",
"                                                                ",
"                                                                ",
"                                                                ",
"                                                                ",
"                                                                ",
"                                                                ",
"                                                                ",
"                                                                ",
"                                                                ",
"                                                                ",
"                                                                ",
"                                                                ",
"                                                                ",
"                                                                ",
"                                                                ",
"                                                                ",
"                                                                ",
"                           .#*:::=#                             ",
"                         #:344444442=                           ",
"                       O<444444444444<.                         ",
"                       =44444444444444:                         ",
"                       =4444:#ooO:44444#                        ",
"                       &4444#     :4444;                        ",
"                       $4443      &4444,                        ",
"                       o444<      *4444<                        ",
"                        =><%     X24444;                        ",
"                                O244444o                        ",
"                              .;444444-                         ",
"                            .=3444444-                          ",
"                          X:44444442#                           ",
"                         *34444443-.                            ",
"                        :4444443-.                              ",
"                       ;444443-.                                ",
"                      X44444:.                                  ",
"                      *4444:        %&#X                        ",
"                      =4444#        1442                        ",
"                      =4444%        4444                        ",
"                      &4444=       +4444o                       ",
"                      .44443X      $4444@                       ",
"                       <44444,===:144444%                       ",
"                       o2444444444444444%                       ",
"                        o24444444444442&                        ",
"                          &244444443;#                          ",
"                            O%*=*%o                             ",
"                                                                ",
"                                                                ",
"                                                                ",
"                                                                ",
"                                                                ",
"                                                                ",
"                                                                ",
"                                                                ",
"                                                                ",
"                                                                ",
"                                                                ",
"                                                                ",
"                                                                ",
"                                                                ",
"                                                                ",
"                                                                ",
"                                                                ",
"                                                                "
};
