/* XPM */
static char *_81c4e0841424db798a9a9ff2ab88312wGAbWiXHzboL97aM[] = {
/* columns rows colors chars-per-pixel */
"64 64 19 1 ",
"  c #E1DC5F",
". c #E2DE69",
"X c #E5E173",
"o c #E6E37D",
"O c #E8E487",
"+ c #EAE791",
"@ c #ECE99B",
"# c #EEEBA5",
"$ c #F0EDAF",
"% c #F2EFB9",
"& c #F3F1C3",
"* c #F4F2C3",
"= c #F5F4CD",
"- c #F7F6D7",
"; c #F8F6D7",
": c #F9F8E1",
"> c #FBFBEB",
", c #FDFDF5",
"< c white",
/* pixels */
"                                                                ",
"                                                                ",
"                                                                ",
"                                                                ",
"                                                                ",
"                                                                ",
"                                                                ",
"                                                                ",
"                                                                ",
"                                                                ",
"                                                                ",
"                                                                ",
"                                                                ",
"                                                                ",
"                                                                ",
"                                                                ",
"                                                                ",
"                                                                ",
"                                                                ",
"                      XOOOOOOOOOOOOOOOOO                        ",
"                      ;<<<<<<<<<<<<<<<<<X                       ",
"                      :<<<<<<<<<<<<<<<<<X                       ",
"                      X@;<<<<<<<<<<<<<<<X                       ",
"                         ><<<<@@@@@=<<<<.                       ",
"                         ><<<<     +<<<,                        ",
"                         ><<<<     .<<<-                        ",
"                         ><<<<      $*$o                        ",
"                         ><<<<                                  ",
"                         :<<<>   o<:&X                          ",
"                         ;<<<>   O<<<$                          ",
"                         ;<<<,$$$=<<<$                          ",
"                         ;<<<<<<<<<<<$                          ",
"                         ;<<<<<<<<<<<$                          ",
"                         ;<<<<>>>><<<$                          ",
"                         ;<<<>    ;<<$                          ",
"                         =<<<>    O<<$                          ",
"                         *<<<>     XX.                          ",
"                         *<<<-                                  ",
"                         *<<<-      O*%$.                       ",
"                         *<<<-      %<<<@                       ",
"                         *<<<-      :<<<$                       ",
"                         *<<<>$$$$$$<<<<*                       ",
"                      .#-<<<<<<<<<<<<<<<*                       ",
"                      %<<<<<<<<<<<<<<<<<*                       ",
"                      @<<<<<<<<<<<<<<<<<*                       ",
"                                                                ",
"                                                                ",
"                                                                ",
"                                                                ",
"                                                                ",
"                                                                ",
"                                                                ",
"                                                                ",
"                                                                ",
"                                                                ",
"                                                                ",
"                                                                ",
"                                                                ",
"                                                                ",
"                                                                ",
"                                                                ",
"                                                                ",
"                                                                ",
"                                                                "
};
