/* XPM */
static char *_460060124154a75fbe988bbc7d77c3akZPL2v1bUdHUQdBR[] = {
/* columns rows colors chars-per-pixel */
"64 64 20 1 ",
"  c #827CEE",
". c #8A84EF",
"X c #928CF0",
"o c #9995F1",
"O c #A19CF2",
"+ c #A9A4F3",
"@ c #B1ADF4",
"# c #B8B6F5",
"$ c #C0BDF6",
"% c #C8C6F8",
"& c #D0CEF9",
"* c #D8D6F9",
"= c #E0DEFB",
"- c #E7E6FC",
"; c #E8E6FC",
": c #EFEFFD",
"> c #F0EFFD",
", c #F7F7FE",
"< c #F8F7FE",
"1 c white",
/* pixels */
"                                                                ",
"                                                                ",
"                                                                ",
"                                                                ",
"                                                                ",
"                                                                ",
"                                                                ",
"                                                                ",
"                                                                ",
"                                                                ",
"                                                                ",
"                                                                ",
"                                                                ",
"                                                                ",
"                                                                ",
"                                                                ",
"                                                                ",
"                                                                ",
"                                                                ",
"                                                                ",
"                  .OOOOOOOOO       oOOOOOOOOo                   ",
"                  &111111111X     X111111111*                   ",
"                  -111111111+     &111111111:                   ",
"                  =;11111<%O     o11111111=#X                   ",
"                    $1111+       :1111111:                      ",
"                    $1111O      @11111111:                      ",
"                    $1111O      :11111111:                      ",
"                    $1111O     $1111$1111:                      ",
"                    $1111o    X:111> <111:                      ",
"                    $1111X    &1111@ :111:                      ",
"                    $1111X   X1111&  :111;                      ",
"                    $1111X   &111>X  :111=                      ",
"                    $1111   O1111#   :111=                      ",
"                    $1111   :111>    :111=                      ",
"                    $1111  @1111X    :111=                      ",
"                    $111,  :111&     :111=                      ",
"                    $111: $111>X     :111=                      ",
"                    $111:X:111@      :111=                      ",
"                    $111:&111-       :111*                      ",
"                    $111>1111X       -111&                      ",
"                    $1111111$        =111&                      ",
"                    $111111>         =111&                      ",
"                    $111111@      .o@:111&                      ",
"                    $11111&       o1111111=@X                   ",
"                    $1111<X       .<11111111%                   ",
"                    $1111$         =11111111#                   ",
"                                                                ",
"                                                                ",
"                                                                ",
"                                                                ",
"                                                                ",
"                                                                ",
"                                                                ",
"                                                                ",
"                                                                ",
"                                                                ",
"                                                                ",
"                                                                ",
"                                                                ",
"                                                                ",
"                                                                ",
"                                                                ",
"                                                                ",
"                                                                "
};
