/* XPM */
static char *bfe5a3248dfe47bfdf71a32fbb23043eorDtRobyjRJAIQo6[] = {
/* columns rows colors chars-per-pixel */
"64 64 22 1 ",
"  c #E96758",
". c #EA7162",
"X c #EB7A6D",
"o c #EC7A6D",
"O c #ED8377",
"+ c #ED8378",
"@ c #EE8D81",
"# c #EF978C",
"$ c #F0968C",
"% c #F1A097",
"& c #F3A9A1",
"* c #F3B3AB",
"= c #F4B3AB",
"- c #F4B3AC",
"; c #F5BDB6",
": c #F6C6C0",
"> c #F8D0CB",
", c #F9D9D5",
"< c #FBE2DF",
"1 c #FCECEA",
"2 c #FEF5F5",
"3 c white",
/* pixels */
"                                                                ",
"                                                                ",
"                                                                ",
"                                                                ",
"                                                                ",
"                                                                ",
"                                                                ",
"                                                                ",
"                                                                ",
"                                                                ",
"                                                                ",
"                                                                ",
"                                                                ",
"                                                                ",
"                                                                ",
"                                                                ",
"                                                                ",
"                                                                ",
"                                                                ",
"                            .@&::;&@                            ",
"                           &233333332:@                         ",
"                         .,333333333333,X                       ",
"                         :33333333333333=                       ",
"                        @33333;+oo@:3333=                       ",
"                        ;3333:     @3333%                       ",
"                        ,3333$      2333@                       ",
"                        >3333&      ,333O                       ",
"                        ;33331X     %,:;                        ",
"                        @333331X                                ",
"                         -333333:X                              ",
"                          -3333333:X                            ",
"                           %13333333:X                          ",
"                            o-13333332*                         ",
"                              o-1333333:                        ",
"                                 %133333;                       ",
"                                  o:33333.                      ",
"                        X#%@        ,3333&                      ",
"                        133<        $3333=                      ",
"                        3332        @3333=                      ",
"                       o3333o       ;3333%                      ",
"                       @3333%      +23333o                      ",
"                       @33333,;===,33333:                       ",
"                       %3333333333333331o                       ",
"                        %13333333333331o                        ",
"                          @:133333331-.                         ",
"                             +$&=&%o                            ",
"                                                                ",
"                                                                ",
"                                                                ",
"                                                                ",
"                                                                ",
"                                                                ",
"                                                                ",
"                                                                ",
"                                                                ",
"                                                                ",
"                                                                ",
"                                                                ",
"                                                                ",
"                                                                ",
"                                                                ",
"                                                                ",
"                                                                ",
"                                                                "
};
