/* XPM */
static char *_bfc085fe1ce4f8bf8207176fd3253805Pv3HOVq9m9qBjms[] = {
/* columns rows colors chars-per-pixel */
"64 64 20 1 ",
"  c #E15FA4",
". c #E369A9",
"X c #E573AF",
"o c #E77DB5",
"O c #E887BB",
"+ c #EA91C1",
"@ c #EC9BC6",
"# c #EEA5CB",
"$ c #EFA5CC",
"% c #F0AFD2",
"& c #F2B9D7",
"* c #F3C3DD",
"= c #F4C3DC",
"- c #F5CDE3",
"; c #F7D7E8",
": c #F8D7E9",
"> c #F9E1EE",
", c #FBEBF4",
"< c #FDF5F9",
"1 c white",
/* pixels */
"                                                                ",
"                                                                ",
"                                                                ",
"                                                                ",
"                                                                ",
"                                                                ",
"                                                                ",
"                                                                ",
"                                                                ",
"                                                                ",
"                                                                ",
"                                                                ",
"                                                                ",
"                                                                ",
"                                                                ",
"                                                                ",
"                                                                ",
"                                                                ",
"                                                                ",
"             XOOOOOOOOX       oOOOOo     XOOOOOOOO.             ",
"             &11111111&      X11111;     -11111111%             ",
"             -11111111<      @11111<.    -11111111,             ",
"              O=<111111X     -111111O     +=<111111             ",
"                &111>X.      <111111#       1111=X.             ",
"                +111<       O1111111;      O1111O               ",
"                .1111X      *111=111<      $111<                ",
"                 >111#      ,111o<111O     :111-                ",
"                 &111=     o111, -111#     <111#                ",
"                 O111,     $111- $111;    o1111o                ",
"                 .1111X    :111# o111<    $111,                 ",
"                  :111@   .1111o  <111O   -111=                 ",
"                  %111&   +111<   :111#   ,111@                 ",
"                  O111,   *111-   $111-  o1111X                 ",
"                  .<111.  ,111#   O111<  @111>                  ",
"                   :111+ O1111o   .<111o -111&                  ",
"                   $111& &111<     :111# ,111O                  ",
"                   O111; >111;     %111-X1111.                  ",
"                    <111o1111#     O111<@111;                   ",
"                    -111*1111O     .1111>111#                   ",
"                    $1111111<       :1111111O                   ",
"                    X1111111;       &111111<                    ",
"                     <111111#       +111111-                    ",
"                     =111111O       .111111@                    ",
"                     $111111         >11111X                    ",
"                     X11111;         &1111,                     ",
"                                                                ",
"                                                                ",
"                                                                ",
"                                                                ",
"                                                                ",
"                                                                ",
"                                                                ",
"                                                                ",
"                                                                ",
"                                                                ",
"                                                                ",
"                                                                ",
"                                                                ",
"                                                                ",
"                                                                ",
"                                                                ",
"                                                                ",
"                                                                ",
"                                                                "
};
