/* XPM */
static char *efade125572b4514acaf092450bcd6c8bRt0g2utwvYFWV95[] = {
/* columns rows colors chars-per-pixel */
"800 500 256 2 ",
"   c #020614",
".  c #050818",
"X  c #040A1C",
"o  c #0F0D19",
"O  c #0A0C1C",
"+  c #0A131D",
"@  c #13251B",
"#  c #060C23",
"$  c #0A0C23",
"%  c #050C2A",
"&  c #0A0D2B",
"*  c #150C2C",
"=  c #0B1423",
"-  c #05132C",
";  c #0A1729",
":  c #161729",
">  c #090D33",
",  c #0C1333",
"<  c #0B1A34",
"1  c #091738",
"2  c #13143B",
"3  c #171938",
"4  c #25162D",
"5  c #26193A",
"6  c #311233",
"7  c #0C232B",
"8  c #17242C",
"9  c #0A2538",
"0  c #182538",
"q  c #123636",
"w  c #262739",
"e  c #2F2F39",
"r  c #511F36",
"t  c #1E4B38",
"y  c #5E5736",
"u  c #0E0C4A",
"i  c #0A1A47",
"p  c #171A47",
"a  c #0B1C55",
"s  c #181C56",
"d  c #280D47",
"f  c #241C44",
"g  c #281B47",
"h  c #351B48",
"j  c #271B56",
"k  c #361B58",
"l  c #0A2547",
"z  c #192547",
"x  c #0B2657",
"c  c #182457",
"v  c #113650",
"b  c #262648",
"n  c #2B234B",
"m  c #35274A",
"M  c #293548",
"N  c #363848",
"B  c #272658",
"V  c #362759",
"C  c #293657",
"Z  c #373858",
"A  c #161B66",
"S  c #2E1C65",
"D  c #0B2867",
"F  c #182767",
"G  c #172A76",
"H  c #123471",
"J  c #292767",
"K  c #372867",
"L  c #293566",
"P  c #383667",
"I  c #272A75",
"U  c #372B76",
"Y  c #283579",
"T  c #373578",
"R  c #481C51",
"E  c #6D1A50",
"W  c #472657",
"Q  c #4C2F52",
"!  c #6D2B55",
"~  c #4A1D68",
"^  c #462869",
"/  c #463769",
"(  c #563169",
")  c #472976",
"_  c #562876",
"`  c #483677",
"'  c #563777",
"]  c #693572",
"[  c #124E53",
"{  c #304C4E",
"}  c #3A4558",
"|  c #146755",
" . c #316D53",
".. c #144F6D",
"X. c #3A4667",
"o. c #314C72",
"O. c #146E6E",
"+. c #306F70",
"@. c #454857",
"#. c #4C4F53",
"$. c #636154",
"%. c #474967",
"&. c #564869",
"*. c #485568",
"=. c #55556A",
"-. c #484876",
";. c #574977",
":. c #4A5577",
">. c #575678",
",. c #6C4F74",
"<. c #4E6D70",
"1. c #6F6E72",
"2. c #962C61",
"3. c #B45651",
"4. c #956065",
"5. c #21956F",
"6. c #2E9173",
"7. c #4FAC48",
"8. c #4F9072",
"9. c #66996C",
"0. c #9F9C69",
"q. c #D29F70",
"w. c #C3C660",
"e. c #16378A",
"r. c #283986",
"t. c #383787",
"y. c #33348D",
"u. c #243AA5",
"i. c #473787",
"p. c #52318B",
"a. c #563888",
"s. c #473995",
"d. c #6B368D",
"f. c #643BA5",
"g. c #164A90",
"h. c #384688",
"j. c #2C4B92",
"k. c #374698",
"l. c #146E8C",
"z. c #306E90",
"x. c #1353AA",
"c. c #374BA5",
"v. c #2E53AE",
"b. c #3955A9",
"n. c #156BB4",
"m. c #306BB2",
"M. c #474788",
"N. c #574688",
"B. c #585785",
"V. c #484798",
"C. c #564697",
"Z. c #4E5792",
"A. c #675887",
"S. c #6E5091",
"D. c #516B90",
"F. c #706991",
"G. c #474AA6",
"H. c #5649AA",
"J. c #4756A9",
"K. c #5757A8",
"L. c #4859B6",
"P. c #5758B6",
"I. c #6E51AF",
"U. c #4F6AB1",
"Y. c #5767B8",
"T. c #6E6DB1",
"R. c #7A3FC5",
"E. c #0F71CD",
"W. c #3273CA",
"Q. c #166CE2",
"!. c #7158C5",
"~. c #5762CC",
"^. c #5270CA",
"/. c #6869C7",
"(. c #7174CE",
"). c #9A37A0",
"_. c #D137B0",
"`. c #8A5090",
"'. c #8B6D91",
"]. c #8C50B1",
"[. c #AE4CB3",
"{. c #8B6DB4",
"}. c #AC69A1",
"|. c #DE5AAC",
" X c #CD4BB7",
".X c #B435C6",
"XX c #D238C9",
"oX c #9057C9",
"OX c #AE57CE",
"+X c #8E72CD",
"@X c #AC72D1",
"#X c #AD73E4",
"$X c #D052C9",
"%X c #EC51CB",
"&X c #CC6ED4",
"*X c #ED6ED1",
"=X c #CE74E8",
"-X c #EA70E9",
";X c #2F8E8F",
":X c #21A19D",
">X c #2F8DB2",
",X c #508E8D",
"<X c #64A699",
"1X c #4F8EB1",
"2X c #728BB2",
"3X c #60D1AE",
"4X c #328FD1",
"5X c #2FABD3",
"6X c #1E9DE0",
"7X c #528CD5",
"8X c #718CD3",
"9X c #50ACD2",
"0X c #71ACD4",
"qX c #5697E6",
"wX c #6E95E5",
"eX c #53AEE9",
"rX c #6FACEA",
"tX c #2CCEC5",
"yX c #61D4D1",
"uX c #54CCED",
"iX c #6ED1F0",
"pX c #73E6F4",
"aX c #8E8E90",
"sX c #8F8DB2",
"dX c #A0A2A0",
"fX c #AEADB1",
"gX c #D7A49D",
"hX c #A3CBA4",
"jX c #DAD4A4",
"kX c #8E8FD3",
"lX c #AD8ED4",
"zX c #93A9D4",
"xX c #B0AED4",
"cX c #9094E5",
"vX c #AF91E6",
"bX c #8EAFE9",
"nX c #AEB2E9",
"mX c #CA8FD5",
"MX c #CAB1D4",
"NX c #CF90EC",
"BX c #ED9EE1",
"VX c #CFAEEE",
"CX c #9FD2D1",
"ZX c #90CDEF",
"AX c #B1CEF0",
"SX c #8FEBF5",
"DX c #B1EEF9",
"FX c #CDCBD5",
"GX c #E7DCD2",
"HX c #D0D1ED",
"JX c #EBD4ED",
"KX c #D0EAF8",
"LX c #ECEAF1",
"PX c #E9EAF5",
"IX c #F4F4F9",
"UX c #FFFFFF",
/* pixels */
"        w @.= O O O     O O O $ $ $ $ $ $ O . : @.: . : @.: $ $ O . . N N $ O O $ $ $ @.w . : @.: . O $ $ $ $ * * 5 / &.4 * O O + $ $ $ o : @.4 X X X # X w @.= = N N O X X . . . . X X X X X X X X X X X X X O O O O O O $ > > > & & & & & $ o : 4 4 5 6 6 6 6 5 6 5 5 5 6 6 6 6 6 6 6 h h h h h h 5 5 5 h h h h h 6 6 6 h h h h h h h h h h h h h h h h h h h h h h h h h ,.&.V V ,./ m m g h h Z >.n f Z >.b b b b p p %.%.z z *.Z 2 2 2 2 2 p p p 2 2 z p p l l l z z p p p l p p p p f g n V V V B B B j s s s s s s c B B s T i.t.I T T T s j n V K K ^ ) ) ) ) N.F.' ' a.a.a.a.a.a.a.a.F.S.a.a.a.a.a.a.a.a.a.a.a.p.i.i.p.p.p.a.a.a.a.a.a.a.a.a.a.a.a.a.a.a.a.a.a.a.a.C.C.C.T.I.a.i.C.C.C.C.C.C.N.C.T.C.a.a.a.p.i.i.` B p i l p c c c F F F F F F F F I L I I Z.D.Y Y I I I I Y Y Y h.D.h.Y Y Y Y Y Y Y Y Y Z.Z.F F F F F F Z.h.G Y D.h.Y Y Y Y Y Y Y Y Y Y Y Y Y Z.Z.Y Y D.M.Y Y Y Y Y T D.o.H H F L L L F F F F F F c c z z p B U p.a.s.s.s.a.a.a.f.a.a.s.C.C.C.C.C.s.s.s.s.s.s.s.a.S.{.C.C.C.C.a.a.C.C.C.C.C.C.C.C.C.a.a.C.{.S.a.S.{.C.a.N.C.a.a.F.F.a.a.a.a.a.a.{.S.a.N.'.S.a.a.a.a.a.a.' ' ' S.S.p.p.p.` ` B B L T N.T.N.` ` ` ` K ;.A.P V &.>.V V V V m V V m m m m n g f 3 3 2 3 2 3 3 3 < , , , , , < < , , , , , , , , , 3 3 , , , , , 3 3 , , , , , , , 2 3 5 5 5 5 5 5 5 5 5 5 5 5 5 5 5 5 5 5 6 6 5 5 6 5 5 5 5 5 5 5 5 5 5 5 5 5 5 5 5 5 5 5 &.@.g w =.N 5 4 4 : : w #.: $ M %.3 p p 3 $ # @.N = = @.w $ # $ $ $ $ $ $ $ $ $ O O O X X X O $ $ # $ $ $ # : O O X $ $ & $ * 5 h 5 * $ O O $ $ O X X X O O O O O O O O O O O O X X X X X w @.$ $ $ = $ $ $ $ $ $ @.w . . O O O O O O O O O     . . . . $ $ $ $ $ X .   . . . . X $ O O X     . ",
"        w @.O                 . . . . . . . . : @.: . : @.$ . .     . N N .     . . . @.w . : @.:   . . . . O $ $ * Q &.4 * $ O   . X X O $ @.: O O X . X w @.O O M Z O X X X . . . X X X X X X O O X X X X O O O O O O O $ & > > > > & * * $ $ * : 4 4 6 6 6 5 5 5 5 5 6 6 5 5 6 6 6 6 6 6 h 6 h h 5 5 6 6 h h 6 6 h h h h h h h h h h h h h h h h h h h h h h h k h h h h ,.&.h h ,./ m m m m h / >.n g Z >.p p p p p p %.%.p p :.Z 3 2 2 2 p p p p p 2 p 2 2 p p l z z p p p p p p p z b B B V V V B B B B B B B B c c B B B s J T T U T T T J B n V K K ^ ) ) ) ) N.F.' ' ' ' ' ' ' ` ` ` F.S.' ' ' ' a.a.a.' a.a.a.a.p.p.a.a.a.a.p.p.a.i.i.i.i.i.i.i.i.a.a.i.i.a.a.a.a.i.a.a.F.I.a.p.p.p.p.p.p.p.p.C.T.C.p.p.p.p.p.i.` j p i i p c c F F F F F Y Z.B.Z.Z.Z.Z.Z.D.Z.Y Y Y Y Y G o.Z.Z.Z.D.h.Y h.D.D.D.Z.D.Y Y Z.Z.F D H H H H Z.o.F H Z.o.Y o.D.D.D.D.h.Y Y Z.Z.D.D.D.Z.Y Y D.D.Z.Z.Z.h.Y Y D.Y G G Y F F F F F F F F F c c l z p J ` C.a.a.a.a.a.C.C.a.a.a.a.a.a.a.a.a.a.a.a.a.a.a.a.a.S.{.C.a.a.a.a.a.a.a.a.a.a.a.a.a.a.a.a.S.{.S.a.S.{.a.a.a.a.a.a.F.S.a.a.a.a.a.a.'.S.a.d.'.S.p._ _ _ _ _ ' ) ) S.F.) _ ) K J c B J i.a.T.S.i.` ` ` K -.A.n n %.=.n n n n n n n g h n n g f p 3 3 3 3 2 3 3 3 3 < < , , , < < , , , , , , , , , , , , , , , , , 3 , , , , , , , 2 3 5 5 5 5 5 5 5 3 3 3 3 3 5 5 5 5 5 6 5 5 5 5 5 5 5 5 5 5 5 5 5 5 5 5 5 5 5 5 5 5 5 5 &.Q 5 5 =.N 4 4 * : $ w @.: & M %.2 2 , & $ # } N O O @.e $ # $ $ $ O O $ O O O O O O X X X X $ $ $ $ $ # # X $ $ $ X $ * 5 6 h h * $ O . X O $ O X X X O O O O O O O O O O O O O O O O O w @.O O O O O O . X . X @.w . .   .               .   . . . . . . . . . . .   . . . . .               ",
"        w @.e w w w w w e w   . O e e e 3 . . : @.N e N @.$ . 3 w w e N N . .         @.w . : @.N e e e e e e e X $ Z @.5 * * $ . . X X O = @.3 O : M e M N @.X O M N O X . X X X X . X X X X X O X X X O O O O O O O O O $ & & & & > & * * $ $ $ * : 4 5 6 5 5 5 5 5 6 5 5 5 5 g g 6 6 6 6 5 5 6 5 5 5 h h h h h h h h h h h h h h h h h h h h h h h h h h h h h h h h m m ,.&.m h >.;.&.&.&.&.&.&.>.n g / >.z p Z X.} Z *.%.p p >.Z p p p p z p z p p p 2 2 2 p p p z z p p p p p z z b n B B B V V B B n n B B B B B B B B B B J K T T T T T U B n P >.N.N.A.A.` ` N.F.' ' ' ' ` ` ` ` ` ` F.S.S.S.S.a.' a.S.S.S.S.S.S.S.S.S.S.S.S.S.a.a.a.S.S.S.S.S.S.S.S.a.i.C.S.S.S.S.S.S.S.F.F.a.p.p.p.p.a.S.S.S.S.T.a.p.p.p.p.p.i.i.J s i i p s c F L Z.Y F T D.M.M.M.M.M.M.M.h.Y Y Z.M.Y Y Y Z.Z.Z.Z.h.Y h.D.Z.Z.Z.K.r.r.Z.D.G H Z.Z.Y Y D.h.H Y Y Y Y h.D.Z.Z.Z.r.Y Y Z.D.Z.Z.Z.h.Y Y Z.Z.M.Z.D.h.Y Y D.Y G o.D.Y F F F F F F F F c c z p p K i.C.C.a.C.C.C.C.C.C.C.C.C.C.a.a.a.a.N.a.a.N.a.a.a.a.S.{.F.F.F.I.I.I.S.S.a.a.a.I.I.I.S.a.a.S.{.F.F.F.{.N.a.S.S.S.S.{.F.a.a.a.a.a.a.'.S.a.d.F.S.S.S.S.S.S.S.S.` ) S.F.) ) K J B c J U i.a.T.S.a.N.A.B.;.>.>.n b %.=.f f f b b b f f g g f f p 3 3 3 3 3 3 3 3 3 3 3 < , , , < , , , , , , , , , , , , , , , , , , , , , , , , , , 2 3 3 3 3 3 3 3 3 3 3 3 3 3 3 5 5 5 5 5 5 5 5 5 5 5 5 5 5 5 5 5 5 5 5 5 5 5 5 5 5 5 5 5 &.Q 5 5 =.@.Q N N N N N @.3 & M %.* * b N N N @.N O O @.w $ $ $ O O O O O O $ $ O O O X X X X $ $ # $ $ # # X $ $ $ $ * * 5 6 5 6 $ O X . X $ $ O X X X O O O O O O O O O : e M M M M $ O w @.O O O O O O . X O O @.N e e e :   : e e e e e e e e e e e e w . . = e e e e e e e e $   : e e e e ",
"        : N N N N N N N @.N   . $ N N N w . . = N N N N N $ . e @.N N N e . . .       @.w . = N N N N N N N @.@.. X N @.3 5 : * $ . N w # = @.3 . : @.Q N N N X O M N O O O O X X X X X X X X X O O X X X O O O O O O O O $ $ & & & * * * : & & $ * : : 4 5 5 5 5 5 5 6 5 5 5 5 g g g h 5 5 5 6 h g 6 6 h h h h h h h h h h h h h h h h h h h h h h h h h h h h h h m m m m ,.&.m h >.,.>.>.>.>.>.;.;.n g / >.z p X.>.%.%.%.X.p p >.Z p z z z z z z p p 2 2 2 2 2 2 p p z p p p p p z z b n n B B B n n n n n n n n n n B B B B B B J K T T T T t.B B V A.A.F.F.F.` ` N.F.` ' S.S.` ' S.A.' ' F.F.F.F.F.N.' N.F.F.F.F.F.F.F.F.F.F.F.F.F.a.a.a.F.F.F.F.F.F.'.{.S.a.S.{.T.{.{.T.T.{.F.F.a.a.a.a.a.a.{.T.T.T.T.C.a.a.a.a.a.a.i.J s p p a s c F L Z.Y F T D.L F H H G G G G Y Y Z.Z.Y Y Y Y Y Y Y Y Y h.D.r.Y h.D.Y r.Z.D.r.Y D.D.Y Y D.Z.h.h.h.h.h.h.D.h.Y Y Y Y Y Z.Z.Y Y Y Y Y Y Y Y Y Y D.h.G Y D.Y G o.D.Y I I F F F F F F c z i i s P a.H.C.C.C.C.C.C.C.C.C.C.C.C.S.C.S.S.S.S.S.S.S.S.C.C.S.{.{.{.{.{.{.{.{.{.d.C.C.{.{.{.S.S.S.S.{.{.{.{.{.S.a.S.{.'.{.{.F.a.d.d.a.a.a.'.S.a.d.F.F.F.F.F.F.F.F.F.` ` A.F.) ) K B s B A.N.p.a.F.S.a.N.F.A.>.>.>.n b X.%.p p p p z p p p p p p 3 2 3 2 2 2 3 3 3 3 3 3 3 < < , < < , , , , , , , , , , , , , , , , , , , , , , , , , , , 3 3 3 2 2 2 3 2 2 2 2 2 3 3 3 5 5 5 5 5 5 5 5 5 5 5 5 5 5 5 5 5 5 5 5 5 5 5 5 5 5 5 5 &.Q 5 5 @.@.#.@.@.@.@.@.@.3 , V %.* : N @.@.@.@.N O O @.w $ $ O O O O O $ $ $ $ O O O X O X O $ $ $ $ $ $ $ = $ $ $ * 4 5 6 6 4 * O X . . O $ $ O X X O O O O O X O O O O : @.N N @.@.$ O w @.O O N N O O N w O O N N N @.@.:   : @.N N N N N N N N N N @.N . . $ N N N N N N N @.: . w @.N N N ",
"                        N N   . . . . . . . X . . X X X . X O e @.. . . . . . .       @.w   .           . . w @.X X N } & * * 4 4 * @.w . = @.0   : @.: X X O O O M Z O O O O X X X X X X X O O O O X X X X X O O O O O O $ $ $ $ & : * * , > > & $ $ * * * 5 5 6 6 6 6 5 5 5 5 5 5 5 5 5 5 5 5 5 5 5 5 5 5 5 5 g g g g 5 5 5 f f f g g g g g g g g g g g h h h g g g g g g ;.%.g g f f g g g g g f f f 3 Z >.z z X.*.p p 3 3 3 3 :.Z p p p z z z z p p 2 1 1 1 2 2 2 p p p p p p p p z z z b b b b b b b b b b b b b b z b B B B B B J P U U U t.J B B B.P K ` F.` K ;.F.K K A.F.` ` F.B.` ` ` ` ` a.F.N.` N.F.i.` ` ` ` ` i.i.i.i.F.F.i.a.a.a.a.a.a.a.a.S.{.C.a.S.{.a.a.a.a.a.a.a.a.a.a.a.a.a.C.{.S.a.a.a.a.i.i.i.i.i.a.i.K B p p p a s c J B.L c L B.L F F F F F F F F F Z.M.F F H H L L L L I o.D.Y Y h.D.Y Y Z.Z.Y Y D.Z.G G Z.h.G G Y r.r.j.U.o.Y Y Y Y Y Z.Z.Y Y Y Y Y Y Y Y H Y D.o.H Y D.Y F o.D.L F F F F F c c c x l i i c P i.C.C.C.C.C.C.C.C.C.C.C.C.C.C.C.N.N.C.C.C.C.N.N.N.N.C.C.N.N.C.C.C.N.F.F.N.N.N.a.a.a.a.N.a.a.a.a.a.a.a.a.a.S.'.a.a.a.a.a.a.a.a.a.a.F.S.' ` ) ` ` ) ) ` ` N.F.) ^ A.A.K K B c s J F.C.p.a.T.S.' N.F./ n n b b b %.=.p p p p p p p i 2 2 2 2 3 2 2 3 3 3 3 3 3 3 3 3 3 3 < , , , , , , , , , , , , , , , , , , , , , , , , , , , , , , , , , , , , , , , , 3 3 2 3 3 5 5 5 5 5 5 5 5 5 5 5 5 5 5 5 5 5 5 5 5 5 5 5 5 6 6 5 &.Q 4 : : * * $ $ $ & & , 2 2 V %.: $ e @.O O O $ $ $ @.e $ O O O O O O O O O O # # O X O $ # $ $ $ $ $ $ $ * $ $ * 6 6 5 4 $ o O # X X X $ $ $ O X X O O O O O X X O O O : @.: O 0 @.$ O w @.O O N N O O N e X O . . . : @.:   : @.O . . . X X . . . . N N . . . . . . . . . : @.= . w @.. . . ",
"                        N N   . . . . . . . X X . X X X . X O e @.. . . . . . .     . @.w . . .   .     . . w @.X X N Z $ * * 4 4 4 &.w . $ @.0 X 3 @.: X X O O O M Z O O O O O X X X X X X O O O O O X X X O O O O O O O O O $ $ $ & * , , > > & # $ $ * * : 4 5 5 5 6 5 5 5 5 5 5 5 5 5 5 5 5 5 5 5 5 5 5 5 5 5 5 5 5 5 5 5 5 5 5 5 5 5 f 5 f f f f f f f f f f f f f f g &.%.f f 3 f 5 5 5 5 5 3 3 3 3 Z =.p p X.%.p p p p 3 p :.Z 2 3 3 p p p p p p 2 1 1 2 2 2 2 p p p p p z p p p p p p p p p p b b z p p p p c c c c B B B B B B K J K U t.U J J B.P B / A.K K ` A.K K B.A.K K A.N.K K K K K ` F.` U M.F.` U U U U U U U U U A.A.T T U U T T T T T M.F.i.T N.F.T T T T T T T T T T ` t.i.i.F.N.i.i.i.i.T t.t.t.i.i.T J c p p p p p c c o.c c L B.B.B.B.B.c c L L c c B.-.c c B.B.B.B.o.F F Y B.L J o.D.D.D.D.Z.F H h.h.G G Z.o.F G G G G r.D.D.D.D.Y F F -.Z.F F Z.D.D.D.B.F F L B.P F L B.B.B.B.B.J c c c c c c c c x l i i B P i.i.i.i.i.i.i.i.i.i.i.i.i.i.i.i.i.i.i.i.i.i.i.i.i.i.i.i.i.i.i.i.i.i.S.S.` ` ` ` ` ` ` ` ) ) ` ` ` T ` U ) A.F.) ) ) ) ) ) ) ) U U F.N.K U U K K K K K K ;.A.K K N.A.B B B c s U F.S.p.a.T.S.` ;.A./ n n b b b %.=.p p p p 3 2 2 2 2 2 2 3 3 3 3 3 3 3 3 3 3 3 3 3 3 < < , , , , - - - , , , , , , , , , , , , , , , , , , , , , , , , , , , , , , , , , , 3 2 2 3 3 3 3 5 5 5 5 5 5 5 5 5 5 5 5 5 5 5 5 5 5 5 5 5 5 5 5 &.Q : : * * $ $ $ & & > 2 2 2 m %.& $ e @.$ O O $ $ # @.e $ O O O O O O O O O O O # $ # $ # $ $ $ $ $ $ $ & $ * 4 6 6 5 4 * O O O # # # $ # $ $ O X O O O O O O O X O O O : @.: O 3 @.$ O w @.O O N N O O N e . X . . . : @.:   : @.$ . . X X X . . . . N N . . . . . . . . . : @.=   w @.. . . ",
"= N N N N N O           N N N N N w . O N N N N N N N N N N N @.@.X X X N N N N N N N @.w         . : N N N N @.O O N } N N Q Q Q Q &.m $ $ @.0 X 0 @.N N N : O O M Z O O O $ O X X X X X $ $ O O O O M N N N N N N N w O O O w N N N Z , , , Z Z N N $ $ $ * * : 5 5 5 4 4 4 4 5 5 5 5 5 Q / / @.@.@.@./ @.@.@.@.@.@.@.@.@.n 5 m %.%.%.%.%.%.%.%./ 5 5 5 5 f f 5 5 5 5 f f =.&.%.%.Z 3 3 b %.%.%.%.@.0 < C =.%.%.*.%.p p Z %.%.X.*.C 2 2 2 2 p p p p p C X.X.X.X.X.X.X.X.X.X.X.%.%.%.%.%.%.%.%.%.B p c c z p p p p c c c c B B B B B B B J K U T T P P B.K B P B.;.;.;.B.J J ;.B.J J B.B.N.N.N.B.B.B.A.` J ` A.P J T N.N.N.N.N.N.N.A.N.J J M.M.M.M.M.T J T Z.T J h.Z.M.M.M.M.M.M.M.I I J N.N.N.N.S.T I I I I U I U U U U U J c p i p p p p p i p p c L L L -.:.p p -.:.s c :.X.s p :.o.P P L c c L >.c c L P P P P P c c F F F F B.T F F F F F F o.X.X.X.B c c o.:.c c -.:.P P L c c c B.L c c P P L L P c z z z z p c c c x l i p B U ` i.U U U U U U U U U U U U U U U U U U U U T B.B.B.B.B.U U U U U U B.A.B.N.B.-.J K N.N.N.N.N.N.N.N.N.N.N.A.A.K J J N.N.N.N.N.N.N.A.` J J K K K K N.N.N.B.A.B B ;.B.-.-.-.-.:.A.T.S.p.N.F.N./ ` A.>.&.&.m b b %.=.p p p p p 2 2 2 2 2 3 3 3 3 3 3 Z } } } } } } } b < , , M } } } } - , , } } } Z , , , 3 3 3 , , , , , , , , , , , , M } } } } } } } } } } } } @.@.@.@.n 5 m @.%.%.%.&.&.&.&.Q 5 5 5 5 6 5 5 5 5 5 5 4 &.&.Q @.N : $ 3 N Z Z Z Z 3 2 b @.N N #.@.$ O N N N N @.e $ O O O O O O O O w N N N N N N N N N N N N N N N Q Q &.&.&.5 * O O # = # # # # # $ O O O O $ O O O O O O O O O : @.: O w @.N N N @.O O N N O O N N N N N N N N @.:   : @.$ . 3 N N N N N N N @.N . . N N N N N : . : @.: . w @.N N N ",
": @.N N N @.O   w N     w N N N Q e . $ @.N N N N N N N N N N N N X X X N N N N N N N N :     . . . : @.N N N N O X e N N N N N N Q Q m 5 * $ . X 3 N N N N : O O M Z O O $ $ O O O O O $ $ $ N N O O } @.N N N N N N w O O O w N N @.@.& & , Z Z Z M % $ $ $ * * 4 4 5 5 5 5 5 5 5 5 5 5 / &.@.%.@.@.@.@.@.@.@.@.@.@.@.%.=.b 5 Z =.%.%.%.%.%.%.&.%.5 5 5 5 5 f 5 5 5 f f f %.%.%.%.Z 3 3 b *.%.} %.=.z < M X.%.%.%.} p p %.*.%.%.X.b 2 2 2 2 p C :.b p Z :.X.X.X.X.X.X.X.X.X.X.%.%.X.X.X.X.%.%.>.C z c c c p p p p c c c c B B B B V C B J K T U i.T K B B B P ;.;.N.;.;.J J J J J J N.N.N.N.N.N.N.N.N.T J J J J J -.F.Z.B.N.N.Z.Z.Z.M.I I F.Z.Z.B.A.t.I t.K.T I i.Z.B.B.Z.Z.Z.Z.Z.I I I A.Z.Z.N.Z.T I I I U J J I I U U U J c p i 2 2 p p i 2 2 i i p i p Z :.p p %.%.p p %.P p p :.C p p p p p C :.z i p i i p p p p c c z p p :.Z z z z l i i i p p p p p p P %.p p X.X.i i i i i p :.B p p p i i i i i i i i p p p c c l l p p J T ` U t.t.t.t.t.t.t.t.t.t.t.t.T T T T T T t.t.i.F.A.A.F.F.t.U B.F.T T N.B.Z.Z.F.B.U ` F.F.A.A.A.A.B.B.B.B.B.A.A.T U U B.A.B.B.A.A.B.B.M.U U K K K ` A.B.N.N.N.K K ;.;.-.-.-.B.B.F.T.S.` ` ` ` K / ;.&.&.&.m b f @.&.f f 3 p p p p p 2 2 2 3 @.@.3 3 %.%.} } } } } } b , , , M } } } %., , , } } } N 3 3 3 3 3 3 3 , , , , , , , , , , , } *.} } } } } } } } } @.@.@.@.%.=.n 5 Z =.@.@.@.&.&.&.&.&.5 5 6 6 6 6 5 5 5 5 4 4 Q Q Q Q N : & 3 %.%.Z @.%.3 : w N N N N N $ O Q @.N N N w $ O O O O w @.: # e @.N N N N N Z Z N N N N N Q Q ( &.&.&.&.4 O O = = = O # # # O O O O $ $ $ $ $ $ $ $ $ $ $ $ $ $ O O 3 N N N N N O O O O O O N N N N N N N N N : . . . . . w @.N N N N N N N e . . @.N N N @.: . : @.: . : N N N N ",
": @.: . w @.O . w N     .     . N e . $ @.w . . . X X X O O O O O X O O O O X X O O O . . . . . . O 3 @.$ . X X X O O O $ $ $ O X $ * 5 5 5 * $ O O O O X O O O O M N O O $ $ $ O $ $ O $ O $ N N O O } M O O O O O O O O O O O O O M @.$ $ * : * , , , % $ $ $ * : 4 4 5 5 5 5 5 5 5 5 5 &.&.5 5 5 5 5 5 5 5 5 5 5 5 5 m =.m 5 Q =.5 5 5 5 5 5 &.%.f f f f g g g g g f f f f 3 3 3 3 3 3 b *.M 3 M =.z l 0 p p p p p p p %.%.p p p 2 2 2 2 2 2 M =.b p C =.2 2 2 p p p p p p p l l p i p p p C >.C B b b z z z z z c B B B B B B B C B B K K K U T T U J B B B K K K K K K K K K K K K K K K K K K U U U U U U U U N.F.U U U U U U U U U U F.N.U ` F.a.) a.F.' U U U U U ) ) U ) U U U T F.B.T U U U U U t.U T t.t.t.i.i.i.T J s p 2 2 p p p z z z z z p p Z :.p p %.%.p p %.P p p :.P B B B z p C :.C B B z p p p p p p p p z p :.Z b B b B B B B z p c B B B -.-.p p X.X.p p B B B C :.C p p z c c c c z p p z p p p l z i p p p K ` i.i.i.i.i.i.i.i.i.i.i.i.i.i.i.i.i.i.i.i.i.i.N.F.N.i.B.F.i.` S.F.i.i.i.i.` ` F.A.` i.F.A.` ` ` ` ` ` ` ` ` ` ` ` ` ` ` ` ` ` ` ` ` ` ) ) ) ) ) ) N.F.` ) ) ) ) ) K K B B B U ` a.a.` / / / P V n n n n n n f f %.&.f f f b b f f p 3 3 3 3 @.@.3 3 %.Z 3 3 3 3 , , , , , , , , , Z %., , , , 3 3 3 3 3 3 3 3 3 3 , , , , , , , , , , , } %., , , 3 2 2 2 3 2 2 3 3 3 m =.m 5 Q =.5 5 5 5 5 5 &.&.5 6 5 5 6 6 5 5 5 5 * * : * : * $ : * f %.b 2 b *.3 $ $ $ $ $ $ $ $ $ @.N $ $ $ # $ $ # $ $ w @.: $ e @.& & $ $ $ $ $ $ $ & * 4 5 5 m 5 5 5 @.3 $ $ # = # $ $ $ $ O $ $ $ $ # $ $ $ $ $ $ $ $ $ # # # O O O O O O O O O O O O O O . . . . . . . . . O O O O O O w @.X X . . . . . . . . @.w . $ @.3 . : @.: . . . . X X ",
": @.: . w @.$ . w N     .     . N e . $ @.w . . . X X X O O O O O O O O O O X O O O O . . . . . O X 4 @.$ O X X X X O O O O O X X $ * * 5 5 6 4 * o O O O O O O O M N O O O $ $ $ $ $ $ $ $ $ N N X $ Z M O O O O O O O O $ $ O O O N @.$ $ & * * 2 , , & % $ $ * * : * 5 5 5 5 5 5 5 5 5 &.&.5 5 5 5 5 5 5 5 5 5 5 5 5 W ,.m 5 Q >.5 g g g g 5 &.&.f g g g h h g n b f f 5 3 3 3 3 3 3 3 b *.M 2 M =.z z z z z z z p p p %.%.p p p p 2 2 2 2 2 M =.b p C *.2 2 2 2 p p z p p p z l l i p p p C >.C b n n n n n n n n B B n B B B B B B B K K K P T T T K B B B K K K K K K ^ ^ ^ ) ) ` ) ) ) ) ) ) ) ) ) ) ) ) ) ) N.F.` ` ` ` ` ` ` ` ` ) F.N.) a.F.N.) N.F.a.) ) ) ) ` p.` ` p.) ` ) i.T.S.i.i.i.i.i.i.i.i.i.i.a.p.p.a.a.` K j p p p p p z *.*.:.:.:.z p Z :.p p C C p p -.P p p :.:.:.:.:.C i C :.:.:.:.B p p p p p p p p p p :.:.:.:.:.:.:.>.>.B p P :.:.:.:.-.p p L C p p :.:.:.:.:.C p p L :.:.:.:.z p p p p p p p p i p p p K i.N.p.a.a.a.a.a.a.a.a.a.a.a.N.N.a.a.a.a.a.a.a.N.T.N.a.S.T.a.a.S.F.a.a.a.a.a.a.F.S.a.N.'.S.a.a.a.a.a.' ' ' a.a.a.a.a.a.a.a.a.a.a.a.' ' ' ' a.' ' ' N.F.' ` ` ` ` _ ) K V B J T i.a.` / Z V V V V n n n n n n g b %.=.g f f b b b f p 3 3 3 3 @.@.3 3 %.Z 3 3 3 3 , , , , , , , , , Z %., , , 3 3 3 3 3 3 3 3 3 3 3 , , , , , , , , , , , } %., , , 3 2 2 2 3 2 2 3 3 3 m =.m 5 Q =.5 5 5 5 5 5 &.&.5 6 5 5 6 6 5 5 5 5 * * * : * $ * : 2 b %.b * b @.: # $ $ $ $ $ $ $ $ @.N $ $ # O $ $ $ $ $ w @.3 $ b @.& & & $ $ $ # % & * * 5 h h 5 5 * 3 @.3 $ $ # # $ $ $ $ $ $ $ $ $ $ # $ $ $ $ $ $ $ $ $ # # # O O O O O O O O O O O O O O . . . . . . . . O . O O O O O w @.X X . . . . . . . . @.w . $ @.3 X : @.: . . . . . X ",
": @.: . w @.$ . w N   . M N N N @.e . $ N w . : N N N N N N N N N O O O O O O O $ O O . . . . . O O : N $ . $ $ X X N N N N } } } } Z Q Q &.Q 6 4 5 Q Q Z Z } X O M N O O = $ $ $ $ $ $ $ # $ N @.Z Z @.M O = } } Z Z Q } Z Z Z : O N @.Q Q @.@.@.%.%.C , % $ $ $ * * * 5 5 5 5 5 5 5 5 5 &.&.5 5 ( &.&.&.&.Q 5 5 h h h Q ,.m 6 Q ,.&.&.&.&.h h &.&.h h h h h h n b g 5 5 5 3 3 3 3 %.%.%.%.=.M 2 M =.z z Z :.=.=.*.b p p %.X.p p %.*.%.%.%.%.%.*.=.b 2 C *.%.%.%.%.*.*.*.z z z z z z z %.%.*.-.>.C b n n n m n n n n n n n b B B s j B B V B B V U T ` K B B B V V K K K ^ ^ ^ ^ ) _ ` _ ' ' ' ' ' ' ' ' ' ' ' ' ' S.'.F.F.F.F.a.a.a.F.F.F.T.S.a.a.T.S.a.S.'.T.F.F.F.a.a.a.F.F.F.T.F.F.F.T.S.a.a.a.a.a.a.a.a.a.a.a.a.a.a.C.` K j p p p p p z :.C B P :.z p C :.p p p i i i -.P p p C C C P :.C i z C B C C z i p p p p p p p p s L L L L L L J P :.B p L :.L C C B p p p i p i :.X.C C C c p p B C C P :.z p p i i p p p p p p i p U N.C.a.C.C.C.C.C.C.C.C.C.C.C.C.N.N.N.N.N.N.N.N.S.{.S.N.S.{.S.N.S.F.d.d.F.{.{.{.{.S.d.N.{.S.a.S.{.'.'.{.'.'.'.'.'.a.a.a.a.a.a.a.a.a.a.a.d.d.d.a.' ' N.F.a.' ' ' ' ' A.A.B.>.A.F.T.F.A.A.>.>.%.n n Z =.=.>.>.=.g b %.=.b b n n b b f p 3 3 3 3 @.*.%.%.*.Z 3 3 %.%.%.%.@.} } @.@.< , Z %.@.%.%.%.%.%.%.Z 3 3 3 3 3 3 3 , , , , , , 3 3 < < } %.3 3 @.%.@.%.%.N 3 2 3 5 3 m =.m 5 Q =.&.&.&.&.5 5 &.&.5 5 6 5 6 6 5 5 4 4 * * * * $ $ @.@.%.%.;.m 2 b @.= O w @.@.@.@.: $ $ N N $ O @.@.@.@.@.@.@.@.@.3 $ b @.@.@.@.} } } } % $ * 5 m m W @.@.@.} @.3 # $ $ $ $ $ $ $ $ $ $ $ $ $ $ O $ $ $ # $ $ $ $ # # $ O O O O O O O O O O O O O O . . . . . . . . O O O O X X O w @.N N N N . . $ N N N @.w . $ @.3 . : @.@.N N N X X X ",
": @.: . w @.$ . X . . . N N e e e 0 X X X . . : @.N e e e e e N @.O O O $ $ $ $ $ $ O O O . . . . . . . . . w @.X X N @.M M M M M N N M e M w * 3 m &.Q N N #.= $ N Q # # N N O O O # # # # $ w M M M M w O = @.N M M N N e N @.= O w N N N N N N N @.Z 2 2 2 , & & & & : 4 5 5 5 Q ,.6 6 &.&.5 5 &.&.( ( ,.Q h m ,.Q h Q ,.Q h Q &.&.&.,.&.g h &.&.h h m m m n b w 3 3 3 3 3 0 z p :.%.Z Z Z b l C :.z p Z >.%.%.%.b b z z z 0 0 :.%.} } } } } Z Z b p C Z Z Z Z Z } } } 1 1 1 :.} i z :.X.Z Z P b z f n B B B b b B B B B B B B B B B B B B B B b n J P J J B B V K K K K K K K K ) ) ) ` ` ` ` ` ` ` ` ` ` ` ` ` N.S.S.S.F.F.' ' a.S.S.S.S.N.i.a.T.S.a.N.S.S.S.F.T.a.a.a.S.S.S.I.S.F.S.S.C.a.a.a.a.a.a.a.a.a.a.a.a.a.a.N.a.K c p p p p p c :.B p B :.z i Z :.i i p i p i -.P p p i i i B :.C p p p p p p p p p p p p p p p p p p p p p p p p B >.B p L :.c p p p p p p z p p :.X.p i i p p p p p p C :.c p p p p p c i i l p p j ` a.C.a.C.C.C.C.C.C.C.C.N.N.C.C.C.C.N.N.C.N.a.a.C.{.C.a.S.{.C.a.a.a.a.a.F.F.F.S.S.N.a.a.a.a.a.N.T.S.S.S.S.S.S.F.'.a.a.a.a.a.a.a.' ' ' ' ` ` ` ' ` ` ` ` ` ` N.F.) ` B.B.-.M.A.B.>.;.;.;.;.&./ V m P >.%.%.=.>.p f %.=.b b %.%.z p p 3 3 2 2 3 M Z Z Z Z M 3 z *.%.Z Z Z Z C } *.< , b Z Z Z Z } } } *.X.p 3 3 3 3 , 3 , , , < , , M *.< < } %.3 3 %.%.Z Z =.N 3 5 =.m 3 N =.n 5 m / Q Q &.&.6 6 &.&.5 5 6 6 4 4 4 4 4 : : = : : * 2 %.%.Z Z Z 3 $ w @.: $ e @.N N N = $ $ $ $ $ $ @.Q N N N M N m N 3 - 0 M N m m m N M M * 6 h ,.&.5 2 @.N M M M : $ $ $ $ $ $ $ & $ $ $ $ $ $ $ $ $ $ $ # # $ $ $ O O O X O O O O $ $ O X O O . . X X . . X X . X X . . . X X O O : M M M N N X X $ M M M M : O $ @.: . : e e e N @.. . O ",
": @.: . w @.$ . X . X X N N X X X X X X X . . : @.: . . . O O M @.O O O O $ $ $ $ $ O O O O O O X X . . . . w @.X X N N O O O O O O O O O O $ $ * m &.h * e #.o O M } $ $ N N $ O O $ $ # $ $ % $ $ # O O O = @.w O O O O O w @.= $ # $ # $ $ $ $ % @.C , 2 2 2 , , , & * 3 4 5 5 Q ,.6 6 &.&.5 5 &.( 6 h ,.Q h m ,.Q h Q ,.m h h h h h ( &.g 5 &.&.h h h h n b b 5 5 3 3 3 3 p p p >.Z p p p p z C =.z z Z >.z z z z z z z z p 0 *.Z p p z z z z z p p p p p p p p p 1 1 2 2 2 :.} p z :.B 2 p p p z b b n n b b p b B B B n n n n B B B B B B C B B K J J J J V V K ^ ^ ^ ^ ^ ` ` ` ` ` ` ` ` ` ` ` ` ` ` ` ' ' ' ' ' ' ' S.F.' a.a.a.' ' ' ' ' a.F.N.i.i.p.i.i.S.T.i.a.a.a.a.p.p.a.a.p.p.p.p.p.p.a.a.a.a.a.a.a.i.a.i.a.a.a.K j p p p p p B :.B p B :.z p Z :.i i B C C C :.X.p i i p p B :.C p c C C C C C p p p p p s s p z p p p p p p p p B >.P C X.:.c z C C C C C B p p :.X.p z C C C C C z p C :.C C C z l p c i i l i p j ` a.C.a.a.a.a.a.a.a.N.a.a.a.a.a.a.a.a.a.a.a.a.a.C.{.C.a.S.{.N.a.a.a.a.a.F.F.a.a.a.a.a.a.a.a.a.N.'.N.a.' a.' ' S.'.' ' ' a.' ' ' ' ' a.' a.a.a.` ` ` ` ` ` ` N.F.) ) >.B.J U ` ` P V V K K V V V n Z >.C b P >.z f %.=.b b %.%.z p 3 3 3 3 2 3 3 3 3 3 3 3 3 z *.Z 3 2 2 1 , b *.3 , , , < < 2 < < 3 *.X.p 3 3 3 3 3 3 < < < , , , M *.< < } %.3 3 %.Z 3 3 =.Z 3 5 =.M 3 m =.n 5 5 5 5 5 Q &.6 6 &.&.5 5 6 6 6 5 4 4 : : : : : , 2 2 =.C 3 * & $ $ w @.: $ e @.$ $ $ $ $ $ $ $ $ $ @.e $ $ $ # & & & & , - - # & & - $ $ * 6 h h ,.Q * 2 @.0 $ $ $ $ $ $ $ $ $ $ $ $ $ $ $ $ $ $ $ $ $ $ $ # # O O O O O O O O O O O O O O X X X . . X X . . X X X X X . . . X X X O O O X X M N O X X X X X X . . $ @.: . . . . X w @.. . . ",
": @.: . w @.: $ $ $ X X N N $ $ = = = = $ O . : @.: $ $ $ X O M @.O O $ O $ O $ $ $ $ O O O O O O O . . . . w @.X X N N = = = = = : : : = = = : : m &.m 5 Q #.* = M } # O N N O $ $ $ # # $ $ $ & & : = $ O = @.e = = $ O O w @.: = = $ $ $ $ : : : } M , 2 3 3 2 , > & * * 3 5 5 Q ,.h h &.&.5 5 &.( 6 h ,.Q h m ,.Q 5 Q >.m g h h h h &.&.5 5 &.&.h h h h g f 5 5 5 3 0 0 z z b z =.Z z p z z z C >.z z Z >.b b b b b b b z p 3 >.Z b b b b B B b p p z z z z z z z z z 2 2 2 :.X.z z :.C 2 p p p p b B C C B n p p p b B b b b b n B B B B B Z P P P U U K K K K ^ ) ) ) ) ` ` ' ' ' ' ' ' ' ' ' ' ' ' ` ' a.a.a.a.a.a.a.S.F.a.a.a.a.a.i.' ' ' a.F.N.a.a.a.a.a.S.T.a.a.a.a.a.p.a.a.a.p.p.p.p.a.a.a.a.a.a.a.p.i.i.i.i.a.a.a.K j p p p p p B :.B p C :.z p P :.i p %.:.:.:.:.X.p i i p p B :.C p C :.:.:.:.>.p p p p p s s p z p p p p p p p p B >.:.:.:.:.c z X.:.:.:.:.X.p p :.X.p c :.:.:.:.:.B p C :.:.:.:.c l p c i i l i p j i.N.C.N.a.a.a.a.a.N.N.N.N.N.a.N.a.a.N.a.a.a.N.N.S.{.S.a.S.{.C.N.N.N.a.a.F.F.N.N.a.N.N.N.N.a.a.N.'.S.N.N.N.a.a.S.'.' ' ' a.a.a.a.' a.a.a.a.a.a.' ' ' ' ` ` _ N.F.) ) >.B.K ` M.` ` / / / / P Z V C Z >.C b P >.b n %.=.b b %.%.z p 3 3 3 3 2 3 3 0 0 0 z z p z *.Z z z 3 , , b *.z 3 3 , < < < 0 z z *.} p 3 3 3 3 3 , 3 < < , < < M *.3 3 } %.3 3 %.} 3 3 =.Z 3 w =.m 3 m =.b 5 5 5 5 5 Q &.5 6 &.&.5 5 6 6 5 5 4 3 : * : : 3 3 3 3 %.N * : : : : w @.: $ e @.: : : : : : : $ $ $ @.M : : : ; : * * * & ; < ; < < < : 5 6 R R h &.N 3 3 @.w $ $ $ $ $ & : : : : : $ $ $ $ $ $ $ $ $ $ $ $ $ # $ O O $ O O O O O O O O O X X X X . . X X . . X . X X X X . . O $ $ $ $ O X O M N $ $ $ X X X X X . $ @.3 . O $ $ $ e @.X . . ",
"$ e = . w @.@.@.@.N X X N @.@.@.@.@.@.@.@.w O : @.@.@.@.@.$ O N @.O O O $ $ $ $ O $ $ O O O O O O O O O X X : M O O N @.@.@.@.@.@.@.@.@.@.@.@.@.@.&.&.m R Q &.@.@.@.@.O X 0 e $ # # # # $ $ $ $ @.@.@.@.M $ = @.@.@.@.w $ $ w @.@.@.@.3 $ $ $ @.@.@.@.M % & 3 3 2 2 , , * * * 3 5 Q ,.,.,.,.&.5 5 &.( h h ,.Q h h &.m g Q >.m g g g g g %.&.h h / Q h h h g g 5 5 5 b b b z *.=.=.>.>.Z z z C >.=.>.=.b z Z >.>.=.>.>.>.>.*.z z p >.>.>.>.>.>.>.>.P p p Z >.:.:.:.:.:.:.*.1 2 2 *.:.*.:.*.C 2 p p p p Z >.>.>.>.:.p p p z z z p p b b b B B B C C T ` T T T T P K K ^ ) ` ' ' ' ' ' ' ' ' ' ' ' ' ' ' ' ' ' S.'.'.'.'.N.a.a.S.'.'.T.F.a.a.a.S.N.a.N.T.S.a.S.T.T.T.{.{.a.a.C.S.a.a.a.a.a.a.a.a.a.a.a.a.a.a.a.a.a.a.a.a.a.a.N.a.P B p p p p p B :.B p B :.z i P :.p p %.-.c c c z p p p p p B :.C p C >.B c P >.p p p s s s p p z p p p p p p p s s B c c c c z z X.:.c c -.X.p p :.X.p c :.L c C :.B p z z c c c p p p p i i l p s J N.C.S.C.S.S.S.S.S.S.S.S.S.S.S.S.S.S.S.S.S.S.S.S.S.{.S.S.F.{.{.{.{.{.S.S.'.{.{.{.{.{.{.{.{.S.N.S.{.{.{.{.{.N.a.S.{.a.a.a.a.a.a.a.a.a.a.a.a.a.a.' ' ' ' _ _ _ N.A.) K :.A.F.F.T.F.F.F.F.F.F.A.A.>.>.>.>.C b X.>.>.>.>.=.b b Z Z p p 3 2 3 3 3 3 3 *.=.=.=.} p z =.=.=.*.Z 3 3 b *.*.*.*.z , < < =.=.=.>.} 3 3 3 3 3 3 , , < < , < 3 M *.*.*.*.%.3 3 %.} 3 3 =.N 3 3 Z b 3 N =.b 3 5 5 5 5 Q &.5 5 Q Q 5 5 5 5 5 4 4 : * * * * %.*.*.=.%.m : $ w @.@.@.@.: $ e @.@.@.@.@.@.@.@.$ $ $ @.@.@.@.@.@.@.%.m * & b %.*.@.@.%.&.,.,.W h 3 %.@.@.%.@.w $ $ $ $ % b @.@.@.@.@.$ $ $ $ & $ $ $ $ $ $ $ $ # $ O O $ $ $ O O # # O O O X X X X X X X X . . . . X X X X X X 3 @.@.@.@.: X O M @.@.@.N O O O 3 = X $ @.3 . 3 @.@.@.@.@.. . : ",
". . . . : w w w N N X X 0 w w w w w w e @.w O $ w w w N @.= O M @.O O O O O $ $ O $ $ $ $ $ $ $ O O O O O O O O O O w w e e e e w w w w w w e e b b m 4 5 W / Q m b w $ $ $ . X # # # # $ $ $ $ e b w @.M $ $ w w w w : $ $ : e e e e : $ $ $ e b e w 3 $ & , 2 3 3 2 2 & : * 3 5 m Q Q Q Q Q 5 5 &.( h h ,.Q h h h g g Q >.m h g g g g &.,.h h h h h m m g g f b b b b b z *.%.Z Z Z C z z b Z Z Z Z z z C Z Z Z Z Z Z Z Z z b z X.%.%.%.%.P P P C p p Z >.Z Z Z C C C C 1 2 2 C C C C C z 2 p p p p Z >.P P -.>.z z z z z z z z z b b b n n B C U T T i.i.T T K K K / ` ) ' ' ' ' ' ' ' ' ' ' ' ' ' ' a.a.S.'.S.S.S.N.a.a.S.S.S.S.S.a.a.a.{.S.a.N.'.S.a.S.{.F.S.S.S.a.a.S.T.a.a.a.a.a.C.C.N.a.C.C.C.C.C.C.C.C.N.N.N.N.N.C.N.` V p p p p p B :.B p C :.z i P :.p p %.-.p p p p p p p p p B :.C p C >.c p P >.p p s s s s s p z p p p p s s s s c c p p p z z z X.:.z c -.-.p p :.X.p c :.C p B :.B p p p p p p p p z p i i i p B K C.C.S.S.S.C.C.S.S.S.S.S.S.S.S.S.S.S.S.S.S.S.S.S.S.S.S.S.S.F.F.F.{.{.S.S.S.S.S.S.S.S.S.S.{.S.a.N.S.S.S.F.{.N.a.S.{.a.a.a.a.a.a.a.a.a.' ' a.a.a.) ' ' ' ) ) ) ` ) K K / N.B.S.S.N.N.N.N.;.;.-.%.%.P X.X.C b C Z P P P Z b z z z p p 2 2 2 3 3 3 3 Z Z Z =.@.p z Z Z Z Z b 3 3 z M M C C 3 < < < C C C Z M 3 3 3 3 3 3 , , , < , < 3 b C M M M M 3 3 %.Z 3 3 =.N 3 3 3 3 3 N =.b 3 5 5 5 5 Q &.5 5 5 5 5 5 5 5 5 4 * * * * 3 2 %.%.C C M 3 $ $ : e b b b : $ 3 b b e e b e b w $ $ $ b b M M b b M M 5 * & b %.b b m Q ( ( ( 5 * - b b b m b : % % % % % b @.M b Z @.$ $ $ & & $ $ & & $ $ $ $ # $ $ $ $ $ $ # # # O O X X X X X X X X X X . . . . X X X . X X 3 @.e w w $ X X : w w w w O O O @.w O $ @.3 X 3 @.e w w w X X e ",
". . . . X X X X M N X X X X X X O O X = @.w O O O O O 3 @.= O M @.O $ O O O $ $ $ $ $ $ $ $ $ $ $ $ $ $ O $ $ $ O O O O $ $ $ $ $ $ $ # # # $ $ $ & & * 3 5 h h 6 4 $ $ $ $ X O $ # # # # $ $ $ $ $ $ } M $ $ # $ O O # $ # # $ $ $ $ $ $ $ $ $ $ # # $ $ & & , 2 3 2 2 , * * * 2 3 5 5 h h h 5 5 &.&.h h ,.Q h h g h h Q ,.V m h h h h &.,.h h h h m m m g g f f b b b b z %.} p p b z z z p p p z z z z z z z z z p p z z z b n n B n n B z p p p p p P >.z p p p p 1 1 1 1 1 i i p p p p p p p p p Z >.b z %.>.b z z z z z z z p b b b b n n B K U T i.i.` T K K K / / ` ` ` ` ` ' ' ' ' ' ' ' ' ' ' ' a.S.'.N.a.a.a.a.a.a.a.a.a.a.a.a.a.{.S.a.N.T.S.a.S.T.N.a.a.a.a.a.S.T.a.a.a.a.a.a.a.a.a.a.a.a.a.a.a.a.C.N.N.N.a.N.C.N.` K p p i p p B :.B i C :.z i P :.P P -.-.p p p p p p L L L X.>.C p L :.c p P >.p p p p p p p s p p p p s s s p s B P P P P c p p X.:.p z -.-.p p :.X.p c :.C p B :.B p c L L L L P z z p i i p p B K N.C.C.C.C.C.C.C.S.S.S.S.S.C.C.C.C.C.C.C.C.C.S.S.S.S.S.S.C.C.S.S.T.{.C.C.C.C.N.N.N.N.N.N.{.S.a.a.a.a.a.S.T.N.a.S.'.a.a.a.a.a.a.a.a.a.a.' ` ` ` ) ` ` ` ) ) ) ` U K K K ` a.a.` ` ` ` ^ ^ K B B n b b b b b z b b b b b b z z z p 3 3 3 3 3 3 3 3 3 3 f =.%.p p p p p p p 3 3 3 3 3 3 3 3 < 2 2 2 3 3 3 3 3 3 3 < 3 3 , , < , , < < < 3 3 3 < 3 3 3 %.Z 3 3 =.N 3 3 3 3 3 N =.b 5 5 5 5 5 Q &.5 5 6 6 6 6 5 4 4 3 * * * 3 3 2 %.Z 3 3 : $ $ $ o $ $ $ $ $ $ $ $ $ $ $ $ $ $ $ $ $ $ $ $ = $ & & % & & , , b %.* 4 6 R R h f : % % & * * * % % % % % % % b @., % N @.& $ $ $ $ & & & & $ $ $ $ # $ $ $ $ $ $ O O O O O X X X X X X . . . X X X . . X X X X X X 5 @.$ X X X X X O X O O X O X X @.w O = @.3 X 3 @.: O O X O O e ",
"$ : : : : : $ O M N : : : : O O O O O = @.N : : : $ O 0 @.= O M @.O $ O O O $ $ $ $ $ $ $ $ $ $ $ $ $ $ $ $ $ $ $ $ $ $ $ & $ $ $ $ $ # # # $ & $ $ $ $ % > 5 R h 6 * $ # # $ O $ $ # # # $ $ 3 3 3 3 @.M $ $ $ # # = : 3 3 : 3 3 3 3 3 3 3 3 3 3 : 3 : = % % & , 2 2 2 3 * * , * 3 3 5 5 m W m m =.&.h h ,.( m m m m h Q ,.Q W W m h h ( ,.Q Q Q W h m m g g f b b b b z z *.%.M C V C M M b b M M C b z z b M b b z p p p b n b n V V C B z c s c c c P >.z z p p p p z z z z b z p p p p p z b b b } :.b z %.>.Z C C B z b b b b b b b b b b B B J U ` i.M.T U K K / / / ` ` ` ` ` ` ` ' ' N.N.N.N.N.a.' N.F.a.a.a.N.N.N.N.N.a.a.N.N.N.N.T.S.a.N.T.N.i.N.T.S.N.N.N.i.i.S.F.i.i.i.p.p.a.a.a.a.a.a.a.a.a.a.a.a.a.a.a.a.a.N.a.` K p p i i i B :.B i C :.z i P >.:.:.:.-.p p p p p p >.:.:.>.>.C p C >.c p P >.p p s s s s s s z p p p s c s s s C >.>.>.>.B c c B B c c B c p p :.X.z c :.C p C :.B p C :.:.:.:.>.z z a p i p p B K N.N.N.N.C.C.C.C.C.C.C.C.C.C.C.C.C.C.C.C.C.C.C.C.C.S.S.S.S.S.C.C.F.{.S.S.S.S.N.N.N.N.N.N.{.F.N.N.N.` i.N.T.a.i.S.F.' ` ' i.i.i.i.' ` ` ` ` ` ` ) ) ) ) K K K U U K J T i.N.a.` ` ` ` ) K K B n n b b B b b b b B B b b b z z z p 3 3 3 3 3 3 3 b b m V >.%.z p p z z z b b b b b b b b b b z z z z z z z 3 3 3 3 3 3 , , < , , , < < 3 3 3 z b b b %.Z 3 3 =.} b b b b 3 Z =.Z b m w 5 5 Q &.m m m m 6 6 4 4 3 : : 3 3 2 3 2 %.Z b 0 3 3 : : : 3 3 3 3 : $ $ 3 3 3 3 : $ $ $ $ $ & : 3 3 0 3 * % % - 1 , M @.4 6 R W h 5 3 < 3 0 0 3 & $ % % % & 3 3 3 N %., % N @.3 3 3 3 & & & & & $ $ $ $ $ $ $ $ $ $ $ O O O O O X X X X X X . . . . X X . : : : : : = O 5 @.= O = : : : : : O O : : : : @.w O = @.3 O 3 @.w : : : O X e ",
": @.@.@.@.@.$ O M @.@.@.@.N O O O O O = @.@.@.@.@.: O w @.= O M @.$ O O O O O $ O O $ $ $ $ $ $ $ $ $ $ $ $ $ $ $ $ $ $ $ $ $ & $ $ $ $ $ $ $ $ $ $ $ & * & # & 5 R R 5 * % & $ $ $ $ $ $ $ $ N @.@.@.@.N % & b 3 $ 3 @.@.@.@.@.@.@.@.@.@.@.@.@.@.@.@.N $ $ $ % % , 3 2 2 2 2 , , f m 3 5 &.>.>.=.=.&.h h ,.,.,.,.,.Q h Q ,.,.,.,.Q h h &.,.,.,.,.&.m m m n n g n b b f p p =.>.>.>.>.>.>.>.>.>.>.>.>.b z z %.:.:.=.z p p Z Z n B Z >.>.>.%.B B C P B c C P z p p p p p X.:.:.:.:.Z p p p p p b :.:.:.:.:.b z %.>.>.>.>.%.z z b b n n n n b b b B B B J P T ` i.t.U K V K K K K K K P P / ` ` F.F.F.F.F.N.` ` N.' ` N.F.F.F.F.F.` ` F.F.F.F.F.N.` ` F.N.` N.F.F.F.F.F.U T M.N.T t.t.t.T i.i.i.i.i.i.i.i.i.i.i.i.i.i.` i.i.a.i.` K j p i i p B :.B i C :.p p p p i i p p p p p p p p :.P s s s p s L >.B p P >.s s s s s s s s z s p s c c c s s C >.B c c c c c s s s s c s s p >.X.p c >.L s B :.B p C :.c p X.>.p z z p p p s B ` C.N.a.N.a.a.i.i.i.M.a.a.a.a.a.a.a.a.i.i.a.a.a.i.N.T.T.T.T.T.a.i.S.F.T.T.T.S.i.` i.` ` i.F.F.F.F.F.N.` N.F.i.` A.F.` ` ` T T T T U U U U U U U U U U U K K K U K J J i.a.a.` ) ) ` ` K K B B B n b b b b b n B C B b b z z z z p p p p p 3 3 3 %.>.>.>.>.%.z z Z C z B =.=.=.*.*.*.=.=.=.=.*.=.*.=.=.*.Z 3 3 3 3 3 3 3 < < < , , , z M 3 < } =.=.=.*.Z < < =.=.=.=.=.N 5 N =.=.=.=.m 5 5 Q =.=.,.=.&.5 5 4 3 3 * 3 2 2 3 2 3 %.%.%.%.@.@.@.#.#.@.@.@.@.: $ $ N @.@.@.: $ $ w w & & 3 %.%.%.N * ; 3 b , & g Q R W R h 3 & Z %.&.&.&.M - - % % % 3 %.%.@.@.@., % M %.%.%.%.Z % % % & & % $ $ $ $ $ $ $ $ $ $ O O O X X X X X X X X . . X X X X . @.@.@.@.@.3 O = w $ O w @.@.@.@.N X O N @.@.@.@.w O = @.0 O w @.@.@.@.@.O O : ",
": @.w : M @.= O : : : : N N O O O O O $ : : : w @.: O w @.= O N @.O O O O O O $ $ $ $ $ $ $ $ $ $ $ $ $ $ $ & & & & & & & & & & $ $ $ & $ & $ $ $ $ & & & & & % * 2 h R h 5 % $ $ $ $ $ $ $ $ N Z 3 3 3 , % , @.b $ 3 @.w 3 3 3 3 3 3 3 3 3 3 3 3 3 @.N $ $ $ $ % & , * 2 2 2 2 2 M %.2 5 @.&.m m m m h h W Q Q Q ,.Q h m W W W W m h h V W W W >.&.m m m n m n n b b f f f C V Z Z Z C C C C C C Z >.b z z z b b b p p p :.%.b n B V Z Z C B B P B.C B z z z p p p p p X.%.b b >.P p p p p p b :.C b b b p b Z Z Z Z %.%.z c c B B B B B n n B B B B B J P T i.i.T U B K K K K K K K K K K K F.N.` N.F.;.) U U ) ` N.F.i.i.A.A.` ` F.S.a.a.a.` ` ` F.N.U ` i.i.i.N.F.U T t.t.t.t.t.t.t.i.i.i.i.i.i.i.i.i.i.i.i.i.i.i.i.i.p.a.i.U B p p p i B :.B p C :.p p p p p p p p p p p p p s >.P s s s s s L >.B s P >.c s s s c c s c c s s s c c c s s C >.C c c c c c s s s s c z s s >.X.s c :.L s B :.C p C :.c p X.:.p z p p p p s J ` C.C.N.N.C.C.C.C.C.C.C.C.N.N.N.N.N.N.N.N.N.a.a.a.C.T.C.N.S.T.N.i.N.N.N.N.F.F.i.i.i.i.i.i.N.N.N.N.F.M.` N.F.` ` B.F.) ) U U U U U U U U U U U U U U U U U U K K U U T i.a.i.` ) ) ` ` P B B B B B b b b b B B C C B b b b z z z z p p p z z 3 3 %.&.Z Z C b z b >.Z z B >.C b b b b b b b b b b b b b %.Z 3 3 3 3 3 3 3 3 < < , , , M *.< 3 } *.b b b 0 < < b b b b =.N 5 b m m m m 5 5 5 m m m m &.&.5 5 3 3 * 2 2 2 2 p 2 , w 3 3 3 3 3 3 3 3 3 3 M @.: * & 3 3 3 3 $ $ $ @.Z & & : 0 0 0 2 & , b %.3 * g h W m h * : * Z / 5 5 %.M - - & & & 3 %.b 3 3 3 % & 3 3 3 3 } Z & % % & & % $ $ $ $ $ $ $ $ $ $ O X X X X X X X X X O . . X X X X . @.e : w @.3 O O O O O w @.: : N N O O Z N : : : = $ = @.0 O = : : : N @.O O O ",
": @.: O w @.= O O O O O N N O O O O O O O O O : @.: O 5 @.= O M @.O X O O O O $ $ $ # $ $ $ $ $ $ $ $ $ $ $ & & & & & & $ $ $ & & & & & & $ $ $ $ $ $ % $ & & % % % 5 h h h 2 * & & $ $ $ & % N N % % % % % , @.b % 3 @.3 $ $ $ $ $ $ & & & & & & % @.N $ $ $ $ $ & & & 2 2 2 2 3 C %.2 2 / &.5 5 5 5 6 h h h h m ,.Q h h h h h h h h h h h h h ;.&.h m m m m m b b g b f b b b b n n b z z b b z Z >.b z p 3 2 2 2 p p p *.%.z z b B n n B B B P B.C B z z p p p p p p X.%.p p >.P p p p p p b :.B p p p p b B B B b %.%.z z c z B B B B B B B B B B B B J T t.i.t.T B J K K K K K K K K K K F.;.K ` F.` U U U U U N.F.U U N.A.U T A.S.` ` ) ) ) ` F.N.T T T U U N.F.T T ` i.i.i.i.T T t.i.i.i.i.i.i.i.i.i.i.i.i.i.i.i.i.p.a.i.` B p p p p B :.B p C :.X.X.%.c p p P %.%.-.-.P p s >.-.-.-.-.-.-.-.>.B c P >.c c c c c c c c c s s p c c c c s C >.-.-.-.-.-.-.-.-.-.-.-.P p p >.X.s c :.L p B :.C p C :.c p X.:.p p p p p p c K ` C.C.N.N.N.C.C.C.N.N.N.N.N.N.N.N.N.N.N.N.N.N.N.N.S.T.N.a.S.T.N.i.i.i.i.i.F.F.i.i.i.i.i.i.i.i.i.N.F.i.` N.F.` ) N.F.) ) ) T T U U U U T T T U U U U U U ` U U K K U ` s.a.i.` ) ) ) K K B M B B B n b b n B B n n B n b b b z b b b z z z z 0 p %.%.n b b z p z >.} z B :.b 2 3 3 3 3 p p p p l 2 2 < %.Z 3 3 < 3 3 3 3 3 3 < 3 , , M *., 3 } %.3 3 3 < < < 3 3 3 b =.N 3 5 5 5 5 5 5 5 5 5 5 5 6 &.@.3 3 * * * 2 2 2 2 p 2 : : & & $ = = = = $ $ $ w @.: & & * * & & & $ $ @.Z & & & & , , & & , b %.f h h W m g 3 % & : Q Z * & %.C & & & & & 3 %.3 & & & & & & & & & Z Z & % % % % & $ $ $ $ $ $ $ $ $ $ O X X X X X X X X X X X X X . . . X @.w X : @.: O O O O O w @.X O M N O O N N O O O $ $ = @.w $ $ $ $ $ w @.$ $ O ",
": @.: O w @.= O : w w w N N O O 3 3 0 3 0 w 3 w @.: O w @.: $ N @.O X X O O O O $ $ # $ $ $ $ $ $ $ $ $ $ $ $ & & & & & $ $ $ $ & & & & $ $ $ & & $ $ # # # $ * * & > , p h E 6 $ $ $ $ $ & % N } b w 0 0 w b %.b % 3 @.3 $ : w w w w : & & & & & % @.M $ $ $ = = % % % 2 2 2 2 3 C %.* * / %.m m m m 5 5 6 h h m >.@.Q Q Q m g m W W W Q Z h g &.&.g g h h h h g g b b b b n Z Z Z Z b z B Z Z Z %.>.b p z b M C C z z p %.%.p p Z P P P P B n P B.%.P P C p p B B C C -.%.p p >.} p p p p p b :.Z C C C C Z P C B n %.%.z z c c B B B B B B B B n n b n B J t.s.t.t.J J B B B J J K K K K K A.-.K ` F.N.` ` T U U N.F.U U B.A.U U A.A.N.N.i.T U ` F.N.T T T t.t.N.F.N.N.N.N.i.i.i.N.N.N.M.i.i.i.i.i.i.i.i.i.i.i.i.i.i.i.p.a.a.` J p p p i B :.B p C -.-.-.-.B p p %.:.-.-.:.X.p s :.:.-.:.:.:.-.:.:.B s P >.c c c c c s s c c c s s c c c c c B :.:.:.:.:.:.:.:.:.:.:.>.-.p p >.X.s c :.L p B :.C p C :.c p c c p p p p p p j K ` C.N.a.a.a.a.a.a.N.a.a.a.a.a.` a.a.a.a.a.a.a.a.a.N.T.N.i.S.T.a.` N.N.N.N.F.F.i.i.N.N.N.N.N.N.N.N.F.N.i.N.F.i.` S.F.` ' ` ` ` ` ` ` ` ` ` ` ` ` ` U U U ` ` ) K ) ` ` s.p.` ` / ^ ^ K B B b b B B B b B B C C n n n b b z b b b b b b z z z z p %.=.Z Z Z Z C Z >.} z b :.b 2 z M M C C z p z z z 3 2 %.Z 3 3 3 3 3 3 3 3 < 3 3 , , M *., < } *.M M M b < 3 3 3 3 b =.@.N N N b 5 n m m N Q m 5 5 &.@.3 3 * * 2 2 2 p p p * * : w w w w & & : w w w N @.: & 3 w w w w : $ $ @.Z & & b b b b b 3 # 5 &.( ] ] ( 5 , 0 b b b Q N - , *.Z * * & & & 3 %.M b b b b b w , & & Z Z & % % % % & & $ $ $ $ $ $ $ $ $ X X X X X X X X X X X X X . . . . X @.w X : @.e 3 3 = O O w @.X O M N O O N Z w w : $ $ : @.w $ $ $ $ $ w @.w w w ",
"$ 3 = O w @.= O M @.@.@.@.N O O Q @.@.@.@.@.@.@.@.: O = w $ $ N @.X $ $ $ $ O O $ $ $ $ $ $ $ $ $ $ $ & $ $ & & $ & & & % & & & & & & & & & % & & & % & % % % & & & & & , 2 5 R R 5 & & & $ $ N @.@.@.%.@.@.@.@.b % 3 %.0 - w @.@.@.@.3 % & b b % % } N % % % % % % % % % & & 3 2 C =.3 2 Z %.&.=.=.Q 6 6 ( W h m ,.,.,.,.,.W h Q ,.,.,.,.;.n h ;.&.h h m h h h n b g g g h V >.>.>.%.b b C >.>.>.=.>.z p C =.=.:.:.z p p C C f b >.A.>.>.>.Z n P A.B.>.>.>.p p P :.:.:.:.X.p p =.X.z z X.b p b =.:.:.:.:.>.>.>.b z z %.%.z z z z z z B B B B B B B B B n n B K T T t.Y J B V K K K K K K K K F.-.K ` F.F.F.F.` U U N.F.U ) N.S.) ) F.F.F.F.S.i.` a.F.N.p.i.i.i.i.S.T.T.T.T.F.a.a.a.T.T.T.T.p.p.p.p.a.a.a.a.a.i.i.a.i.a.a.a.C.a.i.U B p p p B :.B i i p i i p p p p X.-.p p -.X.p p p p p p s s p p s c p P >.s s s c c s s s c p p p s c c s s c c c c c s s s c c c c -.-.p s >.X.s c >.C p B :.C p C :.c p z c c c l c c p J U i.s.i.i.i.i.i.i.i.i.i.i.i.t.i.T ` i.i.i.i.i.i.i.` i.N.i.` N.F.i.` A.F.F.T.F.S.` ` F.F.T.T.F.F.F.F.F.N.' a.N.' ' S.F.' ' ' ' ' ` ` ` ` ` ` ` ` ` ` ) ^ ^ ` ` ` U ` i.N.` ` ` K P V V B B B B B b b b n n V n n n B n b b b b b b b f p p 3 3 z b %.>.>.>.>.>.>.>.>.X.z C :.b 3 b =.=.=.>.M p p Z Z p p %.} 3 0 2 < < 3 3 3 3 3 3 3 , M *.< < } *.=.=.=.} 3 3 } M 3 z =.=.=.=.=.b 5 Q =.=.=.,.&.5 5 @.@.2 2 2 2 2 3 3 2 3 : : * : #.@.@.Z * & 3 %.%.%.%.%.3 & M %.*.@.@.3 2 , 0 w : * %.*.%.%.%.b 3 W ,.F.,.,.&.& , Z %.%.%.%.Z & , %.Z * * N 3 & 3 %.%.%.%.%.%.%.%.2 & & Z Z & & & % % # % $ # # # $ $ $ O X X X X X X . X X X X X X X X . . . X @.w O : @.@.@.@.3 O O w @.$ $ N Q $ $ Q @.@.@.N $ $ : @.0 $ $ $ $ $ w @.@.@.%.",
"O O O O w @.= O M Z = = = = O O Z N = = = = = = = $ O $ $ $ $ N @.$ $ $ $ $ $ $ $ $ $ O O $ $ $ $ $ & & & & & & & & & & % % % % & & & & & & & % & % % & % % % & & & & & & * 3 g h h 5 * & & & & : 3 : & , 3 3 3 : & 3 %.0 & w @.3 : : & % % N N % $ } N % % % % % & & & $ & & , 2 C =.3 2 3 3 3 5 &./ h h ,.Q h h m m m Q ,.W h Q ,.m m &.,.h h ;.&.h h h h h h n b g g h h m m n M B b b C >.Z b z z p p C :.z z z p i p p p b b >.%.B C >.Z B B Z V C %.>.p p P %.z z z z p p >.%.z b :.C p l z z z z z z z z z z z %.%.z z z z z z c B B B B B B B B n n B B P T T T K K K K K K K K K K K F.;.K K ` ` ` ` ` ) ) N.F.` ` A.F.` ` a.a.a.a.a.i.a.a.F.S.a.a.a.a.a.a.a.N.N.S.F.a.a.a.a.a.a.a.a.a.a.a.a.a.a.a.a.a.a.a.a.a.a.a.C.a.i.) B p p p B :.B i i i i i p p p p %.-.p p -.X.p p p p p p s s c p s z p P >.s s s s s s s s z p p p s c c s s s s c c c s s s c c c c -.-.p p >.X.s c >.C p B :.C p C :.c p z z c c l z c p J T N.C.a.a.a.a.a.a.a.a.a.a.a.a.a.i.i.i.i.a.a.a.i.i.i.i.i.i.i.S.T.N.i.S.F.N.N.N.a.' ' F.S.a.a.a.a.a.a.a.a.' a.' ' a.S.F.' ' ' ` ` ` ` ` ` ` ` ` ` ` ` ) ^ ^ / / ) U ` i.M.` / K K V V V n B B b B B b b n C C n n n B n n n n n b b b b f z 3 3 b b M C M B b z z c b b z C =.b 3 M =.b z b z z z %.%.z p *.} z 0 0 2 2 3 3 3 3 3 3 3 < M *.< < < 0 0 0 %.} 3 3 =.Z 3 3 z b b Z =.b 5 Q =.m m &.&.5 5 %.@.2 2 2 3 3 2 2 3 : : & & : : 3 3 3 * : 3 %.b 3 3 3 & & M %.3 3 3 & , * * * : ; %.N 2 3 %.m h V W W h Q &.& ; N @.2 2 2 : * * %.Z : 3 %.b : & 3 3 3 3 3 3 3 2 & & & Z Z % & % % % & & & $ $ $ $ $ $ $ $ # $ $ $ O X O X X X X X X X . . . X @.w O O = $ $ $ $ O O w @.$ $ M Q $ $ : : : : : $ $ : @.0 $ # $ $ $ $ : : : N ",
"O O O O w @.= $ M Z $ $ O O $ $ Z M O O $ $ $ $ $ $ $ $ O $ $ N @.$ $ $ $ $ $ $ $ $ $ $ $ $ $ $ $ $ & & & & & & & % % % & & % % & & & & & & & & & & & & % % % & & & & & & & * 2 5 R R 5 * * $ $ # , & # % & & & & & 3 %.3 % w @.: % $ % % % Z Z % % @.N % % % % & & & & & % & , 2 C =.3 3 2 2 2 2 %./ 5 h ,./ h h h h h Q ,.W h / ,.m m &.,.h h ,.&.h h h h h h n n g g n n n n n b z b b Z >.Z z z p p p C >.p 3 p p i l z z b n >./ z b >.Z B n B B B %.>.p p P %.p p p p z z >.%.b b >.C p p p 2 p p z z z z z z z %.%.z z z z z z B B B B B B B B B B B B B J P T T U K K K K K K K K K K F.;.K ^ ) ) ) ) ` ` ` N.F.` ` S.F.' a.a.a.a.a.a.a.a.a.'.S.a.a.a.a.a.a.a.a.a.S.F.a.a.a.a.a.a.a.a.a.a.a.a.a.a.a.a.a.a.a.a.a.a.N.C.a.a.` B p p i B :.:.-.-.B p i C -.-.-.:.-.p p -.:.-.-.:.P p B :.:.:.:.:.-.-.:.>.s s s s s s s s z p p s s s s s s J :.:.:.:.:.:.:.:.-.s s -.-.c c >.X.c c >.L p B :.B p C :.-.-.:.:.p z p p z p K ` C.C.C.C.C.N.C.C.C.C.N.N.N.N.a.N.a.a.a.a.a.N.a.a.a.a.a.a.N.S.{.N.N.S.F.a.a.a.a.a.a.F.S.' ' a.a.a.a.a.a.' ' ' ' a.S.F.` ' ' ` ) ) ) ) ) ) ) ) ) ) U ) ^ K K K K ` i.i.i.K K K V V B n n B B n M M B B m C Z C B n B b b n n n n b b b f z z z b b b b z z z z z z z z z C >.b 2 M *.z 2 p z z z %.%.z z %.X.p p 0 0 2 3 3 3 3 3 3 3 < M *.< 3 3 < 3 < %.} 3 3 =.Z 3 3 3 3 3 N =.m 5 Q ,.5 5 / &.5 5 %./ 2 3 3 3 3 2 2 * : * & & : : : : : * & 3 %.b & & & & & M %.: : : , - * 2 3 * , %.m * 3 &.W W W V f 2 m %., & M @.& & & & * * %.Z * 3 %.b , & & : , , , , , & & & & N N % & & % & & * * & & & & * $ $ & $ $ $ $ # $ $ O O O O X X X X X X X @.w X O O O O O O O $ w @.$ $ M Z $ $ $ $ $ $ $ $ $ : @.w $ $ X O $ $ $ $ O M ",
": M N N N @.= $ N Z $ $ w M M M @.M $ $ M M M M M M N N M N M Z @.$ $ $ $ $ $ $ $ $ $ $ $ $ $ $ $ & & & & & & & % % % % % % % & % & & & & & & & & & & & % % % & & & & & & & & * * 2 R R R * & b Z M M N w % & m N N Z @.3 & b %.N M N N % % Z @.N N @.N % % % & & & & & & & & & , C %.Z Z Z f 2 2 %.Q 5 g ,.( h m &.&.&.&.,.W h ( ,.m m &.,.h h ,.,.h h h h h h n n h n n n %.%.%.%.%.%.%.%.>.Z z z p p p Z :.} } } Z i l } X.%.%.>.Z z b >.L B n Z -.-.>.>.z z X.-.p p p z z z >.%.B C >.Z p p p p p C X.X.X.X.P z z %.%.z c c z z B B B B B B B B B B B B B B B J L T U K K K K K K K K K U F.A.N.N.N.` ) ` N.A.A.S.F.` ` S.F.' ' S.S.S.S.S.S.a.N.'.S.a.a.A.F.F.S.F.a.a.S.F.a.a.S.S.F.F.F.S.a.a.a.a.a.a.N.a.N.N.N.N.N.N.N.C.N.N.a.B s p i c X.X.X.X.B p p L :.P X.X.P p p P X.X.X.>.P p B >.-.X.X.X.X.X.X.X.s s s s s c s s c p p s s B c B c J B.-.X.X.X.X.X.:.:.s s -.-.c c >.X.c c >.L p C :.B p B X.X.X.:.:.z z p p p g K ` C.C.C.N.N.N.N.N.N.N.N.N.N.N.N.N.N.N.N.N.N.N.N.N.N.C.F.F.F.F.'.N.a.S.F.a.' S.S.S.S.F.S.' ' S.S.S.S.S.S.S.S.S.S.S.F.F.) ) ) ) ) ) ) ) ) U U K K K K K K K K K U ` i.T U V V V B n n n n n n n C B B n C V V V C n n b b b n n n b b b b b z z b b %.%.X.} } C z z %.%.X.%.>.b 2 M =.} } X.X.z b %.>.%.%.>.X.z p z z 3 3 3 3 3 3 3 3 < M *.Z Z Z < 3 3 %.Z 0 0 =.Z 3 0 } @./ %.=.m 5 Q ,.6 5 / &.5 5 %.@.2 3 3 3 3 * : : & : * * N N N N N N N N %.b & & & & & M *.Z Z Z C 3 & M M Z N %.M 3 h ,.] W h m Z C } *., : N @.* * , * * : %.Z * 3 *.b , * : : : b Z C Z M M & , Z N & % & * 2 2 2 2 * * * * * * * * * & & & $ $ # # # O O O X # X X X X @.N M M M : O : M N M N @.$ $ N Z $ $ M M M M M 3 $ : @.w $ $ 3 M N N N O O e ",
": @.@.@.@.@.: $ N Z $ $ N @.@.@.@.M $ : @.@.@.@.@.@.@.@.@.@.@.@.@.% $ $ % $ $ % $ $ $ # # # $ $ $ & % % % % % & % % % % % & & & & % % % & & & & % % % % % % % & & & & & & % & & & & 3 g R R h / %.%.%.%.M % , %.%.%.%.%.3 & b %.%.%.@.%.& & Z @.@.@.@.N % % & & & & & & , , & & > M %.%.=.=.b 2 2 %.Z 5 5 =.Q h W ,.,.,.,.,.W h W Q m V &.,.R R ,.;.h h m h h h m h n n n n >.>.>.>.>.>.>.>.>.Z z z z z z Z >.=.:.:.%.p l *.>.>.>.>.Z z B >.P B n %.>.B.B.>.b z X.-.p p p z z z >.%.B Z >.Z b n %.n b Z =.=.>.>.:.z z %.-.c B B B B B B B B B B B B B B B B B B B B J L P U U K J K K U K K K F.F.F.F.F.N.` N.F.F.F.F.F.` ` A.F.' ' F.F.F.F.T.S.i.a.T.N.a.a.S.T.F.F.F.a.a.S.F.a.' F.T.T.T.T.S.a.a.a.a.a.a.a.a.a.a.a.a.a.a.a.N.N.a.a.B j p p p p p p p p p p L >.p p p p s p p p p p >.P p B >.C s s s c c c c s s c s s c s B B s s s s B B c c J B.L c c c c c X.:.c c -.-.c c >.X.c c >.L c B :.C p p p p z X.:.z c p p p j ` N.I.I.S.S.S.S.S.S.S.S.S.S.S.S.S.S.S.S.S.S.S.S.C.S.C.S.{.{.{.{.{.S.N.F.T.a.a.F.'.T.T.T.S.' N.F.F.F.F.F.F.F.F.F.F.F.F.F.) ) ) U U U U K K K K K K K J K K B J K U ` T U K B B B B n n m m m V V m n n V V V V V m n n b b b b b n n n n b b b z b b %.>.>.:.:.} z z >.>.>.>.=.b 3 M =.=.=.:.>.z b %.>.>.>.>.%.z z z z z z z z z 3 3 3 3 C *.*.*.*.0 3 3 %.Z 0 0 =.Z 0 b =.=.>.>.>.m 5 m m h g / &.5 3 %.@.2 3 3 2 2 * : : = & : : @.%.%.%.*.*.*.*.*.b & & & & : M %.%.%.&.%.4 < X.*.*.%.%.V h ( `.( 5 * m %.*.*.%.& : Z @.* * * * : * *.Z 2 3 %.b * 3 Z 3 : M %.%.%.%.@.& & Z Z , * 2 3 f 3 3 2 2 * * * * * * & & % % $ $ $ $ # $ $ O # O # # X X X @.@.@.@.@.3 O w @.@.@.@.@.$ $ N } $ $ } @.@.@.@.w $ : @.w $ $ e @.@.@.@.O . e ",
": @.: $ $ $ $ $ M Z $ $ N N $ $ $ $ $ : @.w $ $ $ $ $ $ $ $ $ $ $ $ $ $ % $ $ % $ $ $ # # % $ $ $ & $ & % % & & % % % % % & & & & % % % & & & & % % % % & & % % & & & & & & & & & & > 2 g R h &./ * & } M & , %.b & & & & & > , , & M %.& & % & % % % % % & & & & & & & , , & & & > , 2 2 3 3 2 2 %.Z 3 5 =.Q h m ,.Q h m h h m m m m V &.,.m m ,.;.m m m m m m m m n n b b >.%.z b b n b b z z z z z z z z z z p } %.p l *.%.z b z z z B >.P n n B n B B n B z %.:.p p z z z z >.%.n V >.P n V >.C n X.>.b z %.:.z z -.-.c B B B B B B B B B B B B B B B B B B B B B J K U K J J J K K K K K K K U ` F.N.` N.F.` ` ` ` ` ` S.F.` i.F.F.' ` T.S.i.a.T.N.` i.i.i.i.S.T.i.a.S.F.i.a.F.F.i.i.T.S.i.i.a.a.a.a.a.a.a.a.a.a.a.a.a.a.N.N.a.V B p p p p p p p p p p L >.p p p p p p p p p p >.P p C >.C s s s c c c c s s s s c c B B B c s s s B B c c L B.L c c c c c -.:.c c -.-.c c >.X.c c >.L c B :.C p p p p z X.:.z c c s s B ` C.I.I.I.I.S.S.S.S.S.S.S.S.S.S.S.S.S.S.S.C.C.C.C.S.C.S.{.S.N.N.N.N.N.F.T.a.a.F.F.i.i.i.i.` ' F.A.` ` ` ` ` ` ` ` ` ) U U U U K K K K K K K K K K J J J B B J K U ` T K J B B n n n n m m V V V m m V V V V V m m n n b b b b b n n n n b b b b b b %.%.p p %.} l z >.X.z z z p 3 2 2 3 p X.>.z b n n b b b z z z z z z z z z z 3 3 3 < 3 3 < < 3 < 3 3 %.Z 2 0 =.Z 0 b =.Z g g g 5 5 5 5 5 5 / &.5 3 %.@.2 2 2 2 2 : : : = = : : @.N : : : : : : : & & & & & * * * * * N @.4 3 X.} , , 3 g R ( A.Q 5 * & , 3 , , * * Z @.* * * * : : *.N 2 3 %.b * 0 %.w * M %.3 , M @.& & Z / 2 3 p f f 3 2 2 * , , , , & & & % % % $ $ $ # $ $ $ O O O # X X X X X X X : @.0 O w @.: $ $ $ $ $ N Z $ $ } N $ $ @.w $ : @.w $ $ $ $ $ w @.O . e ",
"3 @.3 $ $ $ $ $ N } $ $ N N $ $ $ $ $ : @.b $ $ $ $ $ $ $ $ $ $ % $ $ $ $ $ $ $ $ $ % $ $ $ % $ $ $ $ $ & & % % % % & & & & & & & & & & & & & & & & & & & & % & % & & & & & * , , * % % % h R ,.&.d * N M , 3 %.b , , , & & , , , , Z %.& & & % % % % % & & & & & & & & & & & & & > > * 2 2 2 p p %.Z 2 2 =.Q 5 m ,.Q h m m h h m m h h &.,.m m ,.&.m m m m m m m m n b b b :.X.z b B B n b b z z z z z z z z z z X.*.p p *.%.p z z b b B >.P n B B n B B B n B %.:.z p z p p p >.%.n V A./ n Z >.Z B X.>.B b %.=.b b :.:.c B n n n B B B B B B B B B B B B B B B B B B J K K J J J J K K K K K K K ` A.` U M.F.` T T ` ` ` S.F.i.i.F.F.i.i.F.B.i.M.T.N.i.i.i.i.i.C.T.i.i.S.T.i.a.F.F.i.i.T.S.i.i.i.i.i.s.s.s.i.i.i.i.i.i.i.a.a.M.N.K B p p p B z p C :.:.:.>.>.p p -.>.>.>.>.X.p p >.P c B -.C c L >.>.>.>.>.c s s s c c c B B c c s c c c c c L B.L c J J B c P X.c c -.>.>.>.>.%.c B >.L s B :.:.:.:.:.c z X.:.z c s s s B ` C.H.C.C.C.C.C.C.C.C.C.C.C.C.C.C.C.C.C.C.N.N.C.a.a.a.C.T.C.a.a.a.i.i.S.T.i.i.F.S.` ` ` ` ` ` F.N.` U U U U U K K K K K K K K K K K K K J J B B B B B B B B B K T T K K B n n n n n n m m V V V V V V Z Z V V m m n n b b b b n b b B B b b b b z z %.%.z z *.} l z >.Z z z z z z 3 3 p p X.>.z b n b b b b z p z z z z b b b z z z 3 < 3 < 3 3 3 3 3 3 %.Z < 0 =.Z 0 b =.Z g h h 6 6 6 5 5 5 / &.3 3 %.%.3 2 * * : : : : : $ : : @.N : : : : * * : & & & , , * 3 2 2 2 Z @.3 3 @.Z - f R E ( V >.b 2 * * * * * * * * Z @.* * * * * * %.Z * 3 %.b * 3 %.3 * M %.3 & Z @.% & Z %.g g f d 2 2 2 , , > > > & & % % % % $ $ $ $ # $ $ $ $ X X X X X X X X X X : @.0 O w @.: $ $ $ $ $ N } $ $ } N $ $ @.b $ : @.w & $ $ $ X w @.$ * Z ",
"3 @.3 $ $ w N N @.} $ $ N N $ % $ $ $ : @.} N N w $ $ 3 N N N N , $ $ $ $ $ $ $ # % $ % % % % % % $ $ $ % % % % % & & & & & & & & & & & & & & & & & & & & & & % & % & & & & & , , % > , , & 2 &.,.R h %.m % & %.} Z Z Z 3 , > b Z Z %.%.* , M Z Z Z N & & & & & & & & & & & & & & b Z Z Z Z Z 3 3 %.Z 2 2 &.Z 5 m >.Q h h Q &.&.&.&.&.&.,.,.h h ,.&.m m m m h h m n n b b b >.=.%.%.=.=.=.-.%.%.%.%.%.%.%.%.%.z z X.*.p p %.%.p p %.%.%.:.>.P B n B B B B B B n %.:.z z X.-.%.-.>.%.b C A.>.;.>.>.Z n %.>.B n &.>.=.-.>.-.c B n B B B B B B B B B B B B B n B B B n b B B B B B B B B B B V B S J J T A.` J ` A.U U K J J J N.B.J K B.N.J K A.i.K U A.B.B.B.B.T U M.A.U U N.S.B.B.A.B.U U A.N.U U B.B.Z.Z.M.U U U U U U U U U U T T K B j p B :.B p C :.P L L L p p -.:.P P :.X.p p >.P c c s s c P >.X.P -.>.c s c B B c B B B z c c c B c c c L B.L c P B.B c c c c c P P P P P L c B >.L s c P P P X.:.c c X.:.z z s s s B T i.i.i.i.i.t.t.t.t.t.t.t.t.T t.t.t.t.t.t.T T t.t.t.T M.F.i.U U M.A.A.F.S.U U B.B.U U U U U U F.A.B.B.` K K P B.B.;.N.K J J J K V V V B B B B B B B B j j B J K K U K V B n n n n n n n m m V V V V Z Z Z V C n n n n b b b b b b B M B B b b z z z %.%.z z *.X.z b >.*.%.%.%.b z p Z %.%.:.>.z z %.%.%.%.%.b z z b b b b b b b z z z 3 M X.} } } } < < %.Z < < =.Z 3 b =.Z 5 5 Q &.&.&.&.&.@.&.%.3 3 %.@.2 * : : : : : : : & : : @.@.Z Z Z Z Z Z Z Z Z Z } } @.@./ 2 2 Z %.2 & / / h ( ,.,.&.%.%.0 3 2 * * * * 3 2 * Z %.* * Z Z / / %.Z 2 3 %.@.Z @.%.p , M %.2 , Z %.Z / =.%.f f p 2 2 2 , , > > > > & & & % % % % $ $ $ $ $ $ $ $ # X X X X X X X X X : @.0 $ w @.: $ $ $ $ $ N } % % } N $ % @.b $ : @.N N N N * $ w &.4 5 / ",
"3 @.3 $ $ b N N N M $ $ N N % % } M $ : N N N N w $ % w @.Z N N , % % % % % % % % % % % % % % % % % $ $ $ $ % % % & & & & & & & & & & & & & & & & & & & & & & % % & & & & & & & & , > * * & , / &.R W m 5 * * Z Z Z } %.3 , > M Z Z Z Z 2 , Z %.Z Z M & & & & & & & & , & & & & & b %.N Z %.%.2 2 %.Z 2 2 =.Z 3 5 f h h h Q &.&.&.&.&.&.&.( h h h h h h h m m h n n n b b b %.%.%.%.=.=.=.-.%.%.%.%.%.%.%.>.>.z z z z p p p p z z >.>.%.%.%.Z B B B B B B B B n B z z z %.>.-.%.-.L z C >.>.;.;.&.B b %.>.V n %.;.=.-.-.X.c B >.%.B B B B B B B B B B B n n n B B B n n B B B B B B B B V V K A.` J K K K K ` A.K K -.A.K K N.A.K K K K K K A.-.K U B.B.B.B.A.` K U U K K M.B.B.B.B.N.U U F.N.U T F.A.B.B.M.U U U U U U U U T T T T P B j p B >.B p L :.c p p p p p -.:.c p :.X.p c >.P c c c c s P >.B c P >.c s c c s c c B B p p c c c c B B L B.L c P B.B c c c c c c c c c c c c B >.L s s z z z C :.c c X.:.p z p s s J ` i.a.i.i.i.i.i.i.i.i.i.i.` ` ` i.i.t.t.t.` ` ` ` ` ` a.F.a.T T N.A.A.A.N.U U A.A.K K A.N.K ` B.B.B.B.` K K ` A.B.>.>.K K K K V V V V B B B B B B j n j j B K K K K V V n n n n n n n n m m V V V Z Z Z C C C C n C B b b b b b b M C C B b b z z z %.%.z z z z z b %.%.%.%.=.B z z Z %.%.%.%.z z %.>.=.=.%.b b z b b n n n n b b b z 3 Z =.} } *.%.< < %.Z < < =.Z 3 3 3 5 5 5 Q &.&.&.@.@.@.@.Z 3 2 2 * 3 : : : : : : : : * : : N Z Z Z Z Z Z Z Z Z Z } } @.@.%.&.2 2 2 2 * & 3 h R ! A.,.%.} } 0 , * * * 3 2 2 * * * * * 2 Z %./ / / b 2 3 @.@./ Z Z 3 * M %.3 , m / / %.%.Z 3 2 %.Z 2 2 , , , , > > & & & % % % % % % $ $ & $ & $ # X X X X X X @.w X X $ $ $ w @.: $ b @.$ $ N } $ $ $ $ $ # @.b $ : N N N Z @.3 * * 5 5 5 W ",
"3 @.3 $ $ $ $ $ $ $ % $ N N % % } M $ $ % % % % % % % w @., % % % % % % % % % % % % % % % % % % % % % $ % % & & & & & & & & & & & & & & & & & & & & & & & & & & & & & & & & & % % * , , , 2 & Z Z h W W h 5 * & & & 3 %.3 & & , , , , , 2 2 Z Z , & & & & & & & & & , , , , & & & b %.& & Z %.2 3 %.Z p p =.Z 3 3 3 g g g g h h h h h h h h h h h h h h h h h h n n n n n n n n n n B B n n n n B B n n n / >.z z z z p p p b b b >.P b b b n B V V B B B V B B n z z z %.%.z z z z z B B B B n f b b %.,.V V V V B B n c c B >.%.B B B B B B B B B B B n n n B B n n n n B B B V B V V V V K A.-.K K K K K ` A.K K ;.F.K K N.A.K K K K K K F.;.K K K K K ` A.` K K U K K K U U U U U U U F.B.U ` F.M.U T U U T T T T T T T ` ` ` ` P V B p B >.B p C :.B c c c p p -.:.s p :.%.B B >.P c c B B B P >.B c P >.c c c c s c c B B p p s c B B B B J B.L c P B.L B B B B B B B B B B c c B >.P B B c c z L >.B c X.:.p p p b B P ` a.a.i.i.M.i.a.a.p.p.p.i.i.i.i.i.i.i.i.i.' ` ` ` ` ` a.F.a.` ` ` ` ` ` ` ` ` S.A.K K A.N.K K K K K K K K K ` A.K K K K K K K V V V V V V B B n n n g n n B V K K K B V m n n n n n n n m m V V Z Z Z V C n B C B M b b b b b b b C C C B b z z z z %.%.l l l z z z b z z M >.M z z z z z z z p p %.%.n n n b b b b n n n n n n b b z 3 Z =.3 3 } %.2 2 %.Z < 3 =.Z 3 3 3 5 5 5 5 5 5 5 5 3 3 3 3 * * * * : : : : : : : : & , * * : : : : * * * * * * * , , 2 2 C &.2 2 2 * , 3 h W ! R ,.V > 2 3 3 * * * * 3 3 2 * * * 2 2 2 Z @.2 2 2 2 2 2 2 2 2 2 2 2 * M %.3 , 2 p f g p p 2 > %.Z 2 2 2 , , , , > & & & & & % % % % % $ $ & & $ # X X X X X X @.w $ $ $ $ $ w @.: $ b @.$ $ N } $ $ $ $ $ $ @.b $ # O $ $ w @.5 * 5 g g h d ",
"3 @.3 $ $ $ $ $ $ $ % % N N $ $ @.M $ & & & % % % & % w @., % % % & % % % % % % % % % % % % % % % % % % % % & & & & & & % % % & & & & & & & & & & & & > & & & & , , , & & & , * * > , , - & * / / % 4 R ( W m 2 # & w =.3 & & , , , , , , 2 Z Z , & & & & & & & & > > > , , & & & b %.& , Z %.& , %.Z p p >.Z 2 2 2 5 g g h h h h h h h h h h h h h h h h m m m n b b n n n m n n B n b n b B B n n n B n / >.z z p p p f f b b n >./ n B B B B V V B C C V V B B b z z -.-.z z l z z B B B B B b b z %.A.V V V V V B n B c B >.%.B B B B n B B B b b B B B B n n B n n g g n B B B V k V V V A./ V V V V V ' A.^ V ;.A.K K ;.A.K K K K K K A.;.K K K K K ` A.` K K K K K K K K K K K K K F.N.K ` F.;.U K U U / ^ ^ ^ ` ` ` ` ` ` ` P K B p B P B p C :.:.>.>.>.p p -.:.s s :.>.>.>.>.P c c P >.>.>.>.B c P >.c c c c c B c c c c s s c B B c c L B.L c P B.B.B.B.B.B.B.B.>.>.>.:.c c B >.>.>.>.P z z L >.>.>.>.:.z z p b n P ` ` ` ` ` ` ` ` ' ` ` ` ` ` ` ` ` ` ` ` ` ` ` ` ` ) ) ' F.' ) ^ ^ ^ ^ ^ ^ ^ ^ A.A.^ ^ A.;.K K V V V V K K V ' A.K V V V V V V V V V B j j j j n n n g m V V V V K V V V m g g h n n n n m V Z P Z Z V n n b B C M b b b b b b b C C C C C B z z z z %.%.l l l z z z b b z C >.M z z z z z z l p 3 %.%.n n m n b b n n n m m n n b b z z Z =.2 2 X.%.3 3 %.} 3 3 =.Z 0 3 3 5 5 5 5 5 5 5 3 3 3 3 * * * * : : : : : : : & : : * , , * * : : * * * * * * * , 3 3 2 C &.2 2 2 2 5 R ! ( W p *.C 2 4 4 4 * * * , , , , * * * * * 3 / / 2 2 2 2 2 2 2 2 2 2 2 2 2 M %.3 , V g g p 2 2 2 , %.Z 1 2 , , > > > & & & & & & & & % % % $ $ $ $ $ # # # X X X X @.w $ # $ $ $ w @.: $ b @.$ % N } $ $ % % % $ @.b $ # O O $ w &.m g h h h h W ",
"3 @.@.} Z @.@.@.Q @.} } } N $ % @.@.@.@.@.} Z } b & & w %.@.@.} } % % % % % % % % % % % % % % % % % % % % % & % % % % % % % % % & & & & , , , , , , > > > & & & & & & > & & > & & & & & , , * Z Z , , @.&.,.,.,.V 2 3 %.p , z } @.%.%.%., , / %.%.%.%.M > & & & & & & & & , & & & M %.& & Z Z , > @.Z 2 p >.=.%.%.%.%.%.&.&.m h Q ,.,.,.,.&.h h h h h h m m n n n b n n n n C n n n >.>.>.>.>.>.>.>.Z B n X.>.*.*.=.=.=.>.>.>.>.>.>.X.B n n B B V V V V V V B n %.>.:.:.>.-.B B :.:.:.>.>.>.>.>.>.:.:.>.>.V V V Z V V ;.>.>.>.>.%.B B B C C B B B B B B n B B B B B n n b b b n B V V V V V V A.' V V K K V ' A.^ K ;.A.K K ;.A.A.A.A.A.A.A.A.;.K K K K K ` A./ K ` A.A.A.A.B.K K N.A.A.A.A.;.K K A.` K ` A.A.A.A.` K K K K K K K K K K B p p p z z c C L C X.:.p p -.-.p p C L Z Z P B s s B P P P P B c P >.c c c B B c c c c s s s B B B c c L B.J B L P P P P P P P P P P P C c c c P L L L B z z c C C L L L s s c B B P / ) U ` ` ` ` ` ) ) ) ) ) ) ) ) ) ) ) ) ) ) ) ) ) ) ) ' F.S.S.S.S.S.S.S.S.S.S.S.A.^ ^ A.A.A.A.A.A.A.A.' K V ' A.A.,.,.A.V V V V V V V V V V n n n n V V V V V B B n n g n n g g g n n m V V V V V C n n b b M M B b b b b z b M V Z Z C B z z z z z X.X.z z %.*.*.:.>.P b C >.M z C =.=.:.=.*.3 3 %.>.>.>.>.%.n n n n n n m m m n b b b Z =.< < } %.3 3 *.} 3 3 =.*.*.%.%.%.&.&.&.n 5 N &.%.%.%.Q * * 3 : : : : * : : : : : * 3 3 3 * * : @.@.@.@.@.%.%.%.n 3 3 V &.&.&.%.,.S.,.,.,.&.%.*.Z * 4 4 3 3 * * * * * * 2 2 Z %.%.%.%.@.3 2 %.%.%.%.%.%.%.%.%.%.%.%.=.n g p f p 2 Z %.%.%.%.Z 2 2 2 2 , , , > > & & & % % % % % % % $ $ $ $ $ # X X X X X } w $ $ = $ # 0 @.& % b @.% & N @.Z } } } @.@.@.b # # * 3 4 m ,.V h / ,.,.,.=.",
": M M M N N N N m M M M M b $ % M M N N N N M N 3 % & 3 N N N @.@.% % % % % % % % % % % % % % % % % % % % % & & % % % % % % % & & & & & , , , , , , > > , , , & & & > > & > & & & & & & , , , * 2 * , %.%./ &.S.( h g %.z , b %.Z Z %.%., , b Z Z Z %.Z , , > & & & & & & & & & & M %.& & & & , , @.C 2 2 Z X.P P P Z Z %.>.m h ( ,.&.&.,.,.m h h R h h m m n b b b b n n n >.%.B n >.=.&.%.=.=.;.=.Z B b C %.%.%.%.%.%.%.%.%.%.%.%.C B B B B B V V V W V V B B %.>.-.-.%.X.n n >.:.%.%.&.&.-.%.%.X.X.X.%.V V ;.>.B V ;.>.-.%.%.P B B B C C C B B B B B B B B B B B B B B b b n B V V V V V K V V V / A./ V / A.^ K ' A.V K ' ;.;.;.;.;.;.;.;.` K K A.` K ` A./ K ;.A.;.;.A.A.K K A.A.N.N.N.` K K K K K ` A.N.N.;.` K K K K K K K K K K B s p p z z p p s p L :.p p -.-.p s s s p z z s s s s s c c c c s P B.c c B B B B c c c s s s B B B B B P B.J B B B B B B c c c c s s s c c c c c c c c c s z p p p p p p s s c B B / ` ^ K ` ` ) ) ) ) ) ) ) ) ) ) ) ) ) ) ) ) ) ) ) ) ^ ^ ` A.A.A.N.A.A.N.A.N.A.A.A.;.^ ^ ,.,.,.,.,.,.,.,.( ^ W / ;.;.;.A.A.V V V V V V V V V V n n n n V V B n B B n n n n n n n g g n n m V V V V V n n n b B M M M B b b b z b m Z W V C b z z z z z z z z z *.:.X.%.>.%.b C >.C z Z >.%.%.*.=.3 < C X.%.%.>.&.m n n b b n m m V m n b b Z =.< 3 3 3 3 3 *.} 3 3 } } } } } @./ %.=.n 3 Z =.Q Z %.@.* * 3 : : : * * : * : : : : , , @.N * * &.@.N N Z Z Z Z b 2 2 n Z Z / &.,.,.,.( / Z Z Z b * 4 * 2 * 2 * 2 2 2 2 2 3 Z %.Z Z Z Z 3 2 &.%.Z Z Z Z Z Z Z Q / / / g j Z %.2 2 P %.Z Z Z b 2 p 2 2 , , , > > > & & & & % & % % % $ $ % % $ $ O O O O O O O $ : @.w # 0 @.& % b @.$ $ w N N M M M M N N 5 & 3 &.V g W ,.W h ( ,.&.&.&.",
"# # $ $ & & & $ # % # % % $ $ % % % & % & % & & % % % % % % % N @.% % % % % % % % % % % % % % % % % % % % % & & & & & & % % % , & & & & & , , , , , > > , , > > & & > > > > & & & & & & , , , 2 2 2 * %.C 1 p ,.] E W %.3 , m %.< - C &., > - 2 5 2 %.Z , , > & & & & & , , & , , M %., , , , , & @.C 2 2 2 p p p p 2 2 M =.m h / ,.R h &.,.m m R R R W V V n b b b n n n n >.&.n m ,.%.n n C C V C B B b z z z b b b n n n B B B z z B B B B B V V V W V V B n %.:.c c c B n B >.%.z b B B B B b z z z B V V -.>.B V >.>.B B B B B B B C C C n n B B B B B B B B B B B n b b n B B V V V V K V V V / A.' K ' A.^ K ' A.V V K K K K K K K K K K K K A.` K ` A./ K ;.A.K K N.A.K K A.A.K K K K K K K K K ` F.` K K K K K K K K K K K ^ K K j B C C C L L L L X.:.p p -.:.L L L P P P P P P P P B c B P P P -.B.c B B B B B c c c s s s B B B B B P B.K B B B B B L P P P P P P P P P P L L L L P L c c c L L L L L c c c B B / ` ) ^ ` ` ) ) ` ` ` ` ` ` ` ` ` ` ` ` ` ` ` / ` ` ` ` / / / / / ^ / / / / / / / ^ _ ( ( ( ( ( ( ( ( ( ^ ^ ^ ^ ^ V K ;.F.V K V V V V V V V j n n g n V V B n B B n n n n n n h n n n n V V V V V C n b n B B C C M M B z z z b V V W V n b z z z z z z z z z =.X.z M >.%.b C >.C z Z >.n p } =.3 3 < z z b >.&.m n b n b b m V V m n n n Z =.< 3 3 3 3 3 *.} 3 3 3 3 3 3 3 3 3 C =.n 3 Z =.3 3 Z @.* * 3 : : : * * : * : : : : & : @.Z * 3 &.N 3 2 3 2 * 3 2 1 , 5 , , f ] ( W h g 3 2 3 2 3 2 3 3 2 2 2 2 2 2 2 2 2 2 Z %.2 2 2 2 2 2 =.Z 3 3 3 2 , * 2 d g n g g p Z %.2 2 P P 2 2 2 2 2 p 2 2 , , , > > > > & & & & & % % % % $ % % $ $ $ $ O O O O O O : @.w # 0 @.& % b @.$ $ $ = = = # X . X $ * 3 g >.Z h W ,.( R ( ,.5 3 Q ",
"$ & & & % % # # & & $ % % % % % % % % % % % % % % % % % % % % M %.% % % % % % % % % % % % % % % % % & % & & % % & & & & & , , , & & & & , , , , , , , , , , , , , , , , > > > & & & , , , * * 2 2 2 * / Q 2 2 %.Z R ] `.R * 3 =.3 , M *.3 3 * , , 2 %.Z , , , , > & & & , , , , , M %.* * * , & & @.C , , , 2 2 p p p p n =.n f / ,.m R &.,.R R R W W V V V m m n b b n n n >.&.m V ,.%.n B C C Z C M B b b b b n n B B B B n B B z z b B B B B V V V V V V B B %.:.c c B B B B B.-.B B B B B B n b b z n V V %.:.c V >.>.B B B B B B B B B B B V B B B B B B n n n B n B n n n n B V V V V K K K K / A.` K ` A./ K ;.A.^ ^ ^ ^ ^ ^ ^ K K K K K K / A.` K ' F.` K ;.F.^ ^ A.S.^ ^ A.A.) ) ) ) ) ) ) ) ) ' F.' ` ` ` ` ` ` ` ` ` ` ` ` / K B B >.>.>.>.>.>.>.:.>.s s -.>.>.>.>.>.>.>.>.>.>.>.B.P c P B.B.B.B.B.c B B c c B B B B s s c B B B B B P B.J B L P B B -.B.B.B.B.>.>.>.>.B.B.B.>.>.>.>.>.C c L >.>.>.>.>.c c B B V ' ' ' ' a.' ' ' ' ' ' ' ' ' ' ' ' ' ' ' ' ' ' ' ' ' ' _ _ ' ( ( ( ( ( ( ( ( ( ( ( ( / / / / / ^ / / ^ ^ ^ ^ ^ ^ W V W ;.A.V V V V V V V V V n n n n n m V V V n n V V n n n h g n n n m V V V V V n b B B C C C C C B b z z b V Z W / V V n b z z z z z z z z :.%.b C >.%.n Z >.C b Z >.b z } =.2 2 < p z b >.%.m m m b b b b m V V m V m @.>.3 3 3 3 3 3 %.} 3 3 3 3 3 3 3 3 p C >.b 5 Z =.3 3 Z @.* , , : : : : * * * * * * * & & @.N , * %.m 2 3 2 3 3 2 3 2 2 > h W ] E h 5 5 2 2 2 2 2 3 3 2 * * 2 2 2 2 2 2 2 3 3 Z %.3 2 2 2 2 2 &.Z 2 2 > 2 2 p g j j j p p 2 Z %.2 2 P P 2 2 p p p p 2 2 2 , , , > > > > & & & & & % % % $ $ $ $ O O O O O O $ $ $ 3 @.w $ 0 @.; % b @.= = # # = X O # & * 3 5 f n =.Q W ( A.W h Q &.* * Q ",
"* 3 & $ b @.@.@.@.; # % Z %.%.@.@.@.@.%.@.@.@.@.%.3 % & 3 & % M %.% % % % % % % % % % % % % & & & & % % & % % % & & & @.%.%.%.%.%.%.%.b & & b %.%.%.%.%.%.%.3 , , , , , , , , & , , , , , * 2 Z %.%.&.&.Z 2 3 *.%.=.,.A.! R m Z , , Z %.%.%.&., > , Z b 2 2 2 2 * & & & , , , , , M %.%.%.%.%.%.%.%.Z , , 3 3 2 3 p p p C =.&.=.>.,.m R &.,.,.,.,.,.V V V m m n n n B B n n >.&.V V ,.1.>.A.A.A.A.>.P B b X.>.>.>.>.>.B B >.B.>.>.>.X.B B B B V V V V V V B B B -.>.c B C Z B B B.%.n n P >.>.>.>.Z b P >.,.A.>.:.z B -.-.B B Z Z B B B B B B B C B B B B n n B B B B n n n n n n B V V V V V V K K / >./ K ` A.A.A.F.F.^ ^ ^ ^ ^ ^ / F.F.F.F.F.F.F.A.' K ' F.F.F.F.F.^ ^ N.S.^ ) A.F.F.F.F.F.F.F.F.;.) ' F.F.F.F.F.' ` ` ` ` ' ' ' ' ` / B B >.L B B B B B B B s c B C C C C C C C C C C P B.P c P B.P J L L B B B B B B B B B s s c B B B B B P B.L B P B.J B -.B.L L L L L L J L L L C L C P B.C c L >.L C -.>.c c B B K ' ' a.a.N.a.a.' a.a.a.' ' ' ' ' ' ' ' ' ' ' ' ' ' ' ' ' ' ' ' ( A.'.'.'.'.' _ _ S.F.F.F.F.F.F.F.F.F.F.F.F.( ^ ^ ( ^ ^ ;.F.^ V V V V V V V V B n n n n V V V V n n n V n n n g =.>.>.>.,.,.,.,.&.V B P >.A.A.A.A.A.>.Z b b z b V Z W / V V n B z z z z %.>.>.>.>.%.b C >.>.>.>.>.Z b Z %.b z } =.:.:.=.3 p z %./ m V n b b b b m m V V V m @.>.=.=.=.=.=.=.=.} 3 3 b b 3 3 3 3 p C >.=.=.=.=.3 3 N &.%.%.*.@.: : : * * * * * * * : : @.N , * %.%.%.*.*.=.=.=.n 2 3 ( '.'.`.,.&.3 3 %.&.&.&.&.N 2 2 * 2 2 2 2 2 3 3 3 3 3 Z %.3 3 g g 2 2 =.Z 2 2 m ;.>.>.>.V g Z -.-.%.%.%.2 p Z Z p p z p p p u u 2 , , , > , > > > > & & & & & % % $ # # # # # # # # # $ # : N 3 $ 0 @.@.@.%.@.& & # # # # : @.&.&.>.>.,.,.,.( W ( ,.=.=.&.&.6 6 ( ",
"5 @.3 $ b @.M b b & # % Z @.b b b b b b b b b N %.3 % w %., & M %.% % % % % % % % % % % % & & & & & & & & & % % & & , b b b b b b b %.b & & 3 b b b M M M M 3 , , , , , , , , , , , , , , , , Z %.C C C b , 2 C C C Z ( ! R R * , , n C M C Z , , , , 2 2 2 2 2 2 , , , , , , , , 0 M M M M M M M M b , , %.M 3 2 3 p p b Z Z Z Z Q h h ( ( ( ( ,.>.m m m m n m n n n n n n >.&.V V &.&.%.%.%.%.%.%.Z B B %.>.%.%.>.>.B B >.>.X.X.>.X.B B B B V V V V V V B B B -.>.B B :.>.B B B.-.B n C %.%.%.>.Z n X.,.&.&.X.P z B B V B B >.-.B B B n B B B C V V V B B n n B n B n n n n n n B V V V V V V V V V V V K / ;.;.;.;.;.^ K ^ ^ ^ ^ ^ ;.;.;.;.;.;.;.;.` K ` ;.;.;.;.;.^ ^ A.S.^ ) ;.N.N.N.N.N.N.N.F.;.) ` N.N.N.S.F.' ` ` ` ' ' ' ' ' ' / B V >.B c c s s c s c c c c c s c s s s s s c c L B.P c P B.B c c B B B B c B c c B B s s s c B B B B P B.P B X.B.J B -.>.B B B c c B B c c c c c c C B.L c L >.B c %.>.c c B V / ' N.N.N.N.N.N.d.N.N.a.a.a.a.' ' ' ' ' ' ' ' ' ' ' ' ' ' ' '.] ' A.'.S.A.A.' ' ( S.F.A.A.N.,.,.,.,.,.,.,.F.' ^ ' F./ ^ ;.F.K K V V V V V V V B B n n n V V n n j n V n n n n g / / / / %.%.%.,.&.m B Z %.%.%.%.%.%.%.C b z z b V Z / / W V m B z z z z *.:.X.X.X.Z b C %.%.%.%./ C b b n b z M Z Z Z Z 3 p z b b m V m b b b b b n V W W V Z Z Z Z Z Z Z C Z b 3 3 =.N 3 3 3 3 3 b Z Z Z Z Z 3 3 b N N N %.@., 3 , , , * * * * * : , @.N , * N C Z Z C Z C Z f 5 h ,.'.,.( %.%.3 , %.%.N N &.N 2 2 2 2 2 2 2 2 3 3 3 3 3 Z %.3 3 %./ 2 2 =.Z 2 2 j / / &.>.B p V -.Z C C C p u p p p p %.Z p p p p 2 , , , , > , > > > > > & & & % % % # % # # # # # # # # $ # $ $ & : b b b b b & & # # # % * m W / / ( ( ' &.W h V Z Z N N Q 6 R ] ",
"m &.f * b @.& % % $ $ % Z Z % % % % & , , & % 3 %.3 & w %., & M %.& & & & & & & & & & & & & & & & & , , , , % & & & & & & , , , , , %.b & & , , , > > > > > , , , , , , 2 2 2 , , , , , , , , Z Z 2 2 1 1 , , 2 p 2 , , g W ! R g 2 - 2 2 2 > 2 2 , , , 2 2 2 2 2 2 2 2 2 , , , , , , , * * * & & & * , , %.M * 2 2 p p p p p 2 3 5 g h h R R R >.&.n b n n m V m m m m m m >.&.V V V V C B n n n n n n n %.>.n m &.>.B B >.-.z z >.X.B B B B V V V V V V V V C -.>.B B >.>.B B A.-.B B n n n Z >.Z B %.A.V V B c c B B B C B >.-.B B B n B B B C V V V B B B B B B n n n n n n n V V V V V V V V V V V V V V V V V V V V V K K K K K K K K K K K K K K K K K K K ^ ^ ^ ^ N.S.^ ^ ^ ^ ^ ^ ^ ^ ^ ` F.;.^ ) ^ ^ ) ;.F.' ) ) ` ' ' ' ' ' ' ` K K >.X.P P P P P P P P P P P c c B P P P P L c L B.-.P -.B.B B c B B B B c c c B B B c s s B B B B B L B.P B X.B.-.X.:.B.B B B B B B P P P P L c c C B.L c L >.B c %.>.c c B V / ' d.N.N.a.a.' ' ' ' ' ' ' ' ' ' ' ' ' ` ` ` ` / / / ^ ^ ' F.' / ;.F./ / / / ^ ^ A.S.^ ^ ^ ^ ^ ^ ^ ^ ^ ( F./ ^ ' F.^ W ;.A.V V V V V V V V B B B n n n V V V n n n n m n n n n n n n n n n m >.%.m B M C Z C C C B b b b z z z n V W / W V m b z z z b *.*.b b b b B n C B n n n n n B n b z 3 z z p p 3 p z b b n V m n b b b b B V W W V m b z 0 p 3 3 3 3 3 < 3 =.Z 3 3 3 3 3 3 3 3 3 3 3 3 3 2 * 3 3 @.@., , , , , * * * * , , , @.N 3 2 3 p p p p 2 2 * 5 R ! 4.A.h , Z %.3 2 %.@.3 3 &.m 2 2 2 2 2 2 2 3 3 3 3 3 p Z %.2 3 / / 2 2 ;./ p p V V j V ;.B p C -.p p p p p p p p p p %.P p p p p u 2 2 , , , , , > > > > > & & % % % % # # # # # # # # # $ # % % % % % & & & % % % & & , 2 5 g g h k W ^ ^ W h f 2 * 5 6 6 R R R ] ",
"V ,.m 5 m @.3 3 3 3 % % N Z 3 3 3 % % & 3 3 3 b @.3 , b %., & M %.& & & % % % & & & & & & & & & & & , 3 3 3 3 3 3 0 0 0 3 3 3 3 , , %.M 3 3 3 3 , , , , , , > , , 3 p p p z 3 , , , , , , , 2 Z Z 2 1 1 p 3 2 p z b n b z n V ] ( R 3 2 2 2 , 2 2 , 2 2 2 2 2 2 2 2 2 2 2 2 , , , 3 3 3 0 0 0 0 0 0 3 * , %.M , , 0 b b b M B b b n m m W W m m ,.&.n n n n m V m m m m m m ,.&.m V / / / Z Z Z n C Z P P =.>.n m &.>.B B >.:.c z >.X.B B B n V V V V V V V V V -.>.B B >.>.B B A.>.P P Z C n P A.Z B %.A./ / P P C Z Z Z C B >.-.B B B B B B B B V V V V V B V V m n n n n n n n V V V V V V V V V V V V V V K K K K K V V V K K K K K K K K K K K / / / ` ` K K K K K K ;.A.K K K ` ` ` ` K K / F.;.` ` ` ` ` ;.F.` ` ` ` ` ` ` ` ' ' ` K K >.>.>.>.>.B.>.>.>.>.>.>.:.c c B B.B.B.B.P B L B.B.B.B.B.J B P :.B B B B B B B B B c c c B B B B J P B.P B -.B.B.B.B.B.B B -.-.B B B.B.B.B.-.c c L B.L c B C c c -.B.c c B P ` ' a.a.' ' ' ' ' ' ' ' ' ' ' ` ` ( ( ( ) ^ ^ ^ ^ ^ ^ ^ ^ ` F.' ^ ;.F.' ' ` ` ^ ^ A.A./ / ' ^ K K / / / ;.A./ V ( A.^ V ;.A.V V V V V V V V V n V n n n m V V V V V V V V V V V V V V V V n n >.&.Z Z P Z C C C C b b b b z b M Z / / ( / V V b b b b b :.:.b b b b B C P Z Z Z Z Z Z Z Z n z z z z z p p p p z b n V m m n b b b b V W W V V Z C C M M b b b z 3 3 =.Z 3 3 b b b b b b b b b b b b b 3 : @.Q * : : * * * * * * * 3 3 %.Z 2 3 n n b b g f d g ( ] ] &.=.2 3 Z %.3 3 %./ 3 3 &.Z 3 2 2 2 2 3 3 3 3 3 p p p / %.2 2 / / 2 p >.&.V V P B p B -.f p Z :.B B B B B B B p p p %.P p p p p p u 2 , , , , , > , , > > > & & % & % # # # # # # # # # # # $ $ $ $ % % % % & & & , 2 5 g g k k k W W W h m g g g m h R R h 6 6 ( ",
"m / m 5 Z &.&.%.%.@.% % N @.@.%.} % % 3 %.%.%.%.@.3 , b %., & M %.& & & & % % & & & & & & & & & & & b %.%.%.%.%.%.%.%.%.%.%.%.C , , %.%.%.%.%.b & 3 M 3 , p M > , Z %.%.%.%.Z , , , , , , , 2 Z Z 2 , b b 2 3 %.%.*.*.=.%.%.*.A.( E W Z 2 2 n n 2 , B b 2 2 2 2 2 2 2 2 2 2 2 , , M %.%.%.%.%.%.%.%.Z * , %.M , 2 %.%.%.*.>.>.=.=.=.=.=.>.,.h m >.&.m m m m V V V V V m m m ,.&.V V ,.A.A.A.1./ n %.A.A.A.A.,.n n &.>.B B P P c c >.X.B B B n V V V V V V V V V ;.>.B B P P C C A.A.A.B.B.P n C %.Z B %.A.A.A.A.B.B.>.>.;.B B %.P C B B B B B B B V V V m V V V V V m V n n n n n V V V V V V V V V V V V V K K K K K K V K V K K K K K K K K K K K A.A.A.A.A.` K K K K K ;.A.K K K A.F.F.A.K K / A.A.A.F.F.` K ` N.` ^ ` ` ` ` ` ` ' ` ` K B s p c s s c c s s c c -.:.c s c c c c B.P B B B B c B B B B X.B.B B B B B B B B B c c B B B B B B P B.P B B B B B J B B B -.-.B B B.-.B c c c c L B.L c c c c c -.B.c c B K ` ' ' ' ' ' ' ' ' ' ' ` ` ` ` ` ` ) ) ) ) / ^ ^ ^ ^ ^ ^ ^ / ;./ ^ ;.F.F.F.F.S.^ ^ A.F.F.F.A.^ ^ ^ F.A.A.A.A./ V / A.^ V ;.A.V V V V V V V V V V V V V V m m m / >.>.,.,.,.,.>.>.>.>.>.>.%.n n >.>.>.>.B.%.C P %.C b C } z z @.=.>.1.A.,./ V V b B b b B :.:.b b P Z b Z A.A.,.,.>.,.,.>.>.b z M Z z z C C p p Z Z n m V m m b b b b V W W W &.>.>.>.>.>.=.=.=.Z 3 3 =.Z 3 0 =.=.=.=.=.=.=.=.=.=.%.%.%.3 3 @.Z * * 3 * 3 3 * * * * 2 2 %.Z 3 3 =.=.=.&.&.V h ] '.`.F.>.*., 3 Q %.2 3 V m 3 3 &.Z 2 3 2 2 3 3 3 3 3 p p p p / %.3 3 m n p p >.A.A.>.>.V p p C p p Z :.:.-.-.-.-.-.-.X.p p C n p p p p p u 2 2 , , , , , , > > > > & & & % % # # $ # # # $ # $ $ $ $ $ $ $ $ $ % & & * * 2 d d k k k W W V h h h &.&.&.,.,.Q R R h R 6 / ",
"m h h h V Q Q m Z / & & 3 w w b 0 & & 3 %.N b b w , & b %.3 & M %.& & & & & & & & , & & > > > > & & b %.b b b b b b b b b b %.C , & b b b b %.b & b %.3 , M %.> > Z %.b b %.Z , , , 2 2 , 2 2 Z Z 2 2 &.M , p >.Z z z C V m Z %.R E `.,.3 , %./ , 2 %.Z 2 2 2 2 2 2 2 2 2 2 2 2 , M %.b b b b b b %.Z 2 , %.M , 3 %.M b b M C C C V C C %.;.h m >.;.V V m m m V m V m m m V ,.;.V V 1.>.&.&.1.%.C %.A.&.%./ / m n &.>.B B B B B B >.X.B B B V V V W V V V K V V ;.>.B B B B C C %.%.%.%.B.P B B B V V Z %.( ' / / P / >.;.c B B B C B B B B B B B V V V V V V V V V V m n n n g n V V V V V V V V V V V V K V K V V K K K K K K K K K K K K K K K K A.;.` N.A.` K K K K K >.A.K K K ` -.-.` K K K ` ` ` ;.A.` K K K K K K K ^ ^ ^ ^ ` ` ` K B s p s s s c s s s c c -.:.s c c c c c B.P B B B B B B B B B X.B.B B B B B B c B B c c B B B B B B P B.P B B J B B J J B B -.-.B B B.-.c c c c c L B.L c c c c c -.B.c c B P ` ' ' ' ' ' ' ` ` ` ` ` ` ` ` ` ` ` ` ` ` ( ( ( ( ( ( ( ) ( ) ^ ^ ( ;.;.' A.S.^ ^ ' ' ' ' ' ^ ^ ( F.,.' ' ' / ^ ;.F./ K ;.A.K V V V V V V V V V V V V V m m m / >./ / / / Q Q Z / Z / >.&.n n / / / X.A.-.L X.>.C z X.>.z z %.=.Z / ,.A./ W V C C C C B =.:.b b >.%.b Z A.=./ / / / / &.>.n p } =.z z %.%.z z *.%.b V V V V m b b b V V W W &.,.Z Z Z Z C C *.} 3 3 =.Z 3 z =.} M M M M M M M b b @.%.3 3 @.Q , , 3 3 3 3 2 2 * * 2 3 %.Z 3 p =.Z n V ;./ W `.'.( M M C 3 2 Q %.3 3 3 3 3 2 &.Z 3 3 3 2 3 3 p f f p p p p / &.3 3 3 2 p g P / / / -.B p p p p p z B B B B B B B %.P p p p p p p p p p p u 2 , , , , , , , , , > & & & % % $ $ % % % % % $ $ $ $ $ = = # # # & * * 2 3 f g h k k W W V m f 5 5 =.Q Q ( ,.Q R h R R R ( ",
"R W W W h h h h &.&.& % % % % & & , & , %.b , , , , , b %.3 , C %., , , , , > > , , , & > > > > & , b %.3 , , , , , , , , , @.C , & & & & 3 %.b & b %.3 > M %.> > Z %.2 2 Z Z 2 2 2 2 , 2 2 2 Z Z 2 2 %.Z 2 3 %.Z f 5 * 2 2 C %.2 2 %.'.! E / Z 1 2 %.Z 2 2 2 2 2 2 2 2 2 2 2 2 3 M %.* * : , , , %.Z 2 , %.M 2 3 %.b , , 2 2 p p p p p Z &.g h ,.,.m m m m k R m m m m V V ,.;.V V A.&.V / A.%.Z &.F./ V V m b B %.>.B B B B B B >.X.B B B V V V W ^ ^ ^ / V V ;.A.V B B B C C P Z Z P B.P B C B V V C V ^ ^ V V V V >.>.c B B B C C B B B B B B B B B V V V V V V V m V n n n n n V V V V V V V V V V V V V V V V V V V V V V V V V V V K K K K K A.` K ` A.` K K K K K ;.A.K K K K K K K K K K K K K / A./ K K K K K K K P ` ` ` ) ` ` K B c p s B X.X.X.X.X.s s -.>.%.-.-.-.-.-.B.P B J -.-.-.-.L B B X.B.B B B B B B B B B B c B B J -.-.-.:.B.P J J J B B B J J B -.-.B B B.>.-.-.-.L c L B.-.-.-.X.X.-.:.B.c c J P ` ' ' ' ' ` ` ` ` ` ` ) ) ) ` / ` ` ` ` K K P P P P K K K K K P P P P P K ;.A.P K P K K K K K K / A.;.P P V V V / A.K V ;.A.V V V V V V V V V k V k k k m m m / ,.V V m m h g n n n n >.&.m m n n n C A.%.C X.>.C z } >.b z X.=.b m >.,./ V V C C C C M =.=.b B >.%.b Z A.&.V V V V V / >.n z X.>.z z %.%.z z :.X.b V V V V V b b b n Z W ( &.,.b z z z z z *.} 3 3 =.Z 3 z =.M 3 3 3 3 3 3 3 3 3 Z %.3 3 @.Z 3 2 , 3 3 * * 2 * * 2 2 %.Z 3 p =.V 5 m A.2.] / =.p 3 3 3 3 3 Z %.3 3 3 3 3 2 =.Z p 2 2 3 p p p f f p p p p / %.3 2 2 p d g j j d d >.C p p p p p p p p p p p p p %.X.p p p p p p p p p p u 2 , , , , , , , , , > > & & % % $ # # # # # # # $ $ $ $ = # # # $ * * 3 f g h h V W W V g 5 * * : 5 ,.W h Q ,.Q R r 6 6 6 ] ",
"5 m Q ( ( W m m %.;.g 5 3 , & % 3 w b b %.b & & & % & b %.b b Z %.& & & , , , , , , , > > , , , > > b %.b b b b , , b b b b %.C , , , , , 3 %.b , b %.3 & b %.b b Z %., , Z Z , , , , , , 2 2 Z Z 2 2 %.Z 2 p %.Z 2 2 2 2 2 m =.p 2 Z ,.W ( ,.,.m z %.Z 2 , 2 2 p 2 2 2 2 2 2 2 2 V %.b b b 3 , , %.N 3 2 %.m 2 3 &.Z b b b 3 2 b C C C %.&.g g >.;.m m k h h h m m m V W W ,.;.W W A.&.W / A.=.&.,.F.( W V m n n %.>.P P P P P P B.%.c B B V V W W ^ K V K K V ;.A.%.%.P Z B C L L L P B.-.X.X.%./ / / / &.;.;./ V V >.B.P P P P B V V V B V B V / / / / V V V / / / / / n n n n n n V / / / / / / / / / / / P V V K K K K K K K V V V K K K K K / A.` K ` F.;.` / / K K ;.A.K K ` ` ` ` ` ` ` ` ` K K ` A.;.` ` ` K K P P ` ` ` ` ` ` / P P >.B p L B.:.:.:.>.c c X.:.:.:.:.>.>.>.>.P c L B.B.B.B.P B B X.B.B B B B B B B B B B B B B J B.B.B.B.B.P J T B.J B -.-.B B -.-.B B >.>.>.>.B.P c B :.:.:.:.:.:.:.:.:.c c V / ' ' ' ' ' ` ` ` ` / / / / / / / / / / / / P P K K V V V W ^ / ;.;.;./ ^ ^ ,.A./ ^ ^ ^ ^ ^ ' ;.;.;.F.;.^ ^ ^ K K ` A.;./ ;.A.V V V V V V V B n n n n V n h m g / >./ / Z Z n n Z Z Z / >.&.n B B B B C A.%.C X.>.C b X.>.Z Z *.=.b m >.,.Z V V C C C C C >.=.b M >.%.n Z 1.&.W W W V V / >.n z X.=.z z %.*.Z Z >.%.n V V Z Z V M b b n m V / &.,.Z Z Z b p z *.} 3 3 =.N 3 z =.} M M M 3 3 w M M M @.%.2 3 @.} 3 3 2 3 * * 3 2 2 3 2 2 %.Z 2 3 &.W h ( '.,.( / =.f 3 3 3 3 3 Z %.m m m m m C =.Z p p p f f f f p p p p p p P %.n n n b p p g g p j >.P C C C B B B B B B B B p p %.%.B B B B p p p p p p 2 p b n n n 2 , , p b b b b & & & & & $ $ 0 0 0 w 0 0 w w 0 0 w 3 , p f g h k h W k h h f 2 2 : 4 6 6 ,.Q h Q ,.Q Q Q Q R R ,.",
": N =.,.,.( W m V / h h f 3 , & @.%.%.%.%.b & & % % & b %.%.%.%.%., & , , , > > , , > > > > , , > > b %.%.%.%.%., , Z %.%.%.%.Z , , C 0 , 3 %.b , 3 b 3 % b %.%.%.%.%., , z b , , , , , , 2 2 Z Z 2 2 b b 2 p %.C 2 f Z p 2 m ;.p 2 p m V W S.`.,.=.&.Z 2 2 2 2 3 2 2 2 2 2 2 p 2 C %.%.%.%.3 , , @.N 2 2 b p 2 3 &.%.%.%.%.b 2 C =.=.=.=.&.f f V W h h h h h h m m m V W W ( / Q Q F.;./ / A.A.F.'.'.( W V m V n %.>.>.>.B.B.B.B.B.&.c B C W V W ^ ^ K V K P V ;.A.A.A.A.-.B C >.-.P P B.B.B.B.A.A.A.,.A.F.F.'.A.V Z >.A.A.B.B.-.B V V V V V V Z >.>.>.>.Z m V &.A.A.A.,.n n / %.n n V >.A.A.A.A.A.A.A.A.A.A./ V V V K K K K K K V K K K K K K K P A./ K / A.A.A.A.A.K K ;.A.K K B.A.A.A.A.A.A.A.;.K K ` A.A.A.A.A.U K K P P ` / ` / / / P P >.B p L B.B s P >.c c c c c c c c c B c c c L B.P c c B B B T B.B B B B B B B B B B B B B L B.T J J J B B -.B.J B -.B.B B -.-.B B c c c B B.P c c c c c c c c c c c c c K / / ` ` ` ` ` ` ` / / / / / / / / / / ^ ^ K K P K K K V W W ^ ;.F.F.F.;.^ ^ ' ' ^ ^ ^ ^ ^ ^ A.F.F.F.F.;.^ ^ K K K ` A.A.A.A.A.V V V B B B B n n n n n n n g g g / >.>.>.>.>.g g &.>.>.>.>.%.B B %.P B C A.%.C C Z M b %.>.>.>.>.>.b n Z %.Z V m C V C C C >.=.b B Z Z n Z ,.&.W ( ,./ V / >.n z C Z z z %.>.>.>.>.%.n V Z Z Z Z M M b n V V Q &.,.>.>.>.M p z *.X.3 3 M b 3 z =.=.=.*.*.b 3 N =.=.=.=.%.2 2 b b 3 2 3 * * * 2 2 2 3 2 2 b b 5 3 ,.( W ] `.,.=.=.=.f 3 3 3 3 3 Z &.&.&.&.;.;.=.>.Z p p f f f f f p p p p p p P =.=.=.=./ p p / V p j >.>.;.>.;.;.;.;.;.;.-.:.%.p p %.-.-.-.-.P p p p p p p p z %.%.%.%.p , , Z %.%.%.%.& & b m & $ & @.@.@.@.@.@.@.@.@.@.%.n p g j k k k k m h 5 5 3 * 2 5 5 6 R ,.Q h Q ,.,.,.,.,.R R ,.",
": : : 5 m m W W R R h h h h h 3 %.Z , * * , & & % & , 3 3 3 2 2 3 , , , , > , , , , > > > > , , > > , 2 2 2 C %., , Z %.2 2 2 2 , , %.b , 3 %.b , , , , & & 3 3 3 2 2 , , , , , , , , , 2 2 2 Z Z 2 2 2 2 2 p %.C 2 b %.b 3 V =.p p p > * * W ] ] E f 2 > f 2 1 - 2 f f 2 p 2 p p p p p 3 2 > , , @.N * 2 2 2 2 2 3 3 3 M %.z 3 C =.p z p z p p f g h h h h h h n n m m V W W W Q Q F.&.W V / / / ( ( ( W V m n n B C C C C C C C C V C C Z W W W ^ ^ V V V / K P Z P P >.>.B C F.>.P P P Z C C Z Z Z V Z P &.S.F./ Z P P P C >.-.B B B B n n n n V V P >.Z n n V V V &.>.n B ;.>.n n n V V V V V V V V V V V V V V V V V V V V V V V V V B B B B P A./ B K K K K -.A.B B -.B.J K ;.>.K K K K K K K J J J K K K ` A.K K K K K K K K K K K P P >.B s L B.B s P >.s s c c c c s s c B c c c L B.P B c B B c T B.c B B B B B B B B B B B B J B.P J B B B B -.B.J B -.B.B B -.-.B B c c c J B.P c c c c c c c c c c c c B J K K U U U U U U U U U U U K K U U U K K J K K K U K K K K K K ^ P P P P V V V V K P P V V V >.;.P P P V V B V V V V V V V V V B B B B B B B B j n n B n n n g g m m n n %.>.b g &.=.B B B n b b >.P B Z B.X.C B b b b M C b b b M b n n V V m m Z Z V V Z >.>.B B B n B Z 1.&.W ( F./ m Z >.b z z z z z b b b b b b n V W W Z Z C M b b C V / Q Z b B M b p z *.X.0 3 3 3 3 3 b z z M *.b 3 N =.5 w 5 5 2 2 3 * * & & , 3 3 3 3 2 2 2 2 f 5 2 3 ,.,.] ( g f g g f 3 p p 3 3 3 3 f f f g g g g g g d d d f f f f f f f f p p p p p p %.%.p p >./ s s p p p p p p p p p p p P %.p p p p p p -.P p p p p p p 2 2 p p n %.p , , 2 3 3 M %.& & Z } & % # = ; : ; & & & : * 5 g h h h h h V V h 5 2 * , 3 6 6 R R h R ,.Q 6 h R R R ] ,.R R ] ",
"6 5 5 : * * 5 h R R E W W m m h &./ 3 , & & & & , , , > & > , , , , , , , , , , , , , , , , , , , , , , , , M %., , Z %., , , , , , %.b , 3 %.b , , , , , , , , > > > , , , , , , , 2 2 2 2 2 Z Z 2 2 2 2 2 p %.C 2 b %.b 2 B %.p 2 p p p p f g W ] ( h p 1 2 2 2 2 2 2 2 2 2 2 2 2 p p 2 , , , , @.N 2 , 2 2 2 2 2 3 3 b %.z 2 C %.2 2 2 2 3 3 p p f f f g g n b b g m V W W V V W F.,.W W / / ( ( ( ( W V V n n B B C C B B B B B B Z Z Z V W ^ / P V V K / / Z V V V >.>.C C F.>.P P Z C C B C V V V C Z / S.F./ P P P P B >.-.B B B B B n b g g f C >.V B n n B B / >.n n ;.>.n n n B B B n n B B B B B B B B B B B B B B B B B B B B B B B B K B.P B B B B B / A.B B -.B.B J ;.;.J J J J J J J J J J J J J T A.L J J J K K J K K K K K P B.C c L B.B s P >.c c P -.-.-.-.P c c c B B L B.:.:.:.:.J c X.B.-.-.-.-.-.-.-.-.B B -.-.:.B.B.P B B B B J -.B.J J -.B.B B -.-.B B B c B J B.P c c P -.-.-.-.B c c c B B J K K U U K K U U U U K K K K K K U U K K K K K K K K K K K K K K K V V V V V V V V V V V V V ,.;.V V V V B B V V V V V V V V V V V B B B B B B j j n B B n j j j g g g g / >.f f %.-.p p p p p p >.X.B P A.X.B B b b b b b b b z b b b b B n n n Z W / V Z >.>.B M B n b Z A.;.( &.F./ n Z >.b z z z z z z z b b b z n V W W W Z V V M m C V W W V n b b b p z =.X.z 0 3 3 3 3 3 3 3 M *.b 3 N =.3 3 3 3 2 2 2 4 * * < 3 3 3 3 2 3 p f 5 * 5 R ( '.,.W g p 3 3 3 3 3 2 2 3 3 3 3 3 p p p p f f f f d d d p f f f f f f p p p p p p p %.%.p p >./ s p p p p p p p p p p p p P %.p p p p p p -.P p p p p p p p 2 2 p z -.p , , , , , M %., , Z } % # # # # # $ % & * 2 3 5 d h h W W m h 5 * * 3 3 5 g R R R h 5 h ,.Q R R R R R ] 4.R R ] ",
"h 6 6 5 4 m Q Q ( ( R W ( &.&.( ,.( g f V m b b b b M M b , > z M M M M , , , , , , , M M M M M M M M M M M Z %., , Z %.M M M z , , %.b > 2 %.b > 3 M M b b b , , , > > , , , , , , , , 2 2 2 P %.C C V b 2 p =.C 2 b %.b 2 b :.Z Z Z Z Z Z Z m g W ( ,.( Z V f 2 2 2 2 2 2 , , 2 b Z Z C C C , , %.@.M M M C C C C p 3 b %.z 2 C %.2 2 b C Z Z Z 3 p f f f g g b f g V V V &.&.&.&.F.;.W Q ;.,.,.,.,.,.&.&.%.n n P %.%.%.-.-.-.-.%.%.&.&.%.V ^ ^ ^ Z C V K / ^ %.%.%.-.B.>.C C F.>.P / -.-.%.-.%.-.-.%.L C / S.'.( P -.;.;.X.>.-.B B B B B B B P P P %.>.V g V / / / ;.>.n n ;.>./ / / / / / / V j B B B B V / / / / / / / / / / / / / / / ` -.-.-.B.P B P -.-.-.;.A.B B -.B.J J >.>.J J -.-.-.-.-.P K J J J K ` A.P K K K K K K K K K K K V B s s P B.B s P >.s c -.B.-.-.>.-.c c c c B L :.:.:.-.B.J B P :.:.:.:.:.:.-.B.-.B B B.>.:.:.:.P B B B B B -.B.L J -.B.J J -.-.B B B B c c c c B c P -.-.:.B.B c c c c B ^ / / ` ` ) ) ` ` ` ` ` ` ` ` / ) / ( ( ( / ( ) ) _ ' ( ( ( ( ( ^ ^ ^ ^ ' ;.;.;.;.^ ^ ' ;.;.;.A.;.^ ^ ;.;.;.;.;.;.;.;.;.V V / &.&.&./ B B B B B B j / / / / / / / / / / P -.>.f f %.>.Z Z P C p z >.%.B Z A.X.b C %.%.X.X.X.b b z b b b b n b B B P / / W Z >.>.%.%.%.Z M Z A.;.( &.F./ n Z >.X.X.} } X.P X.Z b b b P %.%.&.&.Q Q Z V M m C V W / &.%.P P Z z z *.%.Z Z Z Z N N Z b 3 M *.b 3 N =.3 3 b N M M M * 2 2 3 3 3 2 2 2 3 p d d W ( ] ,.`.( g f Z Z Z Z Z Z Z Z Z 3 3 n Z Z Z Z Z Z Z Z Z P P V p p p p d d p p p p n Z Z Z &.%.p p >./ s j P P P P P P P P B p p P -.p p B L L L -.P p p s p p p p C C C Z %.z , p C C M Z %., , Z @.b b w w w e b 3 * 2 f g g V ( ( ( ( Q Q m m N Q Q Q ( ( ( Q Q Q Q ,.Q R Q ] ] ] ,.,.R R ] ",
"R r r 6 6 Q =.=.=.&.h R ,.F.F.,.,.( h m >.=.%.%.@.%.%.%.%.2 > C %.%.%.%., , , , , , , %.%.%.%.%.%.%.%.%.%.%.%.%., , Z %.%.%.%.Z , , 3 2 , 2 p 3 > b %.%.%.%.%., , > > > , , , , , , , , , 2 , P %.%.%.=.Z 2 p %.C 2 p b 3 2 b >.=.=.&.=.=.=.%.P 2 p ( `.`.,.;.C , 2 2 2 3 2 2 , 2 Z :.-.:.=.%.2 2 %.%.%.%.%.%.%.%.%.b 2 3 z 2 , C %.2 2 Z *.*.%.=.3 p p f f g g p f b m V V >.,.A.A.F.,.W ( F.F.'.'.'.F.A.1.1.m n -.>.B.B.A.A.A.A.A.A.F.F.>.W ( ( ^ B C P K / ^ ;.A.A.A.A.>.C C / / / / F.A.A.A.A.A.F.A.X.C / ] ,.' P >.A.F.B.>.-.B B B B B B B >.>.>.>.>.C B P >.B.>.>.>.n B ;.>.>.A.A.>.>.A.>./ B B B B B / A.A.A.A.A.A.A.A.A.A.A.A.A.A.A.A.A.A.A.B.P J / A.A.A.A.A.V K P P K K P P K K A.A.A.A.A.-.K K K K K -.A.P K K K K K K K K K K P P B c s L B.B s P >.c c -.:.c c >.-.B B c c B B B B c P B.J B B B B B B B B B B.:.B B B.P B B J J J B J B B -.B.L J -.B.B B -.:.B B B B c c c c B B c c c L B.J c c c c B ( ] ] ] ] ] ] ] ] ] ] ] ] ] ] ] ] ] ] ] ] ] ] ] ] ] ] ] ] ] ] ] ] ] ] ] S.'.'.'.F.( ( S.'.F.F.F.,.^ ( F.F.F.F.F.F.F.F.F./ V ;.A.A.A.A.V V V V V B B >.>.>.>.>.>.>.>.>.>.>.>.>.s s %.>.>.>.>.%.z z Z C C Z P C b X.>.>.>.>.>.b b z z z z b b b b B Z / / W Z >.1.>.>.>.%.C Z A.;.( / ( V b Z >.>.>.>.>.>.>.>.*.b b B >.>.,.F.,.Q W W Z V V V V W &.A.>.>.>.=.z z =.>.>.>.=.=.=.=.=.M 3 0 b 0 3 N =.3 3 Z =.=.*.*.3 2 3 3 2 3 2 2 3 3 p d h ,.`.`.`.,.W 2 z =.=.&.&.=.=.&.&.&.3 p / =.;.;.>.>.>.>.>.>.>.>./ p p d p d p p p p p / >.>.>.>.%.p p B B s j >.>.>.>.>.>.>.>.C p p B B p p %.:.:.>.>.P p s s p p p p -.-.-.-.-.z , n %.%.%.%.%., , Z %.@.@.@.@.@.@.%.m 3 f g h k / ,.,.,.&.&.&.&.=.,.,.,.,.,.,.>.=.=.=.,.,.! R ( ,.,.,.,.,.R R Q ",
"6 R R R R R 6 5 Q @., 5 &.,.R ! ( ( W V >./ f 5 3 2 , b %.2 , Z %., , , , , , , , , , %.M , , , , , , , , , , , , , , , , , %.Z , , , , , , > , > b %.p , M %., > > > > & , , , , , , , , 2 2 2 2 p 2 %.Z 2 p %.C 2 2 2 2 2 2 p p 2 2 p 2 2 X.%.z i , h ( 2.`.( p p 2 2 3 2 2 2 p Z :.p p %.%.2 2 2 2 2 , 2 , 2 3 %.b 2 2 2 , , C %.2 2 Z %.2 2 3 3 p f f f f g p b n Z V V >.&.V W ( ( Q &.'.,.( ( ( ( W &.,.m V =.>.C B C V V K P P ^ ^ ^ / ( ^ V C L P ^ / / ;.B.B C C C C C P K P / F.-.L C V Z P C C C / ] ] ' / ,.,./ B c c c c c B B B C B.P c c s s j P >.B B B B n n B B B B B B B j B./ B B B B B / A.K B B B B B B B B B B B B B V V V B J K K / A.P K K K K K K K K K K K K K A.>.K / F.-.K K K K K -.F.` K K P K K K K P P P / P J c s L B.B c P B.s s -.:.c B >.-.B c B B B B B B B P B.J B B B B B B B B J B.>.B B B.T B J J J J J J J J -.B.L J -.B.J J :.-.B B B B B B c c c B c c c L B.J c c c c B ] ,.,.4.,.,.,.4.,.2.2.2.2.,.,.,.,.,.,.2.,.2.,.,.,.,.,.,.,.] ] ] ] ] ] ] ] ] ] `.'.] ] `.S.( ( ( ( ( ' '.,.( ( ^ ^ ^ / A./ K ;.A.V V V V V V V V V B A./ j B B B B j B j j f s s s c c p p :.%.B B B C C C B b z X.>.Z b X.>.b b z z z z z b b b b Z / ( ^ / V V C C >.=.V / A.;./ / V b z p p z z b b b b *.*.b b b z n m F.,.( Q Q Q Z V Z Z W &.A.C b *.>.b b b b b z z 0 3 b =.M 3 3 3 3 3 N =.3 3 Z %.3 2 3 2 2 2 2 3 3 3 3 3 d d R R `.`.W h 2 2 3 n %.m 2 3 3 3 3 Z =.p p / &.f f d j j f f f f d f g d d p p p p p p p / -.p p p p p p s s j B >.C p p p p p p p p p p p p p %.%.p p p p p s s s p p p -.C p p u 2 , b %.p 2 2 , , , , & # % $ & * * &.Q f h h k h / >.b , * * 6 m R R R R R 6 5 5 5 h R R R R R ! 4.! R R h 6 6 6 ",
"6 6 h R R R R R ( ,.5 5 @.&.h R W Q W W ,.( m h h 5 2 n %.2 , Z %., , , , , , , , , , %.C , , , , , , , , , , , , , , , , , %.Z , , , , , , , , , b %.z , M %., > > , > & & , , > , , , , 2 2 2 2 2 2 %.Z 2 p %.Z p 2 2 2 2 2 2 2 2 3 f f p %.%.p d p p g W '.,.~ d 2 2 2 2 2 2 p Z :.p p %.%.2 2 2 2 2 2 2 2 2 3 %.b 2 2 2 2 2 C %.2 2 Z %.2 2 3 3 p p f f f f b n V Z V B >.&.V W ( ( Q &.'.,.( ( ( W W &.,.m m =.>.C V V V P P P / ( ( ^ / ( ^ V B J P / / / ;.A.K K J C C J P P / / F.-.P C V Z Z Z C C / ] ] ' / ,.,./ B c c c c c B B B C B.X.c c s c B P >.B B B B B B B B B B B B B B A./ B B B B B / A.K B B B B B B B B B B V B B V K K K K K K / A./ K K K K K K K K K K K K K F.>.K / F.;.K K K P K ;.F.` K K K K K K K U P P / P J B s L B.B c P B.B.B.B.:.c B >.-.B B B.B.B.B.B.P B P B.J B X.B.B.B.B.B.J J B.B.B.B.B.X.B J T B.B.B.B.P J P >.L J -.B.J J >.:.J B B.B.B.B.B.B.B.B.B.L c P B.J B c c B B ] ] ,.,.,.,.,.,.,.`.d.d.] ,.,.] ] ] ] ] ] ] ] ] ,.] ] ] ] ] ] ] ] ] ] ] ] ] ( S.'.] ( F.S.( ( ( ( ( ( F.,.^ ^ ^ ^ W / A.^ V ;.A.V V V V V V V V V B A./ B B B B B B B B B B B B B c s z z :.%.B B B C C B b b b X.B.P B %.>.b b z z z z b b b b n V / ( ( / W V C C >.&.V / A.;.W V V b p p p z z b b b b :.:.b b b z b b F.>.( ( Q W V V Z Z W &.A.n b :.>.b b b b b z z 0 3 b =.M 3 3 3 3 3 Z =.3 3 Z %.3 2 2 3 2 2 3 3 3 2 2 5 h R ( ( `.&.h f 3 3 3 n =.M 3 3 3 3 3 Z &.p p / ;.f g g g g g g g g j g g j p p p p p p p p / -.p p p p p p s j j B >.C p p p p p p p p p p p p p %.%.p p p p p s s s p p p -.C p p p 2 2 b %.p 2 2 2 , , , , % $ * * * 5 >.Q g h h h g V &.p 2 3 5 6 m 6 6 6 5 5 5 5 h h R R R R R R ! ,.! R R R h R R ",
"5 5 6 6 Q &.&.,.,.,.R 6 &.&.@.&.,.&.Q ( F.&.W W m g 5 m &.2 , Z %.Z Z Z C , , Z Z Z Z %.C , p Z Z Z Z Z P P P Z , , , , , , %.Z , , Z Z Z Z Z Z Z %.%.p , M %.Z Z Z N , & , , , & > , , , 2 2 Z X.%.%.=.Z 2 p %.%./ / %.b p 3 2 2 2 V %.%.%.&./ 2 d f %.X.%.F.,.] R W %./ Z b 2 p Z :.p p X.-.X.%.X.X.X.X.Z 2 2 3 %.%.} } } } } %.%.2 2 Z %.Z Z / Z 3 p p f f f n n V Z V B =.&.V W ( ( ( ,.'.`.,.,.,.( W &.A.>.=.,.>.V V ;.>.>.>.A.;.( ( A.A.A.A.>.L J -.S.A.A.A.A.P L C >.>.B.;.P P / F.A.>.>.>.>.>.>.>.>.,.`.F.' / ,.A.^ B B c c c c c B B C B.:.-.-.-.-.-.>.>.B B B %.;.;.;.;.;.;.-.B B B A./ B V ;.;.;.B.A.K B B B B B / ;.;.>.>.>.>.>.>./ V K >.>.>.A.A.` K K ;.>.>.>.>.K K ;.B.B.A.A.;.K / F.A.A.A.A.A.A.A.F.` K K K K K K K P P / / K K c s L B.B c L X.-.-.-.X.c B >.-.B B B.:.-.:.B.P B P B.L B X.B.-.-.B.B.J J -.-.-.-.-.P B J P -.-.:.B.P J J J J J :.B.J J B.B.J J B.B.-.-.-.-.-.-.B.L c P B.J B c B B B ] ] ] d.] ] ] d.d.d.d.] ] d.] ] ] ] ] ] ] ] ] ] ,.] ] ] ] ] ] ] ] ] ] ,.F.S.F.'.F.( ( S.F.A.S.A.,.^ ( F.;.^ ^ ^ W V / A.^ K ;.A.>.>.>.;.V V ;.;.;.;.A./ j V ;.;.;.;.-.-.-.-.-.B B c s s z >.%.B B :.:.>.:.:.:.*.>.>.P B %.>.*.:.:.%.z z z B b n n C ( ( ( ( ;.>.>.>.A.&.V / A.A.>.>.;.b p p p z z Z %.*.*.>.:.b b b %.*.=.A.>.( ( ,.,.>.=.%.Z W &.A.n B =.>.%.%.*.*.%.%.} 0 3 b =.%.%.%.%.%.%.%.=.3 3 Z %.@.@.} Z 2 2 2 2 2 2 2 g R ] ] ( ,./ 5 3 3 3 3 n =.%.%.%./ f 3 Z =.%.%.;.&.g g / &.&.&.&.Z g j -.&.&.%.%.B p V %.%.%.;.-.p p p %.%.%.P j j B >.-.%.%.-.-.%.%.%.%.%.%.X.p p %.%.p s p p p s s s p p p -.%.P / P X.X.%.%.p 2 2 Z Z Z Z Z Z N Z * 5 g >./ h m &.&./ %.&.3 5 n m m h Q &.&.@.@.&.&.,.,.! R R ,.,.,.,.,.Q R R ] ,.,.4.",
"5 5 5 5 Q ,.,.,.,.,.R R &.,.&.%.*.Q R ! '.,.W ( ,.V h / ,.f * m %.%.%.%.Z , , %.%.%.%.%.M 2 z %.%.%.%.%.%.%.%.%., , Z Z , , %.Z , , %.%.%.%.%.%.%.%.%.p , b %.@.@.%.%., & & & & & & & , , 3 2 Z %.%.%.%.Z 2 p %.%.%.&.=.n p n &.f p Z &.%.%.&./ 2 p p %.%.%.%./ ( ] ,.,.&.&.b 2 p Z -.p p Z %.%.%.%.%.%.%.Z 2 2 3 %.%.%.%.%.%.%.%.%.2 2 Z %.%.%.=.%.3 3 p p p f m V V V n b =.%.V W ( ( ( ,.'.'.'.F.F./ W &.>.>.>.>.>.V V A.A.A.A.F.,.( ( '.F.A.A.A.P P ;.F.F.A.A.B.P L J B.B.A.>.P K / A.A.A.A.A.,.A.A.>.>.A.'.F.( P / / ^ B B B c c c c B B C >.>.>.>.>.:.>.>.>.B B B %.>.>.>.>.>.>.;.B B B B./ B P A.B.B.B.B.P K / B.B B ;.A.B.B.B.B.B.B.A.-.V P A.A.B.B.A./ K K ;.B.A.A.A.P K B.A.A.A.A.;.K / A.A.A.A.A.A.A.A.A./ K K P K K P P P P K / P K c s L B.J c c c c c c c c c >.-.B B B.T B L B.P B P B.L B X.B.J B -.B.J J J J J B B B B J J J B P B.P J J J J J :.B.J J B.B.J J B.-.B B B B B P B.L c P B.J B B B B B ] d.d.] ] ] ] d.d.] ] ] ] ] ] ] ] ] ] ] ] ] ] ] ] ] ] ] ] ] ] ] ] ] ( ,.'.F.F.F.A.( ( A.F.F.F.F.,.^ ( F.;.^ ' A./ ^ / F.^ K ;.A.A.A.A.;.V V >.A.>.>.>./ k P >.>.>.;.>.>.>.>.>.B B -.-.s B >.%.B B >.>.>.>.>.>.>.>.>.P M X.>.>.>.>.>.z z b b b n n C ( ( ( ( A.A.>.>.>.&.W / A.,.>.>.>.B p C *.b z %.>.>.>.>.%.b b b :.>.>.>.&.( ] ,.1.,.>.%.Z W &.A.n M %.>.*.=.>.>.=.=.%.z 0 b %.%.%.%.*.=.=.*.%.3 3 Z %.%.%.*.@.2 3 2 2 2 2 d R ( ] ! R ;.Z 2 3 5 p p b &.&.%.%.&.f 3 V &.&.&.;.&.g g ;.;.;.;.>./ g B >.;.;.;.>.B p P >.;.;.;.%.p p p -.-.-.-.j j B -.-.-.-.-.-.-.-.-.-.-.-.-.p p s s p s s p p s s s s p p %.-.-.-.%.%.%.%.%.p 2 2 Z %.%.%.@.@.@./ 3 5 g >./ f m &.@.@.&.&.w h Q ,.h h Q &.&.&.&.,.,.,.4.] R R 4.,.,.,.&.R h R 2.`.`.}.",
"R h 6 5 Q &.h 6 h R R R R R R R ,.( 5 5 ,.] ( ] '.( W / ,.V g f > , , Z Z , , %.Z 2 2 2 2 2 z %.b , 2 2 2 2 C %., , Z %., , %.Z , , %.C , , , , , , , > > > , > , C @., , & , & % & & & , 2 2 Z Z 2 2 p p p p p p p n =.n p C %.p p P =.2 p p p p i p p f p p p p R ( ] V j f p p V -.u 2 2 2 p p p p p 2 2 2 2 2 2 2 2 2 2 2 2 2 2 2 2 2 2 2 2 %.%.2 3 3 3 p p V V V n g f =.&.m W ( ( ( ( ] ] ] ,.F./ Z V V Z V V V V V A.,./ / F.,.( ( '.,.Z %.B.` P N.'.( ^ K P P L B B J P P P P / / / P P P P / / Z Z / S.F./ / / ^ ^ J B C c c c c B B B B B B B B c z B B B B j B B B B B B B B B B B B./ B P A.P B B B B V -.A.B V ;.B.V V K K V V A.-.V P A.` K K K K K V V V K ;.A.P P B.B.K K K K K K K K K K K K K K K P P P P P P P U U P / / / P J c P B.B c c B B B B c c B >.-.J J B.X.B P B.P B P B.P L -.B.J B -.B.J J J L L J B B B B L L L P B.P B B J J J :.B.L L :.-.J J B.-.L L J B B L B.L c P B.J B B B B J ] S.S.,.,.,.] `.`.,.] ,.4.,.] ,.,.,.,.,.,.,.,.2.2.,.] ,.,.,.] ] ] ] ] S.'.] ] ] ( ( ( ( ( ( ( F.,.( ( F.;.^ ( F.( ^ ' F./ K K V V V ,.;.V V A.;.V V B k j P A.P n n j j B P >.B B -.;.j B >.%.B z >.X.B b b B B B B M B B B B b %.>.b b b b b n n V W ( ( ( A.>.V Z Z V / / / V V V >.B p C >.b z %.>.b b M B b b z z z z V Q ( ] ( ( V m V Z Q ;.A.m C C B z z b b b z z z 0 3 3 3 3 3 3 0 0 5 3 3 3 3 3 3 2 %./ 3 3 1 , 2 h ( ] ] E h f &./ f f p p 3 2 f 3 3 m &.g p f f g g g g g j ;.-.j g >./ g n >.V p V >.B p P >.p p p p p p p p p j j j j j s s s s s s p p s s s P -.p p p p p s s p p s s s s p p p p p p p p p p p 2 2 2 2 , 2 , 1 , , > , 2 f =.Z 3 f *.w : 5 6 h r ( ,.h 5 / &.h R R R R R ,.] R Q ,.Q h h R Q ! ! ! E E &.",
"R R R 6 Q ,.6 6 5 6 h R R R R R ,.( 6 6 =.Q h ( A.] ( ( A.V h h f 3 2 Z Z , , %.Z 2 2 2 2 2 p %.b 2 2 2 2 1 C %., , Z %., , %.Z , , %.C , , , , , , , > > > > > , C @., & & , , & & > , , 2 2 Z P 2 2 2 2 2 2 2 p p B >.n p C %.p p P =.2 p p p p p p p p p p p p g R ~ ( ~ W g p C :.i 2 2 p p p p p p p p 2 2 2 2 2 2 , 2 2 2 2 2 2 2 2 2 2 2 %.} 2 2 p p 3 b V V n g f p =.%.m V W ( ( ( ] ( ( ,.F.( Z V V V V V V V V A.A.( ' '.,.^ ( F.;.V %.B./ P B.'.' ( / P P P K J K P P P P K / / P P / / / K P P / A.F.' / / / / L C B B B c c c c B B B B B B B j j j B B B B j j j B j j B B B B B./ B P B.P B B B B B -.A.B B -.B.K K K K V V A.-.J P A./ K K K K K K K K K ;.A.P P B.B.K K K K K K K K K K K K K K K K K P P P U P P P P P ` ` A.B.B.>.B.B c c -.B.B.B.c c c :.B.B.B.B.T B L B.P B P B.B.B.B.B.B B P -.B J J B.B.B.:.B B L B.B.B.B.B.P B L P L J :.B.B.B.B.-.B J B.B.B.B.-.B B L B.L c L o.B c c B B J ,.`.`.,.,.2.`.`.`.,.,.,.4.2.2.S.S.`.4.2.2.,.,.2.2.] ,.,.,.,.,.,.] ] ] S.'.] ] ] ] ] ( ( ( ( ( F.A.( ( F.,.^ ' F.( ^ ' F./ ^ K K V V ,.;.V V >.;.V V B B B P B.P n B j B B / >.B B -.>.B B >.%.c z >.P z z b B B C M M M B B b b %.>.b b b b b b n n V W ^ ( A.,.V Z / / / / / V n C >.b p C >.z z %.>.V V M n M b z z z z V Q Q ] ( Q m b b C W ,.F.V m B b z z b b b b z z 0 0 0 3 z 0 3 0 0 3 3 5 5 5 3 3 2 %.@.2 3 2 p h ~ ] ( W h f 3 &./ f f p p p p f p p C =.g f d g g g j j j j ;.-.j g >./ g n >.V g V >.B g P >.g g p p p p p p p j j j j j s s s s s s s s s s s P :.s s p s p s s s s s s s s p p p p p p p p p p p p 2 2 , , , , , , , > > * 2 &.N * 3 &.m 4 5 6 6 6 Q ,.h g ( ,.R R R R R R ,.( R R ,.Q R R E E ! ! E E E ] ",
"h R R R Q ,.&.&.&.&.&.,.,.,.,.,.,.&.h R ,.N 5 R ,.,.`.'.'.W W m ;.>.&.%.Z > , %.%.%.%.Z 2 , p %.%.%.%.%.p 1 C %.2 2 X.%.%.%.%.Z , 2 %.%.%.%.%.b 2 2 3 , , , Z @.@.%.@.& & & , & > > > , , 2 2 / =.%.&.&.&.%.%.%.%.%.%.>.n p C =.%.%.&.=.p p / &.%.%.%.%.&.%.&.Z p p Z ;.`.`.`.W p Z :.i 2 Z &.%.%.%.%.%.%.%.C p 2 n %.%.%.%.%.%.%.%.2 2 Z %.%.%.%.Z 2 2 f p 2 V P Z n g f p %.>.>.>.,.A.'.'.'.,.( ,.'.A.,.>.>.V Z ;.,.,.,.F.,.( ( '.F.A.A.F.;.P / B./ / A.'.'.F.F.A.A.A.A.B.B.A.A.>./ / A.A.A.A.A.F.F.A.A.P P A.'.'.A.A./ ( L C B B B B c c c c B B B B B j s K :.>.>.>.>.>.>.>.>.>.>.>.` B B B.P B P B.B.B.B.B.B.B.B.A.B B -.A.B.B.B.;.J J A.-.J K A./ K / B.B.B.B.B.K K ;.A.K K B.B.K K A.A.A.A.A.A.A.A.-.K K P P P K P P P P P P P P P U ` F.-.P L L c c c L L L L c c c L P P P P J c L B.P c J P P P P P c B B B B B J P P P P B B L B.-.T P P L B X.B.L B P P P P P P B B P P P P L c c L B.L c c c c F F s B K ,.S.S.S.S.S.`.`.S.,.,.,.,.2.`.S.S.,.,.,.,.,.,.,.,.,.,.] ] ,.,.] ] ] ] S.'.'.'.'.'.'.'.`.`.F.F.F.A.( ' F.,.^ ' F.F.A.A.F./ ^ ^ ;.A.A.A.>.V V >.A.>.>.-.B B P B.>.>.>.>.B B P >.B B -.>.>.>.>.%.c z >.:.:.:.>.P M C Z C C B *.:.>.>.>.b b b z b b n n C Z / ( A.F.,.A.A.A.F.F.A.>.>.:.>.b 2 C *.%.*.>.,.V V =.>.>.>.*.=.=.>.>.&.Q ( ,.,.>.*.=.C V ,.F.W m &.=.:.:.>.>.=.=.=.Z 3 p C *.=.*.*.*.%.%.&.5 5 / %.%.%.=.%.2 2 3 h W ] ! R h 1 p p &.=.&.&.&.-.&.;.;.V f V >.&.;.;.;.j j / ;.;.;.>.;.j g >.;.;.;.>.P j P >.B g P >.;.;.-.-.-.-.-.-.-.;.;.` j B -.-.:.:.-.-.:.:.:.B s P >.:.-.-.s p s s s s s s s s s p p p p p p p p n %.%.%.%.%.%.%.%.%.%.%.} M - , @.b & 0 &.&.&.&.&.&.&.&.,.h h ( ,.,.,.,.,.R R ,.( h R ,.] E 2.`.`.`.`.4.R R 2.",
"6 h R R Q &.( ( ( / @.Q Q Q ( ] ,.] R R ,.( 6 g Q @.&.,.,.( ( ( / ;.&.&.W 2 , C Z Z Z M , 2 p Z Z Z Z %.3 2 C %.2 2 M Z Z Z Z b , 2 Z Z Z Z %.b 2 b %.z , , b C C C M & & & & , 3 2 2 2 2 2 p C P P %.%.%.%./ / P P P P b p B P P P P P p p %.&.P P Z Z Z P =.Z p p B P Z ,.'.2.E ( ;.p p %.%.Z Z Z P Z P ;.Z p p z Z Z Z Z Z Z %.%.2 2 Z %.Z Z Z C 2 p p p f Z V V b f p p Z %.%./ &.,.,.4.'.,.] ,.,.,.;.>.A.V W ,.A.;.;.,.,.( ( A.A.,.;.;./ K %.B.P P ;.A.S.S.S.,.>.>.B.;.>.>.F.>./ / F.A.B.>.>.,.A.A.F./ P ,.A.A.>.>./ ( P C B B B B B c c s c B c C >.C s L B.-.-.-.-.-.-.-.-.-.-.B.-.B B B B B B -.-.-.-.-.-.-.-.-.B B P -.-.-.B.>.B B A.-.B K A./ J ` A.;.;.B.A.J K ;.B.K K B.B.K K A.A.;.;.;.;.>.B.-.K K P P P P K P P P P P P P P U ` A.P s s s c c c c c c c c c c c c c c c c c L B.P c c c c c c c c c c c c c c c c c c B B J B.T J J B B c X.B.J c B B B B c c c c c c c c c c c L B.L c c c c F c c B K ] ,.,.,.,.,.,.,.] ,.,.,.,.,.,.,.,.] ] ] ] ] ] ] ] ] ] ] ] ] ] ] ] ] ] ,.A.,.,.A.A.S.S.,.,.,.,.,.;.^ ( F.;.^ ( ,.,.;.;.;.^ K V ' ;.;.;.;.V V -.;.;.-./ B B B -.%.%.-.>.B B P >.B B P %.%.%.%.L c z X.X.X.%.>.P M %.>.P B B X.%.%.%.X.b b b z z b b b B B ^ ( ,.,.,.,.A.S.A.,.>.;.%.%.} z 2 b } } X.X.&.V Z >.,.=.%.} X.%.%.>.&./ ( ,.>.%.%.>.M m &.F.( W =.>.X.%.%.%.%.%.>.Z p 3 b } } @.} @.@.%.=.3 2 Z =./ } Z Z 2 5 E ] ] ( p 2 3 h f p Z / / / / / / %.>.Z g V / / %.;.>.j j / >./ / / / j g / / / / / V j P >.V g V / / / / / P P / / P / B.-.j B B.-.` ` ` ` ` -.>.B s L X.X.P P s s s s s s s s s s s p p p p B -.B p B -.P Z Z Z Z Z Z Z Z Z %.C , , , , & : Z Q Q Q Q Q Q ( ( R R ! ] ,.,.,.,.h h ,.( R ( `.2.2.2.`.,.,.,.`.E E ,.",
"6 6 6 h h h h h h h h h g g g h h R R E 4.] R R h h 5 g h R ( ! ] ( W W V h g d 2 2 , , , , 2 2 2 2 b %.3 2 C %., 2 2 2 2 2 2 2 2 2 2 2 2 3 %.b 2 b %.z , , , , , , , , , , , , , , 2 2 2 2 p p p p p f B j g g p p p p p p p p p p p p p p %.%.p p p p p p =.Z p p p p p C >.^ ] 2.`.k g %.X.p p p i 1 p -.Z p p i 2 2 2 2 2 2 C %.2 2 Z %.2 2 2 2 p p 2 p n P V n f f p p p f f f n W ( ] '.,.] ] ] ( W &.A.W / ,.A./ W ^ ( ( ( ( / ^ V V V V X.B.P P P ( ' ' ` ^ K P K K K P F.A./ / F.;./ P / / ( ,.F./ / ( ' ' / P P / / P B B B B C c s s c c c C >.C s L B.B c c c s s s s c s -.-.c c B c c B B B B B B B B B B B B B B B B B.;.B B B.-.J K A.P J ` A.P J -.A.J J -.B.K K B.B.J K A.-.K K K K K K K K K K P K P K K K K K K P P P U ` A.T L B B L J J J J B J J J J J B c c c c c L B.P L L L c c c L L L L L c c L L L L L L L P B.T F F c F F o.B.L L L F F F L L L L L c c c L L L P B.L c c c c c c c B K ] ,.,.] ,.] ,.] ] ,.] ] ] ] ] ] ] ] ] ] ] ] ] ] ] ] ( ( ( ' ' ' ( ( ( ( ( ( ( ( ( ( ( ^ ^ ^ ^ ^ ^ ^ ( F.;.^ ^ ^ K K V V V V V V V V V V V V B B B B B B B B B B j P >.B c P >.s c c p c c z z z z z z z C >.P M %.>.Z B b z z z z z z b z z b z z b b B ^ ( ( / / ( ( ' ( / V n b p p p p l p 2 z z V V Z >.>.Z M l z z z >.&./ &./ Q b Z >.b b &.A.Q W >.>.z z b b z b >.Z z p 3 3 3 3 3 5 5 Z =.3 3 Z %.3 3 2 p h W ] ( W h p f f f f p p f f f f f f V >.Z g g g g j / >.j j / ;.j j j j j j j g g j j j f P >.V j g g g g p p p p p p s j B.-.j J B.L s s s s s P B.B s s s s s s s s s s s s j j j s s s p p p B >.B p B -.p p p 2 2 2 2 2 , , %.C , , , , & & : * 3 5 5 6 h R R R R R R R R ,.&.h h ,.] ! ] `.2.! ] `.] ! ] `.E E 4.",
"6 6 6 6 h h h h R R R h h h g g h h R R ,.] R R R h h 5 5 h R Q ! ( ( W W V V h f p 2 2 , , , 2 2 2 b %.3 2 C %., 2 2 2 2 2 2 2 , 2 2 2 2 p %.b 2 b %.z , , , , , , , , , & % , , , , 2 2 2 p p p p p p f j j j g d p p p p p p p p p p p p %.%.p p p p p p =.Z p p p p p C >.B ( `.}.( k %.%.p p p i 2 p -.Z p p p 2 2 2 2 2 2 C %.2 2 Z %.2 , 2 2 p p 2 f V / B b f p p p p f f p n W ( ] '.4.] ] ] ( W &.A.W / ,.F.( ^ ( ( ( ( ( / ^ V V V V / B.P J K ( ' ' / ^ ^ K K K K P F.A./ / F.;./ P / / ( ,.F./ / ( ( ' / P P / / K V B B B C B c s x c c B >.B s L >.c s c s s s s s c s :.-.c c c c c B B B B B B B B B B B B B B B B B.-.B B B.-.B J B.P J T B.P J -.B.J J -.B.J J B.B.J J A.-.J J J K K K K K K K K P K K K K K K K P L L P ` A.B.B.>.:.B.B.B.B.B.>.>.B.>.B.B.o.c c c c c L B.B.B.B.B.F c P B.B.B.B.B.F c B.B.B.B.B.B.B.B.B.L F L o.L F T B.B.B.B.L F F M.B.B.Z.B.c c F B.B.B.B.B.L c c c c c c c B K ] ] ] ] ] ] ] ] ] ] ] ] ] ] ] ] ] ] ] ] ] ] ] ' ' ( ( ( ( ( ( ( ( ( ( ( / ( ( / / ( ( ^ ^ ^ ^ ^ ^ ^ / F.;.^ ^ K K V V V V V V V V V V V V V B B B B B B B B B B c L >.B c P >.p p c p p z z z z z z c c C >.P M X.>.Z B b z z z b z z z z z z z z b b B ^ ( / ^ ^ ( ' ' ( ^ V n p p p p p p p 2 p z V Z Z >.>.Z B l z z z >.%.W ( / Q M Z >.b z @.,.W / >.>.z z z z z b >.Z z p p 3 3 z 0 5 5 Z =.3 3 Z %.3 3 2 h W ( ( W h f f f f f f f p f f f g g g V >.Z g g g g j / >.j j / ;.j j j j j j j g j j j j j P >.B j g g g g j s p p p p s j B.-.j J B.L s s s s s P B.B s s s s s s s s s s s s j j j s s s p p p B :.B p B -.p p p p 2 2 2 2 , , %.C , , , & & & : * * 5 6 h R R R R R R h h h ,.,.R R 4.2.! 2.`.2.E ] 4.] ! ] `.E E 4.",
"h 6 6 5 5 h h h h ,.,.,.,.m m g h h h R ,.] R R ] ,.,.,.,.n 5 @.,.'.'.'.F.A.A.A.A.>.;./ , > 3 %.*.*.*.%.p 2 C %.%.%.%.%.2 2 %.%.%.%.%.%.%.%.%.b 2 B %.z , , , , , , , , , , % & > > , , , 2 2 p p p p %.>.>.>.&.j g V >.>.>.>.>.>.>.>.>.>.>.>.%.p p p :.=.:.:.Z p p n z p W >.i l ] `.2.W ;.>.-.-.-.P p p -.:.:.:.:.M 2 2 Z %.%.%.%.2 2 Z %.2 , p z p p 2 g V K b p p p p p :.>.>.=.,.,.( ,.'.4.,.,.,.( ^ ;.F.W ( ,.A.( ( F.'.'.'.F.F.F.A.A./ V / A.A.A.A.F.F.F.F.F.F.F.F.K K P F.A./ / F.;./ / / / ( ,.F.F.F.F.F.( P P P / ( / K c B B J B B c l p p B -.c c L >.c c P B.B.B.B.s s s -.X.c s B.B.B.B.-.B B P B.B.B.B.B.B.B.B.B.B B B.-.B B B.B.B.B.B.P B T B.P J -.B.B.B.B.B.J J >.A.A.A.A.-.J J J J J J J J J J K K K K K K K K K L L P L P T P L J J L J B B L J J L J L :.o.c c c c c c L L L X.B.c c P Z.L L o.M.F F Z.:.L L L L L L L F F L B.L F F L L L L F F c -.:.L L L c c c B.o.L L L c c c c c c c c J P ] ] ] ] ' ] ] ] ] ' ' ] ] ] ] ] ] ] ] ' ' ' ' ' ' ' ' ' ' ' ( ( ( / / ( / / / / F.F.F.F./ ^ ^ ( ( ^ / F.;.K V ;.A.A.A.A.K V ;.A.A.A.A.A.A.A.A.A.B.B.;.B B V >.>.>.>.>.B z P >.>.>.>.:.s p :.>.>.>.>.>.>.>.>.P B P >.Z b b z z z z z z z b b b b z b z B ^ / ^ V K ( F.'.F.A.&.b p B :.:.:.:.:.=.=.=.A.F.F.F.>.Z b z =.>.>.>.%.Z / &./ M N >.b z Z =.Z / >.>.>.>.>.X.b b >.>.>.>.>.C z z @.>.=.=.=.0 z } %.2 3 m ] ( ( V f 5 d g g p z p f =.>.>.>.>./ j V >.Z g j V n j / >.j j %.;.j j ;.>.>.>.>.>.>.>.>.P j P >.>.>.>.>.>.>.>.>.>.>.>.g j j B.-.S J B.P j B J B j P B.B.>.>.-.s s s s s s s s s j j j j s s s s s B %.c p B :.p p Z -.-.-.%.2 2 2 %.Z 1 , %.%.%.%.N 3 5 Q ,.,.,.,.,.,.,.,.=.5 h ,.,.E E `.`.`.`.'.] E ! 4.! Q ,.`.4.4.`.",
"R R R h 6 6 h h h Q Q ( ( R R R ,.&.h n >.( R R ! ] ] ,.4.m 5 @.=.Z Q ( ,.,.,.,.' ;.;./ g p b %.Z C C C p 2 b C C C %.%.2 2 %.%.C C C C C C C p 2 b %.z , , , , , , , , , , & & & > , , , 2 2 p p p p -.-./ / / k k V >./ P Z Z Z Z P P P P P V p p p Z Z Z Z B p n >.C j C >.V g i p ( ).`.,.V V -.P p f V V C C :.M p p b C C C C 2 2 Z %.2 2 %.X.2 p p n P V b p p p p p %.%.Z Z >.,.( ,.'.4.2.4.'.( ^ ;.'.( ( ,.A.( ( '.'.A.,.,.;.;.,.S.( ^ ^ ;.;.-.;.N.N.N.;.;.;.;.;./ / / F.A./ / F.;./ -.F.&.( ,.,.,.,.F.F.( Z P P / ( / P C B B B K B B c z z p a a s L >.c c L :.P P P s s s -.X.c c B.-.P P L c B P B.-.X.T P P P :.>.B B B.:.B B T T -.-.-.L B P B.P B P -.-.-.-.-.J J T -.-.-.-.P J J J J J J J L L J J J J J K K K L L L L L P P L J c s s c c c c c c c c c c :.o.c c c c c c c c c L B.F x o.B.x F o.M.F F Z.-.c c c c c F F F F L Z.L F F F F F F F F F o.o.c c F F c F B.L x x c c c c c c c c B J / ] ] ] ] ] ] ] ] ] ] ] ] ] ] ] ] ] ] ] ' ' ' ' ' ' ' ' ' ' ' ' ' ( ' ' ' ( ( ( / ;.;.;.;./ / ^ A.,.^ / A.;.K K / ;.;.;.A.P V ;.A.-.-.%.%./ / / / %.%.P B B Z >.%.P P P B c C P P P :.:.s p :.:.P X.X.X.X.%.%.Z M P >.Z b z z z z B B z b b b b b b b b B V / K V K ( F.F.;.%.Z z p b :.} C C C C Z Z ;.;.;.=.&.C b z Z Z X.X.Z V %.F.%.b N >.b z z b b V %.%.%.} :.X.b b @.%.@.@.>.C p 3 M Z Z Z } z p Z &.h W '.S.k f p p f p p p f d d f ;.;.P / >./ j V >./ j / >.V j / A.j j -.;.j j ;.;./ / / / / / B.P j B P / P P P P P P P P P P j j j B.;.J J B.P j J B.J j J P P P -.;.s s s s s s s s j j j j j s s s s s s p p p C >.p p Z :.Z C C 2 2 2 %.Z , , %.Z b M m 5 5 Q ,.( Q Q Q Q Q &.&.h R 4.4.! 2.4.2.2.] ] ( E ! 4.! E ! 2.2.3._.",
"R R R R R R h h h h R R h h h m ,.&.R R ,.Q h R R E R ] ,.Q R &.,.g g h m W ( ( ( ( ^ W m m V =.M 2 , , 2 2 p 2 2 2 X.%.2 2 %.Z 2 2 2 2 2 2 2 2 2 b %.z 2 , , , , , , , & , & & & - , , > , 2 p p p p -.P g g k m V V >.V f f f p p p p p p g p p p p p p p p p p n >.V g C >.B j d p j ( ] ] ~ k ;.P i p p d p p :.C p p p 2 2 2 2 2 2 Z %.2 2 %.X.2 2 p B V n g f p p p p %.P p p A.,.( ,.}.`.4.4.'.( ^ ,.'.] ( ,.F.( ( '.F.' ( ( ^ _ _ S.' ^ ^ ^ K K ^ ` ) ) ) / / / / / / ^ F.>./ ' F.;./ ;.F.&.' ] ( ( / A.F./ Z P P ^ ( / / L B B B J C B c c c c a a s L >.c c P :.s c c c s s -.X.c s B.P c c c c c P B.J B B B B c -.B.B B B.-.B B B B B B J J J P B.P J J J J J J J J J J J J J L L L J J J J J J L L L J L L J L K K L L L L L L P L L c c c c c C L L L P c c c :.X.c c c L L L L c c L B.o.Y o.Z.c c o.M.F F M.M.o.o.o.P P T T F F L B.L F L o.o.o.o.Y F F o.o.c F o.o.o.o.B.L c F c c c c x x c c B K ` ] ] ] ] ] ] ] ] ] ' ] ' ' ] ] ] ] ' ' ' ' ( ' ' ' ( ( ' ' ' ' ( ( ' ' ( ( ( / / / / ^ ^ / / / A.>.K / F.;.K K K K K / A.P V ;.A.V V V B B B B B B B B B B L B.P B B c B B c c c c -.:.c c :.%.c B c c B b B B B X.>.Z b z z z B B B B b b b b b b b z b V V V V / ( F.S.V B z p p b =.b 2 2 2 2 p z / / / Z V C b z z z z b b m Z >.} b Z >.b b z b b m m m b b *.X.b b b b b b >.Z z z z z z z b p f / ;.R W A.;.g g f p z p f g j p d g &./ g j >./ j V A./ k / A.V j / A.j j -.;.j j ;.;.j j j j j B B.P j j j j j j j j j j j j j j j j j A.;.J J B.P j K B.J j j j j j -.:.s s s s s s s s s j S j j s s s s s s p p p C >.c p Z :.p p p 2 2 2 %.Z , , %.M , * 5 6 5 W ,.m 5 5 5 g n &.,.R ! 4.4.! ! ! ! ! Q W Q Q ] 4.2.2.2.2.2.2.2.",
"E Q Q Q R R R R h R R R h 6 g m ,.&.R R ,./ m W Q Q Q ( ,.! E ,.,.R m n g h W ( ] ] ( ^ W W / >.Z p p p 2 2 2 2 2 2 X.%.2 2 %.Z 3 3 p p p p 3 2 2 b %.b 2 , , , , , , , , & , , - & > , > , 2 p p p p -.P f g h m m V >.Z n g n g f b b B B j j j f f f p f f p p B >.V p V >.B k k j i B ~ 2.] ( >.P 1 i p g g n -.C p p p p p p p 2 2 Z %.p p %.X.2 2 f B V g f p p p p p %./ p f A.;.( ,.}.`.4.4.'.( ^ ,.'.] ] A.F.( ( '.F.' ( ( ^ ( _ `.] _ ^ ^ ^ ^ ) ' ` ` ` ` / / / / / ^ F.>./ ' F.;./ &.F.;.] ] ] ( &.A.F./ Z P P ^ ^ / / P B B B C C B c c c c a a a L >.c c P :.s c c c B B :.X.s s B.X.B B J J J P B.J B B c B c -.B.J J B.-.B B L L L L J L J X.B.P J J L L L L J J J L L P P P P P P P L J J J J J J J J L L L K K L L L L P P T B.P c J o.c c L >.B.B.B.c c c :.X.c c L B.B.B.o.c c L B.B.B.B.Z.x c o.M.x x M.B.B.B.B.B.B.B.Z.Y F F L F F o.Z.Z.B.Z.M.F F o.o.c F Z.Z.Z.Z.B.L F F c c c c x c c c B K ` ] ] ] ] ' ' ' ' ] ' ' ' ' ' ' ' ' ' ' ' ' ( ' ' ( ( ( ( ( ( ( ( ( ( ( ( ( / / / / ^ ^ ^ / / ^ A.;.K / A.;./ / / / P -.A.P V ;.A.P P P V B B B V V V B B B L B.P B B B B B B B c c -.>.c c :.%.B C C C B B C B b X.>.C b z z z b b B B b n b b b b b z b V V V V / ( F.A.B b z p p b =.b 2 z z z z b / / / / / Z C v b b b b b b Z >.Z z Z >.C M b b b b b b b b *.X.z z b b b N >.Z b b b b b b b f g / ,.W ^ ,.%.f g f p z p g g j p g g ;./ j j >./ j K A./ V / A.V j / A.V V -.;.j j ;.;.j j j j j B >.P B B j j j B B B B B B j j j j j j A.;.J J B.P J K B.J j B B B B -.:.s s s s s s s s s j S S j s s s s s s s p p C >.s p Z :.p p p p p p %.Z , 1 %.M 3 3 5 m m Q =.5 5 5 5 h m &.4.! ! `.`.E ! ! ! ( Q Q Q ! ] `.2.2.2.2.2.2.2.",
"Q E E ! E E R R R Q ! Q R h g g ;.( R R 4.,.,.>.>.>.,.,.`.! E ,.`.4.,.,.&.b z b ,.`.`.,.( ( ' A.,.,.>.;.f 2 2 2 p 2 X.%.2 3 %.&.&.*.%.%.%.%.%.b 2 b Z p 2 , , , , , 3 * , , , , , , , , > , 2 i p p p P C p b Z V n Z >.Z n / >.>.>.>.>.>.>.>.>.>.>.>.>.>.>.>.P p B >.V i V >.;.>.>.>.j d g k 2.] S.( p p :.>.;.;.&.C p C :.-.%.%.*.2 2 Z %.%.%.:.X.p 2 b b f p p p p p p p %.%.g g A.&.Q ,.}.}.}.'.'.( W ,.'.'.'.'.`.( ( A.A.' ( ( ) ( _ `.`.S.S.] ^ ^ ;.F.F.F.F.F.` / ` -./ / F.>./ ' F.F.F.F.F.,.] S.'.F.F.'.F./ P P P ^ ^ / / / P B B B B B B c c c c c a B X.c a L X.s c -.>.>.B.B.-.s s B.B.B.B.B.B.B.B.B.J B B B c B -.B.B.B.B.-.B B B.B.B.B.B.B.B.B.B.P B J B.B.B.B.L J J B.B.B.B.B.B.B.A.:.J J L L L J J J J J J L L L L L L P P P -.F.T B L B.c c P B.c c c c c c :.X.c c c c c c c c c c c F c c F x c o.M.x x F F J F c c c L Z.Y F x x x x o.Z.L F o.Z.F F o.o.F F Z.o.F F F F F F x c x c x c c c B K ' ' ' ' ' ' ' ' ' ' ' ' ' ' ' ' ' ' ' ' ( ( ' ( ( ( ( ( ( ( ( ( / ^ / / / ^ ^ ^ / / / ^ ^ ^ ^ K A.;.K / A.A.A.A.A.A.A.A.A.P V ;.A.A.A.A.;.B B V A.A.A.;.B B P B.>.>.>.>.B B B B c c -.:.c c :.>.>.>.>.>.>.>.>.C z C %.C z b b b B B B b b b b b b b b z z b b B B V / ,./ z z C b p b :.b p C =.*.=.>.F.F.F.F.A.>.>.:.>.>.=.>.} b C >.Z z Z >.>.>.>.>.0 z b b b z } C 3 3 >.>.>.>.>.Z b Z >.>.>.>.>.g m &.A.A.,.;.( g z p p d k j p p j j j ;./ j j A./ j K A.A.A.A.A.V j / B.B.>.>.>.j j / ` j j j j j B B.B.B.B./ j j / B.B.B.B.;.j j P V j j A.M.J J B.B.B.B.B.J j T B.B.B.B.:.s s s s s j s j j J J J j j s s s s s s s s B P s p C P p p %.-.-.%.%.Z 2 1 %.%.%.%.=.=.=.=.&.5 5 5 h R R ,.`.`.`.`.4.E R A.`.`.`.4.4.`.}.|.2.2.2.}.}.}.|.",
"R E E E E E E E ! ! ! E R R R R ,.( h m Q ( ( Q Q Q Q Q ( W E ! ] ] ] ,.,.h h h Q Q Q ] ( ] ] ] ] ' ;.>.g 2 2 2 2 2 X.%.2 3 b m m b b b b M *.b 2 2 3 3 2 2 2 , 2 2 2 * * , * , , , - > > , 2 p p p p s p p B >./ n V >.V n / ,./ Z Z Z Z Z Z Z V Z V V V V >.P p B >.V p B P Z V %.>.j j j f j ^ ] 2._ R ;.P c B V p p C :.Z B Z *.2 2 b B B b M B p p b p p p p p p p p p &./ f f >./ W ] `.`.`.,.,./ W ( ,.,.,.,.,.( ( ( ( ( ( ( ) _ _ ] ] ] ] _ ^ ^ ;.F.' N.F.F.` / A.A./ / F.A./ ' ;.;.;.,.,.] ,.`.'.,.;.,.;./ P P P V ^ / / / K C B c c B K c c c c c a a a a c c c s s -.:.L P P J s s P P P P P P P P P B B B B B B J P P P P P B B B.-.P P P P P T P J B B P T T T L J J >.B.T T T T T T P L L L L L L J J J J J J J J L L J J J L X.F.T B P B.c c P B.c c c c c c :.o.c a a c c c c c c c c c c c x x c o.M.x x x c F c c c c F Z.Y F x x x x o.B.F F o.Z.F x o.o.F F B.o.F c F F F F x x x x x c c c B K ' ' ' ' ' ' ' ' ' ' ' ' ' ' ' ' ' ' ' ( ( ( / ( / / / / ( / ( / / / / / / ^ ^ ^ / / / P K ^ K K A.;.K ^ / / / / / / / / / V V / / / / >.;.B B B P P / P B B B P P P %.>.B B B B c c -.:.c c C P P P Z Z C C >.C z c z z z b b b B B B b b b b b b b b z z p p p f V W V V p z :.Z p b :.b p C *.C C Z ;.;.&.&.&./ Z C C C C >.} b C >.C z M Z Z Z %.>.z 0 z z z 0 z z z z >.%.Z Z Z b z C =.Z C %.>.n V / / W Z Z C f g g g g p p p j g j j ;.%.j j A./ k V / / / / / V j K P P P P P B j j j j j j j j B P P P P K j j / B.P P -.;.j j -.-.j j A.N.J J P P P P P J j T B.P P P K s j s s j j j j j J J J S j s s j s s s s s s p p p p p p p %.-.B B B z 2 , b b b b b M b M M 5 g h R E ! ! ] ] ] ] ( W R `.,.] 2.2.2.2.2.2.2.2.2.2.3.3.3.",
"E E E E E E E E ! ! ! E E E E R ,.&.m n m R R R R R R h h R W R E E E ,.,.R R R h g g W ( ( ( ( ( ( ] A.W h p 2 2 1 X.%.2 3 3 2 2 3 2 2 2 3 =.b 2 3 3 3 3 3 2 , 2 * * 3 , * : & & , , , , , , 2 p p p s p p B >./ n V >.Z m ( ,.m n n m V V g g g g g g g g >.P f B >.Z p j j j g P >.j j j s p j ^ ] ] _ A.Z i i p p p C :.z p Z =.2 2 2 2 2 2 p p p p p p p p p p p p p p &./ p p >./ W ] ] 2.2.] ( ( W ( ] ] ] ] ] ( ( ( / ( ( ' ) ^ _ _ _ _ _ _ _ _ N.F.` ' S.F.` ^ A.A./ / F.A./ ' ( ( ( ( ( ] ] `.'.' / ( ( ( / / / V P / / ( / P B c c B K B c c c c c c c c c c c s s -.:.s s s s s s s s s s s s c c c c c B B c c c B B B B B B B B.T B B B B J J J J B B B J B J J J J B.;.J J J J J J J J J L L J J J J J L J J J J J J J J J L ` F.B.-.-.B.c c P B.o.o.o.o.c c :.:.o.o.o.o.o.o.o.o.o.o.o.c x x x x x o.M.F F F o.o.o.L c c F Z.h.o.o.o.o.o.:.Z.F x o.M.F x o.Z.o.o.B.o.F c F F x c x x x x x x c c B P ' ' ' ' ' ' ' ' ' ' ' ' ' ' ' ' ' ' ' ` / / / / / / / / / / / / / / / / / / ^ ^ K K K K K K K K A.;.V K K K K K V K V V V V V V V V V ;.;.B B B B B B B B B B B B B P >.B B B B s s %.>.B B c c c z z z z c >.C z z z z z b b b b b b b b b b b b b z z z p p p p n m n b p z :.Z p b :.b p C *.z p n / / / P Z n z z z z z =.Z z C >.Z z b b b b @.>.z 0 z z z z z z b b >.Z b b b b z C >.B p Z >.n m m V g g g b f g g g g p d g j g j j ;.&.j j A./ k k k k k k k k j j j j j j j j j j j j j j j j j j j j j j j j / B.j j -.>.j j ;.;.j B A.M.J S j j j j j j j T B.J j j j s j s j j s j j j S J J S j s s s s s s s s s p p p p p p p %.%.p p 2 2 2 , , , , , , , < 3 5 g R R E E ! E E R R R R R ! `.2.2.2.2.2.2.2.2.2.2.2.2.2.2.2.",
"E E E E ! E E ! ! ! E E E E ! E ,.,.( Q W h R R ] ] ] ( Q W / / Q W E 4.`.] ] ( W h h m Q Q ( ,.] ] ,.`.] ] Z C p 1 } %.M m m b b b M N N N =.M 3 3 3 3 3 , , , , * , 3 , , , , & , & & , > , , 2 i p c s p n >./ g V >.Z V &.,.m g m Q Q W W W Z P P V j j >.P g V >./ P P P P P -.>.j j P P / C C P `.`.}./ p i C B B P :.z i Z &.n n C B p p p p p p p p p p p p p p p p -.P p p >.&.&.,.`.`.`.S.,.;.;.,.,.S.,.,.] ( / ;.;.;.,.,.' ' ' ' ] ] ] ] _ _ d.F.' ' S.F.;.;.A.A.^ / F.A.( ( ( ' ' ( ,.,.,.'.'.,.P / ( ( / / / P J P / ( ( ^ B c C B B J B c c c c c c c a a a s s -.:.L L L s s s L L L L P L L L L L L L L s s L L T T L F F F B.-.P P P J F J J J J J P P P P P T T B.;.J J J J J J J J J J J J J J J J J L L L L L L L J J K P A.B.B.:.:.c c L :.:.:.B.:.c s o.:.:.:.M.M.:.:.:.:.:.:.B.F D Y M.F D o.M.F F F M.:.:.o.c c F :.:.M.Z.Z.M.M.M.M.F c o.M.x x o.M.M.M.B.o.x c x F x x F F F F D x c c J P ` ' ' ' ' ' ' ' ' ' ` ` ' ' ' ` ` ` ` ` ` ` ` ` ` ` ` ` ` / / / / / / / P / K K K K K K K K K K A.>.` / / V K ^ ` / / / / / / / / V V ;.>./ P / P B B V / P P P B j P >.P P P P s s %.>.Z Z P L Z C Z Z Z Z >.C z z b b b b b B z z b b z z z b b z p p p l z p p z z z z p z :.C i z *.z 1 C *.z z V Q / / &.%.P Z C C z z =.Z z C >.%.Z Z Z Z Z %.>.b b C C C Z Z Z Z N =.Z b b Z Z Z } >.m g / >.Z Z Q / m h h g b f g g f g j j j j j k ;.;.k k A.;./ / / / / / P P P P P P P P P j j K P P P P P P P P P P P P B j ` B.j j -.B.P P ;.;.j B A.N.J J S S J J U T P -.B.J j j j s j B c s s s s S J J J S j s s j s s s j j j s s p p p p p %.-.C C b 2 2 , b b b b b b M Z Q Q ! ] ] E E ] ] ( ( Q R ! ! }.}.2.2.2.2.2.2.2.2.2.3.3.3.3.}.",
"! E ! ! ! ! ! ! E E ! ! ! ! ! ! 4.`.,.,.&.W V Q ,.,.4.`.`.4.,.,.,.R R ,.4.`.`.`.4.! R Q ,.,.>.,.( W ] '.'.F.'.F.W p / %.%.%.%.*.:.=.*.*.%.%.%.n 2 3 3 3 , * * , * * * , * , , , , , 3 3 3 , , , 2 p p c s p B / Z m Z ,./ m Z ,.W W ( &.m m ,.,.,.>.>./ j g >./ j V >.>.>.>.>.>.>.>.>.j j -.>.>.,.>.:.:.A.'.).] ^ ;.;.-.%.:.b p W ;.:.:.*.%.p p C C p p p p p p p p p p p p -.%.p p >.,.A.'.}.}.}.'.F.F.F.'.'.'.'.'.'.( / A.A.F.'.'.F.F.F.S.F.`.`.`.] _ a.A.' ` A.F.F.F.F.A.K ^ F.A.( ( A.,.' ,.'.'.'.'.'.,.Z / / ( / ( ( / L P P / ' / Z c c c c B B B B s s s s s s s s a a -.>.>.>.:.c c c B.B.B.B.B.B.B.B.B.B.B.B.B.s j -.B.B.B.B.B J J B.B.B.B.B.P B J J B B X.B.B.B.B.B.B.B.B.-.J J J J J J J J J J J J J J J L L J J J J J J J J J J K L L J c c c c c c c c -.M.c c c c c c c c x c x x x L Z.F c Y Z.x x o.M.x F F F F F F c c F F F F c c F F D F D F o.Z.F x x c c c F F c c x c c c c c c c c c c c K / ' ` ` ` ` ` ` ` ` ` ` ` ` ( ` ` ` / / / / / / ^ ^ ^ / ^ ^ ^ ^ ^ ^ ^ K K K K K K K K K P P P P P A.A.A.A.;.K K / A.A.A.A.B.B.B.B.B.B B :.B.B.B.B.-.B B P B.B.B.B.P B P B.B.B.B.B.c c -.>.>.>.B.>.>.>.>.:.:.:.>.C z z z b B c z z z z z b B B B z z p p p p p p p p p p p p p z Z b p b :.b p C :.z b / ;./ / >.A.>.>.:.X.z z =.Z z C >.>.>.>.>.>.>.>.>.z z %.>.>.>.>.>.>.=.=.Z b M >.>.>.>.>.Z m %.>.>.>.>.,.m m / Z f f f g g j j j j j j k ;.;.k k A.A.A.A.A.A.A.A.A.A.A.A.A.A.A.A.;.j j ;.B.B.B.B.B.B.A.A.A.A.A.A.K j K ` j j -.A.B.B.B.;.j J A.N.K K T J j K B.B.B.B.B.J j j s s s c c s s s s j S J J J j s s s s s s j j j s s s s p p p %.:.:.:.%.2 2 2 %.%.%.*.=.=.,.,.,.,.`.`.,.R m &.,.,.`.`.2.2.2.}.}.}.}.}.2.2.2.2.2.2.3.gXMXGXPX",
"! ! E E ! 2.! ! ! E ! ! ! ! ! ! ] ! ! ! Q W W Q ,.( Q ( ! ! ! ,.,.R R Q Q ! ! 4.4.! ! ! ( W Q ,.Q R W ( ( ] ,.A.h 2 f b b g z z z b b b b b b 3 3 3 2 , * * * * * , , , , , & , , 3 3 3 3 2 , , 2 p p s s j B n V V / ,.Q m / A.W W ,.,.W Q ,.,.Q V ;./ j j >./ j j V V V V V K V V V j j -.>.B V V K C L P ] ] ] S.P B B n p p f b z z X.%.p p %.%.p p p p p p p p p p p p -./ f f V W ( ,.4.4.4.,.' ( ] ,.`.`.`.`.'./ P A.>.' ,.S.] ' ' ' ' ] S.`.] _ ' ' ` ` ` ` ` ` / / K K F.A.( ] '.,.' ,.'.,.S.`.`.] P / / ' ' ' ( / L C B P / / / B B c c c B B B c s p s s s s a a a c B B B B c c c B.X.L L L L L L L L L X.B.c c X.B.L L J c c c L L L L B.P B B B B c X.B.L L L L L L P J B F F F J J J J J J L L J J J J J J J J J J J L L L J J L L J c a c c s s s s -.:.a a a a c x c c c c x x x L Z.F c L B.x x o.:.x x x x c F F c c c F F F F F F F F F F F o.M.F F c c c c F c c c x x c c c c c c c c c B K / ' ` ` ` ` ` ` ` ` ` ` ` / / / / / ^ / / / / / / ^ ^ / / / ^ ^ ^ ^ ^ ^ K K K K K K K K K K P K K P P P P K J B P A./ P P P P P -.B.B B K P P P B.-.B B B K K P B.P c B C L L X.B.c c B C L C L C C C C C C C C c z z z B B B B c b b z z B B B c p p p p p p p p p p p p p p p p p p b :.b p M :.z z ;.F.Z Z >.>.C C *.X.z z :.Z z z C C M M M M C C C z z %.=.M M M M N M M b b M >.} M C V V V V Z C V &.>.m m ;.&.g g j j j j j j j j j k ;.;.V V ^ ^ K K K K K K K K K K K K K ;.N.j j >.;.K K K K K K K K K / A.K j j j j B K P K K K K j J A.N.K K B.T J K B.T K K K j j j j c c c s s s s j S J J J J j j s s s s s j j j s s s s p p p B B B B z p 2 2 *.Z 0 0 n m Q W Q W Q &.,.h h &.,.! ] 2.2.2.2.2.2.2.2.}.2.2.2.2._.}.gXFXFXKXKX",
"! ! ! E 2.2.2.2.2.! ! ! ! ! ! ! ! ! ! ! R R W ( ,.Q R R R E E ] 4.R R W R R R ,.,.! ! ! E R ( ,./ h h k W W ' ,.f 2 2 p p 2 2 , 2 3 3 3 3 3 3 3 3 3 2 * , * * * , , , , , , , , , 3 3 3 3 3 3 , 2 p p s p j B B V V / A.W m ( A.( W ,.,.W Q ,.,.m j ;./ j j >./ j j j j j j j j j j j j j -.;.s j j k j s s K _ ] './ j g p p p p i i p P %.p p %.%.p p p p p p p p p p p p -./ p p f h Q ] ] ] ] ( ( W ( ] ] ] 2.`.'.( P B.>.^ ' ] ] _ _ ^ _ _ N.`.a.' ' ' ) ) ^ ) ^ K K K V V A.,.( ] '.,.' ;.'.,.,.2.,.] / / / / ` ( ' / L B B V / ' / K B c x c c c J c c a a a s s s s a s s s s s s s s B.P s s s s s c c c c T B.c c o.:.c c c c c c c c c J B.L c c c c c T B.B B B B B B B B B J J J J J J J J J J J J J J J J J J J J J J L L L L J -.B.:.-.-.o.o.o.c a c o.:.a a c o.o.o.o.o.o.o.Y x x L Z.o.o.:.B.c c o.M.o.o.o.o.o.-.-.-.o.o.-.-.h.o.o.o.o.o.o.h.h.B.B.F F F F F F D D F F F F F F x c c c c c c B K / ' ` ` ` ` ` ` ` ` ` ` ` / / / / / ^ / / / / / ^ / / / / ^ ^ ^ ^ ^ ^ K K K K K K K K K K K K K K K K J J J J V P A.P B B B B B -.A.B B B B B B >.-.B B B B B K B.P s s c c c P B.c c c c c c c c c c z z z z z z z z z B B B B c b z z z z B B z z p p p p p p p p p p p p p p p p p b :.b 2 B :.z z =.F.Z Z =.%.z z *.X.l l :.Z z z z z z z b b z z z z z %.=.z z z z b z z b b M >.Z b b b V m n g g g %.>.m m ;.-.j f j j j j B B k k k k ;.;.V V K k k j k j k j B B V K K B B -.B.j j >.;.B B B j j j B J B / A.K B j j j B B B j j j j j J A.N.K K B.T J K B.K J j j j j j j c s c c s s s j S J J J J j j s s j j s j j j j s s s s p p p p p p p p 2 2 *.C , , 5 h h h h h n / >.m R ,.4.! 2.2.2.2.2.2.2.2.2.}.3.3.3.|.}.mXFXPXKXKXKX",
"2.2.2.2.2.E ! ! ! ! ! ! ! ! ! ! ! ! ! ! E R R ! `.,.] ( Q R R ,.4.] ] ] ( Q Z %.&.R E ( ,.,.,.F./ m g g g h P >.C C C i p p 2 2 3 3 3 p 3 3 2 * 2 2 3 3 3 3 2 , , , , , , , * , , 3 3 3 3 2 3 3 2 2 p s j B B B V V / ,.&.( ,.A.W W ;.A.,.,.,.&.g j ;./ j j B.-./ / K j j j j j j j j j j -.>.P ` ` P P / / P P ;.}.`.( g z P P C C Z Z %.%.p p %.%.p p p p p p p p p p p p -.&.Z Z Z &.,.`.`.`.S.,.;.;.,.`.`.2.`.`.'.,.-.A.>.^ ' ] d._ _ _ _ ' N.'.S.S.S.A.N.N.;.;.;.;.;.;.;.&.A.,.( ,.'.F.A.A.'.,.,.2.,.,./ P / / -.' ' ( P V B B / / ' ^ V c x a c c L J c c s s s s s s s s s s s s s s s B.P s s J P P T T T T -.B.c c o.B.c c F T T T T F F J B.-.T T o.o.T M.B.J J J J J J J J J J J J J J J J J J J J J J J L L J J J J J J L L J J J -.B.M.-.-.o.-.-.J c c c c c F F o.-.-.-.o.o.o.Y F F L o.o.o.o.o.x x o.o.o.o.o.o.M.-.M.M.M.M.-.o.o.h.M.o.o.:.:.h.M.M.o.F F F F F F F F F F F F F F x x c c c c c c J K ` / / / / / / / / / / / / / / / / / / / / / P P P P P P K K K K K K K K K K K K K K K K K K K K K K K K K K K / A.;.` ` K K K ;.A.` / / ` ` / B.-.B B K ` ` -.B.P j j B B B / B.P P P B B B B B B c c c z z z z z z z z b b b b z z z z z z z z z z l p p p p p p p p p p 2 p z z z b :.} Z } :.z z %.A.%.%.=.%.z l *.} l l :.X.} } C z z b b b b b z z z %.=.} } } } } } Z Z Z @.>.Z n n / %./ / Z P / ;.>.n g ;.-.j j j j j j B B B k k k B.;.` / ` / ` ` ` ` ` ` / / ` ` K J J ;.B.` ` B.;.K K K B B B V J J / A.;./ / / / / / / / ` / ` ` ` A.N.K K B.-.T -.B.K J J j j B B j s s c c c s A j S I I J J S j s j j s j j j j j j s c B s s s p p p p p p 2 *.C 3 3 b / / / / Z Z &.,.R ! 4.}.2.2.2.2.2.2.2.2.2.2.|.|.}.gXFXKXKXPXIXPXPXJX",
"! 2.2.2.2.2.2.! ! ! ! ! ! ! ! ! ! ! ! ! ! ! ! ] `.`.`.`.] R R ,.4.4.,.,.>.=.=.,.( h h ] `.`.`.`.] ! ! W k h Z =.*.*.*.p 2 p 2 2 , , , 2 2 2 3 3 3 2 3 3 3 2 2 , , , , , , , * * , 3 3 2 3 3 2 2 2 , p s f j j B V V / A.,.,.F.A.( W ;.A.A.A.A.;.j j K B j j B.B.B.B./ j j j j j j j j j j -.B.A.B.>.>.A.A.A.B.B.B.B.,.] ] ,.:.-.-.>.>.>.>.%.p p B b p p p p p p p p p p p p :.>.>.>.>.A.'.'.'.'.'.F.F.F.'.}.`.`.`.`.'.F.A.A.B.^ _ ] d.] _ _ _ _ d.'.'.F.F.'.F.F.F.F.S.A.F.F.A.A.F.A.] S.'.'.'.F.'.,.,.2.,.] ( P P P / ' ' ' / L B C P / ( / K J x c c c B L L B c s s s s s s s s s s s s s s J J c c L B.B.B.B.B.B.B.B.B B J J j j J B.B.B.M.J J J B.B.B.B.B.B.B.B.B.J J J J J J J J J J J J J J J J J J J J J J J J J J J J J L L L L J I I J I J F F c c c c c c c c c x x x x c c x x x x x x x x x x x x x x x x x x x F F c c D F F F F F F F F F F F F F F F F F F F F F F F F F F F F F H F F F F F F J P T ` ` / / P P ` ` ` / / / P T U U U U U U U U P P P U K K U K K U U U K K K K K K K K K K K K K K K K K K K K K P A.A.A.A./ J J -.A.A.A.A.B.B.B.B.-.J B L B.B.B.B.P B B B B B T B.B.B.B.B c c c c c c c c c z z z z z z b b b b b z z z z z z z z z z l p p z l p p l z z z z l 0 2 1 z =.*.*.*.*.z z %.>.>.>.=.%.z z M z l z :.>.>.>.X.z z b b b b z z z z %.>.>.>.>.>.>.>.>.>.>.>.>.Z n n &.>.>.>.>.>.>.>.>.g g V V j j j j k B V V K S V V B.A.A.A.A.A.A.A.A.A.A.A.A.A.A.A.K k k ;.A.A.A.A.;.B K K S S S S J J / A.A.A.A.A.A.A.A.A.A.A.A.A.A.A.A.N.U U B.B.B.B.B.K j j j j j j j A B B c c F j J J I I J J S j j j j s s B j j j j j c s s s s p p p p p p p b p 3 3 b =.=.=.=.>.,.A.`.! 2.2.2.2.! 2.}.}.}.3.3.3.|.gXFXFXKXPXPXIXIXJXfX}.4.",
"! ! 2.2.2.2.2.2.2.2.2.2.2.2.! ! ! ! ! ! ! ! ! ! E E ! E ! ! Q Q R R h 5 3 5 5 6 h h h E E E E E E E E R k g 2 2 2 2 2 2 2 p p p 3 2 2 2 2 2 2 2 3 3 3 , 2 2 2 , , , , , , , * , , , , 3 2 3 3 2 2 , p p p f B B V V V W W W Q W W W K j J J J J J j j j j j j j j j j j j j j j j j j j j j j j s s j j j B B j j j K ( ] ] ^ k p p p p p p p p p p p p p p p p p p p p p p p f g f f m W ] ] ] ] / ^ / ] `.`.`.`.] ] ( K K K ( _ ] d.d.] _ _ _ _ _ ' ' ' _ _ _ ) ) ^ K ^ ^ K V ^ ' ] ,.;.' ( / ( ' ,.`.,.,.] / P P ( / ( ] P L C c C P / / K J x c c c c c c c s s s a a a a a a a a a a a a a s s a a a a s s a a s s s s s s s s s s s s s s A s A A s s A A A A A A s s s c F F F F F F F A F F F F F F F F F F F F F F F F F J J J J J J J J F A s a s a a a s s a a a a a a a s a x x a a x x a a a a a a a a x x x x s c c c c c c c D c c c c c c c c c c c c c c c c c c c x c c c c c x x c c c c x F J J K K K K J K K K K K K K K K K K J J K J K K J J J J J J J J J J J J J B B B B B B B B B B B B B B B j B j j B B B c s s s j B B j j B c c c s s s c c s s s s s s s s s s s s s s s z c c z z z z z z z l z z z z z z z z z z z z z z z z z z z z z p p p p i i i i p p p p i l 1 1 1 i p 2 2 2 p p p b z z 2 p l z l z z z z z z z b b z b b b b b z z z z z z z z z b z z z b n n n b b b f f p p f f g g g j j j j j j k B V K K S S K K K K V V k k k k K K K K V k j j k S S K K K K K S K K K S S S K K K K K B B B B B B J B B B K B J J K U U U S S J S J J j J j j j J j j B B B c A j J J I I I J J j j j A J A B j j j j j B s s s s s p p p p p p p 2 2 3 3 3 3 f g h E ! ! ! 2.2.2.E 2.2.2.2.3.3.}.gXfXxXFXKXKXPXKXFXMX}.}.4.2.",
"! E E E 2.2.2.2.2.2.2.2.2.2.2.2.2.! ! ! ! ] ! E E E ! ! ! ! ! Q m h 6 5 5 5 w b h 6 h R R R R R E E R R h h , , 2 2 2 2 3 g g h h f f 3 2 2 2 2 3 3 3 , 2 3 2 , , , , , , , , , , , , 3 3 3 3 3 2 , 2 p p j B B V V V W W W W W W V K S S J J J J j j j j j j j j j j j j j j j j j j j j j j s c B B j s c c j j k j k ) `.2._ j i p d p p p p p p p p p p p p p p p p p p g g g g g g h ( ] ] ] ^ K / ] `.`.`.`.] ] ( ^ ^ ^ ( ] d.d.d.d.] _ _ _ ] ' _ ' ' ' _ _ ^ ^ ^ ^ ^ ^ K ( ] ] ,.,.' ( / / ' ;.`.`.S.] ^ ^ K ( ( ( ] / L C c B J K K J J x x c x c c c c c a a s a a a a a a a a s s s s a s a a a a x s a a s s s a s s s s s s s s s s s s s s s c s s c c F F s s s s D D D D D F D F F F F F F F F F F F F F F F F F F F J J J F F F J F A s s s c c a a a a c a c c s c c c c c c c c c c c s s s s c c c c c c c F F F F x F c c D x x x x c c c c c c c c c c c c c c c c c c c c a a s s x x x c F J J J J J J J J J J J J J J J J J J J J J J J J J J J J J J J J J J J B B B B B B B B j j j j j j j j s s s s s s c c s s s c c c c c c c c c c c c c c c c c c c c c s s s s c c c c c c c c c c c c c c x c c c c c c c c c c z z z z z z z z c B B p p p p i i i i p p p i p z i i i p p p p p p p p z z p p p p p p p p b b b b b b b b b b b b b b z z z z b b b z b z z b n B B n g f f f b b b f f f g j j B k j j k k k K K K S S V V V k V V k k S S K K K K K K j j S S S S K K K K S K K K K K K K K K K K K K K K K K K J B B j j j S K U U U J S J J J J J J S S J J S j B B c c A J J J I I I J S j A A A F A J j j j j j B c s B s s s s p p p p p p 2 2 3 3 3 g h R ! ! ! ! ! ! ] 2.2.2.2.3.3.}.fXCXAXDXKXKXKXPXFXfX}.2.2.2.3.",
"2.2.2.E E E 2.2.2.2.2.2.2.2.2.2.2.2.! ! ! ! ! ! E E E ! ! ! ! E n m n h 5 5 5 5 5 5 5 1 2 3 5 3 2 , 1 1 1 2 < < 3 3 , , * g h W ( W W V g 3 * > , 3 3 3 3 3 2 , , , , , , , , , , , , , 3 2 2 2 2 , 2 p p p B B V V V W W W ^ K B B B K K S J J J B j j j j j j j j j j j j j j j j j j j j j B j s c c j j j J J k j s p c ' `.).k p i d p p p p p p p j j j j j j j j j j k k k k V V V ( ] ] ] ^ ^ ^ ] ] `.`.`.`.] _ _ _ ' ] d.d.`.d.d.d.d.d.] _ _ _ _ ' ' _ _ _ ) ) ) ^ ^ ^ ( ] ,.,.] ' / / / ' ;.`.`.`.`.] ( ( ] ] ] ] ' ` / P P P / / P U L T P T T P T T T T T T ` ` ` ` ` ` ` ` ` ` ` i.i.i.i.i.i.i.i.i.i.i.M.-.-.-.-.-.M.M.M.M.M.M.M.-.M.M.M.M.M.M.M.-.M.M.M.M.M.M.M.M.M.M.M.M.M.M.M.M.M.M.M.M.M.M.M.M.M.M.M.M.M.M.M.M.M.M.M.M.M.M.M.M.M.M.M.M.M.M.M.M.M.M.M.M.M.M.M.M.M.M.M.M.M.M.h.h.h.h.M.M.M.M.M.M.M.M.M.M.M.M.M.M.Y Y L o.h.h.h.h.h.h.h.h.h.h.h.h.M.h.h.h.h.M.M.M.M.M.M.M.M.M.M.M.Z.Z.Z.Z.Z.Z.Z.Z.Z.Z.Z.Z.Z.Z.Z.Z.Z.Z.Z.K.Z.K.A.A.S.S.S.S.A.A.S.A.A.A.A.A.S.S.S.S.A.A.Z.Z.B.B.B.A.A.A.S.S.A.N.S.S.S.S.S.S.A.A.A.A.S.S.S.S.S.S.S.S.S.S.S.S.S.S.F.F.F.S.S.S.S.F.F.F.F.F.F.I.I.I.K.K.F.F.K.F.F.F.F.F.F.F.K.K.K.K.K.K.Z.Z.V.V.V.V.V.M.M.M.M.M.M.M.M.M.M.M.M.N.N.N.M.M.M.M.M.M.i.T T T L L B B J L P P K K K K K P P K K K K K K K K V B B B B B n B B B b b b b b b b b b b b z b z z b b B B b f p p b b b b b f f j j B B V V k k k K K K K S S k V k V K K K K K K K K K K K K K K S S S K K K K K K K K K K K K K K K K K K K K K K K K J B k k j K K U U U U J J J J J J J J J J J J S j j B c A j J J J I I I J J J A A F A A J j j S S J B c s B c c c s s p p p p p p 2 3 f h R E E ! ! ! E 2.2.2.2.3.3.}.dXCXCXDXPXPXPXKXFXfX}.2.2.2.2.2.2.2.",
"2.2.2.2.! ! E ! ! 2.2.2.2.2.2.2.2.2.! ! 2.! ! ! ! ! ! ! ! E E E h h h g 5 5 5 3 3 3 3 2 2 2 2 2 , 2 2 2 3 , , , , 2 3 , , 2 3 g h R R W V m g 3 2 2 2 2 3 3 2 , , 1 , 1 , , , , > , , , , , , 3 3 2 2 p p p B B V V V V W W V K K B j J J J k V B B B j j j j j j j j j j j j j j j j j j j j j j j j B j j j j j c B c c c K _ ] ] ( k i p p p p p p j j B B B B B V V V V K K ^ ^ ^ ^ ^ ' ] ] ] ( ( ' ] `.`.`.`.`.`.] ] ] ' ] ] d.).d.d.d.d.d.d.] _ _ _ _ _ _ _ _ ' ' ) ) / ` ] ,.,.,.] ' ' / ( ' ;.).`.`.`.] ] ] `.S.S.`.S.S.d.N.S.S.S.S.S.S.F.F.F.F.].{.{.{.{.{.{.{.{.{.{.{.{.{.{.{.{.{.{.{.{.{.{.{.{.+X+X{.+X+X+X+X+X+X+X@X+X+X@XlXlXlXsX+XkXkXlXlX@XlXsXsXkXkXkXkXkXkXkXkXkXkXkXkXkXkXkXkXkXkXkXkXkXkXkXkXkXkXkXkXkXkXkXkXkXkXkXkXkXkXkXkXkXkXkXkXkXkXkXkXkXkXkXkXkXkXkXkXkXkXkXkXkXkXkXkXkXkXkXkXkXkXkXkXkXkXkXkXkXkX2XT.o.o.h.K.8XkXkX8X8XkX8X8X8XkXkXkXkXkXkXkXkXkXkXkXkXkXkXkXkXkXkXkXkXkXkXkXkXkXkXkXkXzXzXzXzXzXkXzXzXkXzXzXkXzXkXkXzXkXzXzXlXkXkXkXkXlXlXlXlXlXlXlXlXlXlXlXlXlXlXlXlXlXlXlXlXlXlXlXlXlXlXlXlXlXlXlXlXlXlXlXlXlXlXlXlXlXlXlXlXlXlXlXlXlXlXlXlXlXlXlXlXlXlXlXlXlXlXlXlXlXlXlXlXlXlXlXlXlXlXkXlXlXkXkX+X+X/.Y.Y.Y.Y.Y.Y.Y.Y.P.P.P.P.P.T.I.I.T.I.T.I.I.I.I.I.K.K.C.V.t.T T T T T T i.i.i.i.i.i.' ` ` ` ` ` ` ` ^ ) ^ P K V V V B B B B B B b n b b b M M M b b z b z z b b b b b b b B p z b b b b f n B B B V V V k k S S K K K S k k k S K K K K K K S S S S K K K K K K K K K K K K K K K K K K K K K K K K K K K K K K K B j j j K K U ` T U I J J J J S S J J J J J J J J J A A F A J J J I I I J J A A A A A A j j j j j j B B c B s s s s s p p p p p p 2 5 h R E E E ! E E 2.2.2.3.3.}.dXfXCXDXKXKXKXHXFXfX}.}.2.2.2.2.2.3.}.gX",
"3.2.2.2.2.2.! ! ! ! 2.2.2.2.2.2.2.2.! 2.2.2.2.! ! ! ! ! ! E R R h h g g 5 5 5 5 3 3 3 2 , 1 1 1 1 2 2 2 2 , & , & , , , , > , 2 3 h h h V V n g 2 2 2 3 3 3 3 3 , , , , , , , , , , , , , , , , , , 2 p p p B B V V V V W V B K V k j J B B j k k j j j j j j j j j j j j j j j j j B B j j j j j j j B B j j j j c c B B j j k ^ d.] _ B p p p p p c B B B B V K K K K K ^ ^ ^ ) ( ' ` ' ' ' ] ] ' ] ] d.`.`.`.`.`.`.d.d.d.] d.d.`.).).d.d.d.d.d.d._ _ _ _ _ _ _ _ ' ' ' / ` ' ,.,.,.,.] ] ;.;.;.;.,.).`.`.`.,.,.,.`.`.`.`.`.`.S.S.`.].{.{.{.{.@X@X@X@X@X@X@X@XlXlXlXlXlXlXmXmXmXmXmXmXmXmXmXmXmXmXmXNXNXNXNXNXNXNXNXNXNXNXNXNXNXNXVXVXVXVXVXVXVXVXVXVXVXVXVXVXVXVXVXVXVXVXVXVXVXVXVXVXVXVXVXVXVXVXVXVXVXVXVXnXnXVXVXnXnXnXnXnXnXnXnXnXnXnXnXnXnXnXnXnXnXnXnXnXnXnXnXnXnXnXnXnXnXnXnXnXnXnXnXnXnXnXnXnXnXnXnXnXnXnXnXnXnXnXzX2Xh.o.M.T.zXnXnXnXnXnXnXnXnXnXnXnXnXnXnXnXnXnXnXnXnXnXnXnXnXnXnXnXnXnXnXnXnXnXnXnXnXnXnXnXnXAXnXnXnXnXVXVXVXVXVXnXnXnXnXVXVXVXVXVXVXVXVXVXVXVXVXVXVXVXVXVXVXVXVXVXVXVXVXVXVXVXVXVXVXVXVXVXVXVXVXVXVXVXVXVXVXVXVXVXVXVXVXVXVXVXVXVXVXVXVXVXVXVXVXVXVXVXVXVXVXVXVXVXVXVXVXVXNXNXNXNXNXNXNXNXVXNXvXnXvXcX+X(././.(.(.(.(././././.(./.(.!.!.+X+X(.(.(.T.T.T.T.T.K.H.V.i.t.T T T i.M.N.N.N.N.a.a.a.a.a.a.a.' ' ` ' ` ^ K K K V V B B B B B n b b b M M M M b b b b b b b b b b b f b B p p b b f B B B B B B V V V S S S S K S S S k k k S K K K K K K S S S S K K K K K K K K K K K K K K K K K K K K K K K K K K K K K K K B j V K ^ ` i.i.T U U J J J J J J J S J J J J J J J A A A A J J J U I I I J J A A J A A j J j J J j j B s B B s c c s s p p p p 2 2 d h R E ! E E E 2.2.2.3.3.dXfXCXDXKXKXPXJXFXxXdX`.2.2.2.2.2.2.}.|.MXJX",
"3.2.2.2.3.2.2.2.! ! ! E E ! 2.2.2.2.2.2.2.2.2.2.! ! E E ! h g 5 5 3 3 3 f g g h 5 3 2 2 2 1 1 1 1 2 , , , , - - - , , , , , * 2 , , > > 2 3 f f 2 2 2 3 3 5 3 3 3 2 , , , , , , , , , , , , , , , , 2 p p p p c B B V V V V n B B B V V B B B B B j S S S S B B J J j j j j j B B B B B J B B j j j j j j j j j j j B B B j s s j K _ d.).B p p p z c B s j B K K K K K ^ / ` ) ) _ ] ' ' ' ' ] ] ] ] ] d.`.`.`.).).`.`.S.d.d.`.).).).).`.`.).).).).d.d._ _ _ d.d.d.] ' ' ;.;.;.S.,.,.,.] ,.,.S.`.`.`.`.`.`.`.,.,.,.`.`.`.`.`.`.S.S.F.I.{.{.{.{.{.@X@X@X@X@X@X@X@X@XlXlXlXlXlXmXmXmXmXmXmXmXmXmXmXmXmXmXmXmXmXmXmXmXmXmXNXmXmXmXmXNXNXVXNXmXmXmXNXVXVXVXNXNXNXNXVXNXVXVXVXVXVXVXVXVXVXVXVXVXVXVXVXVXVXVXVXVXVXnXnXnXMXVXnXnXnXnXnXVXnXnXnXnXnXnXnXnXnXnXnXnXnXnXnXnXnXnXnXnXnXnXnXnXnXnXnXnXnXnXnXnXnXnXnXnXnXnXnXnXnXHXnXkXT.j.H j.j.U.U.kXAXnXnXnXnXnXnXnXnXnXnXnXnXnXnXnXnXnXnXnXnXnXnXnXnXnXnXnXnXnXnXnXnXnXnXnXnXnXnXnXnXnXVXVXVXVXVXVXVXVXnXnXnXVXVXVXVXVXVXVXVXVXVXVXnXnXVXVXVXVXVXVXVXVXVXVXVXVXVXVXVXVXVXVXVXVXVXVXNXNXNXVXVXVXvXNXVXNXNXNXVXVXVXVXNXNXNXNXNXVXNXNXVXVXVXVXVXVXVXVXVXVXVXVXVXVXNXNXNXNXNXNXNXNXvXvXvXvXvXcX(./././././.!.!.Y.Y.Y./.!.!.T.T.T.!.!.!.T.T.T.T.T.T.P.K.C.V.t.t.T T T T N.N.N.N.a.a.' ' ' ' ' ' ' ' ` ` ` ^ K K V P K C B B B B b b b b M M B B n n n V V n b z z b b g j j b g g g g g j j j k V K K K K K K K k S S S K K K K K K K K K K K K K K K K K K K K K K K K K K S S K K K K K K K S S K K K K K J B B S K ^ _ d.S.f.p.U U U J J J J J J S J S S S S J J J j J J J J S U U U I U J J J J J J J J J J J J j j j j J J s s B c s s c z i i 2 h R R R R E 2.2.2.3.}.dXCXAXKXKXKXIXPXJXmX}.2.2.2.2.2.2.2.}.}.JXIXUXUX",
"GXgX}.3.2.2.2.2.2.2.2.! ! ! ! E ! ! ! 2.2.2.2.2.2.2.2.2.! z f 6 5 5 5 f f f f 5 2 , 1 p 2 2 2 2 2 3 3 3 3 3 R R h 6 4 * > > , 1 1 , > > , 2 2 2 & & > 3 3 3 5 3 3 3 , & , , , , * , , , 1 , , * , , 2 2 p p p p B B B n g g p p f f g j V V V V V j S S S S B B J J S B j j j j B B B J B B B B j j B B B B j B j j j j j B B B j B K ^ _ ).] V p j j s B j j c B K K V K K K K ^ ^ ) ) ( ( ' ' ' ' ] ] ] d.] ] `.`.`.`.] ( ^ ] d.d.).).`.d.d.d.).).d.d.d._ d.d.d.d.d.] ' ' ' ' ,.,.] ] ( ' ' ,.,.,.`.}.}.}.`.4.,.,.`.`.`.`.`.S.] N.S.S.S.].].].{.{.{.{.{.{.{.@X@X@X@X@X@X@X@X@X@X@X@X@X@X@X@X@X@XlXlXlXlXlXlXlXlXlXlXlXlXlXlXlXlXlXlXlXlXlXlXlXlXlXlXlXlXlXlXlXlXlXlXlXlXlXlXlXlXlXlXlXlXlXlXlXlXkXkXkXkXkXkXkXkXkXkXkXkXkXkXkXkXkXkXkXkXkXzXzXzXkXkXkXkXkXkXkXkXkXkXkXkXkXkXkXkXkXkXkXkXkXkXkXkXkXkXkXkXkXkXkXkXkXkX8X8XU.k.j.j.r.j.J.k.Y.8X8XkXkXkXkXkXkXkXkXkXkXkXkXkX8X8X8XkXkXkXkXkXkXkXkXkXkXkXkXzXkXkXkXkXkXzXkXkXkXkXkXkXkXkXkXkXkXkXkXkXkXkXkXkXkXkXkXkXkXkXkXkXkXkXkXkXkXkXkXkXkXkXkXkXkXkXkXkXkXkXkX+XkXkXkXlXlXlXlXlXlXlXlX+XlXlXlXlXlXlXlXlXlXlXlXlXlXlXlXlXlX@X@XlXkXkXlXlXlXlXlXkX@XkX+X+X+X+X+X+X+X+X+X+X+X+X(./.Y.U.U.U.U.J.J.J.J.V.V.V.K.K.K.K.K.H.H.K.K.K.K.K.K.C.C.V.M.t.T T T T T U T ` ` ` ' ` ` ) ` ` ` ` ) ^ ^ K K K K K V V C C B B B B B b M C C C B B B n n n Z V C n b n B B B n B g g j j j j j k V V K K K K K S S k S K K K K K K K K K K K K K K K K K K K K K K K K K K K K K K K K K K U U K K K K K K S S K K J S ^ a.d.S.d.f.d.p.i.U U I J J J J J J J S S S S J j J j J J J J J U U U U U J J J J J J J J J J J J J j J J J J J B B j B B c 1 1 z p R R E E E E 2.3.}.fXCXDXKXKXKXPXHXfX}.}.2.2.2.2.2.2.3.}.GXJXLXJXFXgX}.",
"LXGXFXgX}.3.3.2.2.2.2.2.! ! R R R E E ! 2.2.2.2.! 2.2.! Q 3 5 5 5 5 5 h h f 5 3 3 1 1 2 2 2 2 2 2 2 2 2 2 2 R R R R R h 5 * , , 1 , , - , , * * & & , 3 3 3 3 3 3 3 , , , & , 2 2 2 , , , 3 3 3 3 , , 2 2 p p p p f g g g f p p p f g g V V V V V S j j j S j j j j j j j j j j j j B B B B B B B B B B j j j j B B j j j B B B B j J S ~ ] ] ] ~ j j j j j B c B B B V K K K K K K ^ ^ ) ) / ( ` ( ( _ ' ] ] ] d.`.`.d._ _ _ ] ] d.).`.d.d.d.).).).d.d.d._ d.d.d.d.d.d.] ' ' ' ;.' ' ' / / ' ;.' ,.S.}.}.}.`.,.,.,.S.`.`.S.`.S.,.N.N.N.S.S.S.S.S.I.T.T.T.T.T.T.{.{.{.{.{.{.{.{.{.{.{.{.{.{.{.{.{.{.{.{.{.{.+X+X{.{.{.{.{.{.{.{.{.{.{.{.{.{.{.{.{.{.{.{.{.{.{.{.{.{.{.{.{.{.{.T.{.T.T.T.T.T.T.T.T.T.T.T.T.T.T.T.T.T.T.T.T.T.T.T.T.T.T.T.T.T.T.T.T.T.T.T.T.T.T.T.T.T.T.T.T.T.T.T.T.T.T.T.T.T.T.T.T.T.T.Y.Y.Y.Y.Y.Y.Y.Y.Y.Y.b.j.h.Y Y r.Z.V.K.T.T.T.T.T.T.T.T.T.T.T.T.T.T.T.T.T.T.T.T.T.T.T.T.T.T.T.T.T.T.T.T.T.T.T.T.T.T.T.T.T.T.T.T.T.T.T.T.T.T.T.T.T.T.T.T.T.T.T.T.T.T.T.T.T.T.T.{.{.{.{.{.T.T.{.{.{.{.{.{.{.{.{.{.{.{.{.{.{.{.{.{.{.{.{.{.{.+X+X+XkX{.{.{.{.{.{.{.{.{.{.{.{.{.{.{.{.{.{.{.{.{.{.{.{.{.+X+X{.{.{.{.{.T.T.T.T.T.P.K.J.J.J.J.G.V.k.j.h.h.M.C.Z.C.C.C.C.C.Z.C.C.Z.C.M.M.M.M.t.T T T T T U T T ` ` ` ` ` ` ` ` ` ` ^ ^ K K K K K K V V B B B B B b B B b M C C V B n B B C C V V C n n b M B B n B n n n B j k k V V K K K K K S S S S S K K K K K K K K K K K K K K K K K K K K K K K K K K K K K K K U U K K U K K K K K K K K K ^ ^ ) d.d.d.d.d.d.d.p.t.U U I I I J J J J J S S S S J J J j J J J J J I t.U I U J J J J J J J J J J J J J J J J J J J J j J J s c p p p f R R R E ! 2.}.fXFXFXKXKXKXHXFXMXgX|.}.2.2.2.2.3.}.gXMXFXJXJXGXgX}.4.E ",
"LXIXIXIXFXgX}.3.3.2.2.! ! Q m h m R E E ! 2.! ! ! 2.2.! ( 5 5 5 5 g h h h f 3 3 2 1 1 2 2 2 * 2 2 2 2 , , , 6 h R Q Q Q R 5 2 , - , , , , , , & & , * 3 2 2 3 3 3 3 , , , , 3 3 3 2 2 , , 3 2 2 3 , 1 , , 2 p p p p p p f p p p p f g g h V V V k S S S S S J B j j j j j j j j j j j B j J J B B B B B j B B B B B j j j B B B B j j j j K _ ).] k s j j j B s j j B V K K K K K K K K K K ^ ^ ^ ) ) ) ( ' ' ] ] d.`.d.] _ _ _ _ d.).`.d.d.d.d.).).d.d.d._ d.d.d.d.d.d.N.;.;.;.;.' &.;.;.;.;.;./ ' ] `.`.`.`.,.,.] ,.S.S.,.S.S.A.N.N.N.N.N.N.N.N.N.Z.A.A.S.S.S.S.S.S.S.F.F.F.F.I.I.T.T.T.T.T.T.{.{.{.{.{.{.T.T.T.T.T.T.T.T.T.T.T.T.T.T.T.T.F.F.F.F.F.F.T.T.T.T.T.T.T.T.T.T.T.I.T.I.T.T.K.K.K.K.K.K.K.K.K.K.K.K.K.K.K.K.K.K.K.K.K.K.K.K.K.K.K.K.U.U.K.K.J.Z.K.K.K.K.K.K.K.U.U.U.U.U.U.U.U.U.U.U.U.U.U.U.U.J.J.J.U.U.U.U.U.U.b.h.L F Y Z.Z.K.T.U.U.U.U.U.U.U.U.U.U.U.U.U.U.U.U.U.U.U.K.U.U.K.U.U.K.T.T.U.K.T.T.K.K.K.K.K.K.K.K.K.K.T.T.T.T.T.T.T.T.T.T.T.T.T.T.T.T.I.I.I.I.T.T.T.T.T.T.I.T.T.T.T.T.T.T.T.T.T.T.T.T.T.{.{.T.{.{.{.{.T.T.T.T.T.T.{.{.{.{.{.{.{.{.{.{.{.{.{.{.{.{.{.{.{.{.{.{.{.{.{.{.{.{.{.T.T.T.T.T.T.T.T.T.T.T.K.K.C.Z.V.V.M.M.h.h.h.h.t.M.M.M.Z.Z.Z.Z.M.M.M.M.M.M.i.T T T T T U T J T T P P P P K K K P P P P P P P K K K K K B B B B B B B z z b B B M C C V B B B B C C C C C n n B C B B n B B B j V k k V K K K K K K K S S S S K K K K K K K K K K K K K K K K K K K K K U K K K K U U U U U K K K K K U K K S S K K K ^ ~ _ ' d.d.d.d.d.d.d.p.i.i.t.U I I I J J J J J J J J J J J J j J J J J J I t.t.U U I J J J J J I J J J J J J J J J J J J J S J J s c B z 2 3 h R R ! 4.}.FXKXKXKXPXPXHXMXdX}.3.3.3.2.2.3.}.}.MXJXIXLXJXMX}.2.r 6 4 ",
"gXGXLXIXUXIXLXGXgXgX4.E R R Q R R h m m R E 2.2.! E ! ! Q 5 h R 5 h h h g 3 3 1 2 2 2 3 3 5 5 h h h h h 5 5 , * 3 6 h R R m g 3 , , < < , , , & , 3 3 3 * * , 3 3 , & , & * 3 3 5 3 3 3 2 3 3 2 3 1 1 , , 2 2 p p 3 3 3 f f b b n n g m m V W W V S S S S J J J J j j j j J J J S J j S j j J J J J J J J J B B S J B j B j j j B B B B j c c s d.`.] j c c B B s s B B B J J K K J B J J J J J K K K K ^ ^ ' ] ] ] ] ] ] d.S.d.] d.`.d.d.d.d.d.d.).d.d.d.d.d.d.d.d.d.d.S.N.N.,.;.;.;.;.;.;.;.;./ ( ' `.`.`.`.,.,.' ;.N.N.;.S.S.S.S.N.S.S.S.I.I.].].].].{.{.{.{.{.{.{.{.}.}.[.{.{.{.{.{.{.{.oX{.{.{.{.{.{.{.{.{.{.{.{.+X{.{.+X+X+X+X+X+X+X+XlXlXlXlXlXlXlXlXlXlXlXlXlXlXlXlXlXlXlXlXlXlXlXlXlXlXlXlXlXlXlXlXlXlXlXlXlXlXlXlXlXlXlXlXcXcXcXcXcXzXcXzXzXcXkX8X8X8X8X8X8X8X8X8X8X8XkXsXkXkXkXkXkXkXkXkXkXkXzXzXzXzXzXkXkXkXkXkXkX8Xv L h.2XkX8X8XcXbXcXkXkXkXkXkXkXkXkXkXkXkXkXkXkXkXkXkXkXkX8X8X8X(.8X8XT.(.kXcXcXvXvXcXlXlXlXlXlXlXlXlXlXlXlXvXvXvXvXvXvXlXlXvXlXvXlXlXlXlXlXkXkXkXkXkXkXkX+X+X+XkXkXkX+X+X+X+X+XkX+X(.T.T.+X+X+XT.T.T.8XkX(.T.(.+X+XT.T.T.T.T.T.T.T.T.T.{.{.{.{.{.{.{.{.{.{.{.{.{.{.{.{.{.{.{.{.{.T.{.T.I.I.I.I.S.S.d.a.a.a.a.a.i.i.M.M.M.i.i.-.-.-.` ` T T T T U T P J L J J J J J J J J J B B B B K B j j B B B B B j j j j j B B B B B B B B B b C B n B V V V B n B B b B b n n B C B B B j k k k V K K K K K K K K K K K K K K K K K K K K K K K K K K K K K K K K U U U ^ ^ ^ ^ ^ ^ ) ^ ^ K K K K K K U K K ) U K S K ) d.d.d.).).].`.d.) ) ) i.p.i.U I I I I J J J J J J J J J J J J J J J J J U y.t.U T I J J J J I I I J J J J J J I I J I I J J J J J c i p 0 $ 5 Q F.xXKXPXKXIXPXPXJXmX}.3.3.2.2.2.2.2.}.MXGXIXIXJXBX|.2.E 6 * = - 5 ",
"3.|.|.gXGXLXIXIXLXfX,.R R R Q R R R e w w m E E 2.E ! ! W 5 R R h h h g 3 3 3 2 5 d h m h R R ! ! ! ! ! ! ! R h h 5 2 3 3 p 3 3 2 , , , , , , , , 3 3 2 , , , , , , , , , , , 3 5 3 2 2 2 3 3 3 3 , , , , 2 2 2 p 3 2 3 b g f h h h h h h m V V V S S S J J J J J J B B J J J J J J J J S S S J J J J J J J J J J J J J J j j j j B B B B j j J K _ d.d.K B c j B B B c c j j j j B B j j j j j j B J K K K ^ ( ^ ( ) K K K ` ) _ _ ] ] _ _ d.d.d.).d.d.d.d.d.d.d.d.] ] ;.;.;.' / ( ( ' / / / / / &.,.}.}.`.`.`.,.' ` -.-.-.A.N.N.A.;.;.-.N.N.N.C.S.S.S.S.S.S.S.S.S.S.S.S.S.S.C.H.H.C.C.C.C.H.C.G.G.V.G.V.G.J.J.J.J.J.J.J.J.J.J.J.J.c.c.G.G.J.J.J.J.K.K.K.P.P.P.P.P.P.P.I.P.P.P.Y.P.I.I.I.T.Y.Y.T.T.T././././.T.T.T./././././././././././././.(.(.(.(././.J.h.h.k.V.G.J.J.J.J.J.J.b.b.b.b.b.L.L.L.L.L.L.L.L.U.U.U.U.U.U.U.U.J.Z.Y Y Y Y J.U.Y.L.L.L.L.L.L.L.L.L.L.L.L.L.L.L.L.J.J.J.b.b.b.c.c.c.h.h.h.h.V.K.+X+X+X+X+X+X+X+X+X+X+X+X+X+X+X+X+X+X+XoXoXoX{.{.{.{.].I.I.I.T.P.P.K.K.K.K.K.K.K.K.C.Z.G.G.G.G.V.V.V.V.V.M.M.V.V.V.V.V.V.J.Y./.Y.K.K.K.H.C.C.C.C.C.C.C.C.C.C.C.C.C.C.C.C.C.S.C.S.S.S.C.C.C.C.S.S.S.d.C.d.d.d.d.d.d.a.a.a.a.a.a.p.p.p.` ` i.i.` ` T T U U U U J J I J J J J J J J J J J B B B B B B j j j j j j B B B B B B B B B B j B B B B B B B C B B B B B V P P P V B n b n b b b b C V V B B B k k S K K K K K K K K K K K K K K K K K K K K K K K K K K K K U K U ^ ^ ^ ^ ^ ^ ^ ^ ^ ^ ^ ^ ) ^ ^ ^ ) ) ) ^ ^ ^ ) K K ^ ) a.d.d.S.`.].].d.d._ _ a.a.p.p.i.U I I I I I I J J J J J J J J J J J J J J J U t.t.U t.I J J J J I I I I I I I I I I I I I I I J U I J c z z 0 =.aXfXFXPXPXKXKXFXMX}.}.3.2.2.2.2.3.|.gXMXJXLXJXJXgX}.2.E 6 4 : w m m m ",
"3.3._.|.gXBXGXJXLXfX( R m R Q R R m e w w w R E E E ! ! W 5 R R h h g 3 3 3 3 5 h R R Q Q ! ! ! ! ! ! ! ! ! R R R 5 3 3 < 2 3 2 2 , , , , , , , , 3 3 , , , & , , , , , , , * 3 3 3 3 2 2 3 3 3 3 , , , , , 2 2 3 2 3 p b g g h h h h h h V V V V S S S J S J J J S S J J J J S J J S S S S J J J J J J J J J J J J J J j j j j S V B B B j j J B K _ d._ ^ B j j B B c c c j j j j B j s s s s j B B J J J K ^ ^ ^ K B B J K ^ _ _ _ _ _ _ d.d.d.d.d.d.d.d.d.d.d.d.] ] ] ' ' ' / / / / / / / / ( ' ,.`.`.`.`.S.,.' T T T / -.;.;.N.;.` ` ` i.i.a.a.d.d.d.f.d.d.C.C.S.d.C.C.C.C.V.V.V.V.V.V.V.V.k.k.k.k.k.k.k.k.c.c.b.b.b.b.b.b.c.c.k.u.k.k.k.c.c.c.G.G.G.G.G.G.H.H.H.H.H.H.H.L.H.H.H.H.H.P.P.P.P.P.P.P.P.P.P.P.P.P.P.P.Y.Y.Y.Y.P.P.Y.P.P.P.Y.Y.Y.Y.Y.Y.P.h.t.I r.y.k.k.k.k.k.k.k.c.c.c.c.c.v.v.v.v.v.v.v.v.c.b.c.b.b.b.v.j.j.Y H H Y G k.b.J.c.b.b.b.b.b.b.b.b.b.b.b.b.b.b.b.b.c.c.k.k.j.j.j.j.h.r.Y G t.K.T.oX+X+X{.+X+X+XoXoXoXoXoXoXoXoX{.{.{.].].].I.I.I.I.I.I.K.K.K.H.H.G.G.V.V.V.V.V.V.V.k.k.k.k.k.h.h.h.h.t.t.t.t.t.t.t.k.G.U.Y.Y.U.J.J.H.G.s.s.V.s.V.s.s.s.s.s.s.s.a.a.C.a.a.a.a.d.d.d.d.a.a.a.d.a.a.a.a.a.a.a.a.p.p.p.p.a.a.a.a.a.p.p.i.` i.i.` ` ` U T U K K I I I I I I J J J J J J J B B B B B j j j f j j j B B B B B B B B B j j B B B B B B B C B B B C P P P P P V C B n b b b b b C V V B B B S S K K K K K K K K K S K K K K K K K K K K K K K K K K K K U U ^ ^ ^ ^ ) ^ ) ) ) ) ) ) ) ^ ^ ^ ^ ) ) ) ) ^ ^ U U ) ) _ d.d.`.`.S.S.S.d.a._ _ ] d.p.p.i.t.U I I I I I I J J J J J J J J J J J J J S J U t.y.t.t.I J J J I I I I I I I I I I I I I I I I I U I I F C X.>.dXFXHXLXPXPXHXxXgX}._.2.2.2.3.|.|.|.MXJXJXJXMXgX}.! Q r 4 4 3 3 m W W m ",
"3.3.2.2.2.|.|.gXGXdXQ m m m m 6 h m m e w w 0 n R 2.2.! R 6 h m h g 5 3 3 3 f h R E E ! ! ! ! ! ! ! E E E Q E R R W n 5 2 , , , 2 3 , , , , , , , , * : , , , , , , , , & , & 2 3 3 3 3 3 3 3 3 3 , , , , 1 1 2 2 2 3 p b g g h h m k h k V V V V S S S J J S S J S J J J J J J J J S S J S J J J J J J J J J J J J J S S j j j S k k j j j j k J s s ^ ).`.] S j j j c c c B j j j B B j B B c B B B B B B ^ ( ( P K c s B J K _ ' ' _ ) _ d.d.d.).d.d.d.d.d.d.d.d.] ] ' ' ' ' / / / / / / P / / ' ,.`.`.`.`.`.] ` L Y L T / ` ' N.' ' ' ' a.a.a.d.f.f.C.C.C.f.f.f.f.f.C.C.H.C.V.V.G.V.V.V.V.G.G.G.G.G.G.G.G.G.G.G.J.L.L.L.L.L.J.c.c.c.c.c.G.G.G.G.H.H.H.P.P.P.P.K.K.K.K.K.K.P.P.P.K.P.P.P.P.P.P.P.P.P.P.P.P.I.I.I.I.I.I.T.I.T.T.P.P.P.P.I.I.T.T.T.T.T.I.V.t.r.y.h.k.k.k.k.J.k.k.k.c.c.G.J.J.b.b.J.J.J.L.b.b.b.b.J.J.b.j.r.H H D H Y j.j.j.J.b.L.L.U.J.J.J.J.J.J.J.J.J.J.J.J.J.J.J.b.c.c.k.k.k.j.j.r.Y M.I.+X+XoXoXoX+X+X+X+X+XoX+XoXoXoXoX{.{.oX{.I.I.I.I.I.I.I.I.I.I.K.K.K.K.K.J.J.G.G.J.V.V.V.V.V.V.V.V.V.V.V.V.V.V.V.V.k.k.J.Y.^.^.^.Y.L.P.P.H.H.H.H.H.C.C.C.C.C.C.C.C.C.C.H.C.f.C.f.f.f.f.f.f.f.f.f.f.a.a.a.p.a.a.a.p.p.p.p.p.a.a.a.p.p.p.i.i.i.i.i.` ` ` T U U U I I I I I I I I I I I J J K J B B B B B B B B j f j j f p p p p s j j B B B B B B B B B B B B P P / P V C Z Z C B b b b b B C Z V V B B S S K K K K K K K K K S K K K K K K K K K K K K K K K U K ^ ) ) ^ ^ ^ ^ ) ) ) ) ) ) ) ) ) ) ) ) ) ) ) ) ^ ^ ~ K S p.d.d.).].].].S.d.a.S ' d.d.d.d.d.p.s.t.I U U U I I I I J J J J J J J J J J J J J J U t.y.t.t.I J J J I I I I I I I I I I I U U U I Y T I T T J -.F.FXLXPXPXIXLXFXfX`.2.2._.2.2.2.}.gXMXPXIXIXJXgX4.2.r * $ = 7 m m R R h h n ",
"3.2.2.3.3.2.2.2.2.2.R R Q Q e w 6 m 6 e m m 5 3 0 R E 2.! b h h h f 3 3 f h R ! ! ! ! E R R R h h 5 5 3 2 3 3 3 4 * * 4 5 5 3 2 2 3 3 , , 3 3 3 2 2 2 2 2 3 , , , - , , , , , , 2 2 3 3 3 3 3 3 3 3 , , 2 2 2 2 2 2 3 p 3 p p g B b g j B V V B j S S S J J J S S S S S J J J J J J J J J J J J S J J J J J J J J J S S J J J B J j j j j c c s j B B s ~ ] `.] ~ ~ k s c c J B j s s B B J J J B B B J J B K ( ) K k j j j k S K ^ _ _ _ _ d.).).).).d.d.d.d.d.d.d.] ' ' ' ` ` / / / / / / / / ( ( ] `.`.`.`.`.,.' o.o.T ` Y T -.;.;.;.-.N.N.N.C.C.C.C.C.C.C.C.C.C.C.C.H.C.C.H.H.H.H.H.H.H.H.C.C.V.V.V.V.V.V.V.V.V.V.J.J.J.U.J.b.b.c.k.k.k.G.G.G.G.G.H.K.H.H.H.H.K.K.K.K.K.K.K.K.K.K.K.P.P.P.P.P.P.P.P.P.P.P.P.P.P.P.I.P.P.Y.P.P.P./././././././././././.J.k.r.r.k.k.k.k.k.b.b.c.c.J.J.J.J.J.J.J.J.J.b.b.b.J.J.L.L.J.b.r.H H H H L L L F o.h.J.U.J.b.J.J.J.J.J.b.b.b.b.J.J.J.J.J.V.V.V.V.k.h.h.j.r.r.Y K.T.(.+X+X+X+XT.T.T.T.T.{.{.T.{.T.{.T.T.!.T.T.T.T.I.I.I.I.I.I.I.H.H.H.H.H.H.H.H.C.V.V.V.V.V.V.V.V.V.V.V.k.k.V.V.V.h.k.k.J.Y.^.^.U.P.P.K.H.G.V.s.s.V.C.C.C.C.C.C.C.C.C.C.C.C.C.C.f.f.f.f.f.f.f.C.C.C.C.f.f.f.a.a.a.a.a.d.d.d.a.a.p.p.p.a.a.i.i.` ` ` ` ` T T T T T I J J J J I J J K J J J J B B j j j j c c p s n B B B B B B B B B B J B B B B B B B B B K / / P P B n b C Z Z Z z z b b B C Z P K V V K K K K K K K K K K K K K K K K K K K K K K K K U U U U ^ ) ) ) ) ^ ^ ) ) ) ) ) ) ) ) ) ) ) ) ) ) ) ^ ) ) ) _ a.d.f.].].[.].`.d._ _ _ d.d.d.`.`.d.d.p.s.t.t.U U U U U I I I I J I J J J J J J J J J J U t.t.t.y.I J I I I I I I I I I I U U t.t.t.t.t.t.i.i.i.t.T sXFXUXIXLXMX}.4.2.2.2.2.2.3.|.gXFXIXIXIXJX|.}.2.r * o * 5 b m m R R R m b b R ",
"gX|.|.3.2.2.2.2.2.2.Q R R R e e m 6 5 e w n 5 5 b h R R R m R R h f p 3 g R R E E R R R h h h h g f 5 5 5 5 3 3 2 * 2 2 3 2 2 3 , 3 , , , 3 3 3 3 2 2 3 2 3 , , , - , , , , , , 2 2 3 3 3 3 5 3 3 3 , , 2 2 2 2 2 2 2 3 2 2 p p p p p B B V V B j S S S S S J J J S S S S J J J J J J J J J J J S J J K J J J J J J S S J J J B J j j B c c c s j B B j k ^ _ ] ] _ ^ j c c J B j s c c B B B B B B B B B B V V K B B B J B j B J K ) ) _ _ d.).).).).d.d.d.d.d.d.] ' ' ' / / / / / / / / / / / ( ' ,.`.4.4.`.`.] ' Y Y Y T Y T T ;.' ` -.N.N.C.f.C.C.C.C.C.C.C.C.C.C.C.C.C.C.C.H.V.V.V.V.C.C.C.C.V.V.V.V.V.V.V.V.V.V.G.J.L.L.L.J.b.b.c.c.c.G.G.G.G.G.G.H.K.K.K.K.K.K.K.P.P.P.P.P.P.P.P.P.P.P.P.P.P.P.P.P.P.P.P.Y.Y.P.P.Y.Y.Y.Y.Y.Y.Y./.Y.Y.Y.Y.Y.Y.Y.Y.Y.K.k.r.r.y.k.k.k.k.b.c.b.b.b.b.b.b.b.J.J.b.J.J.J.b.J.J.J.c.k.j.H H H H H H F H L Y h.k.b.b.b.b.J.J.J.J.L.J.J.J.J.J.J.J.J.J.J.c.k.k.k.k.j.r.r.Y K.T.(.(.(.(.(.(.T.T.T.T.+X+X!.T.T.T.T.T.T.T.T.I.I.I.I.I.I.I.I.K.K.K.K.K.K.K.J.G.G.G.G.V.V.V.V.V.V.V.V.k.k.k.k.k.h.h.k.V.U.Y./.Y.J.K.K.K.V.V.V.V.V.V.V.V.V.V.V.V.V.C.C.C.C.C.C.C.C.C.C.C.C.C.C.C.C.C.f.a.a.a.a.a.a.a.a.a.a.a.p.p.p.p.a.p.i.` i.` ` ` T T T P P P P U U K J J K K K K K J J J B B j s s B B B s B B B B j f j j B B B B B B B J J B B B K P ` ` P P B B B B B C C V z b b b B C P P K K K K K K K K K K K K K K K K K K K K K K K K U U K U U U U ^ ) ) ) ) ) ) ) ) ) ) ) ) ) ) ) ) ) ) ) ) ) ) ) ) _ d.d.).].].].].d.d.d.a.d.d.).`.`.d.d.a.p.p.s.i.t.U U U U U U I I I J I J J J J J J J J J I U t.t.t.t.I I I I I I I I I I I I U t.t.t.t.t.i.i.i.i.s.i.T {.xXIXfXfX}.4.2.2.2.2._.|.gXMXGXJXJXMXgX}.2.! R 6 4 5 5 n m m h m m m m n n n ",
"JXBX|.|.2.2.2.3.2.2.E r r h e e m m 6 6 w 5 6 6 w 5 5 5 m R R R g f f p h R E E R R 6 d 5 5 5 f f f g g h h 3 3 3 3 3 2 2 , , 1 1 , , , , 2 3 3 3 3 3 3 2 , , , - - - , , , , , , 3 3 2 3 3 5 3 3 , , , 2 2 2 2 2 2 2 2 2 2 1 i i p p j B V V V j J S S S J J J J J S S J J J J J J J J J J J J S J J J J K J K K J K K J J J J J B B B c B B B B B J J c s J ' d.d._ K B c c s s c F B j B B B c B B B B B B B J B B B J B s c c J K ^ ' d.).).).).).d.d.d.d.d.d.' ( / / / / / / / / / / P P / ( ;.S.`.`.4.`.`.] ' Y Y L U T T T ` ` ` ` N.N.s.f.a.C.C.C.C.C.C.C.C.C.C.C.C.C.C.V.V.V.V.V.V.V.V.H.G.G.G.G.G.G.G.G.c.c.c.J.L.Y.U.L.L.b.b.c.c.G.J.J.J.L.J.L.L.H.H.H.P.P.P.P.P.P.P.P.P.P.P.P.P.P.P.P.P.P.P.P.P.Y.Y.Y.Y.Y.Y./././././.~.Y.Y.Y.Y.Y.Y.Y.Y.Y.T.T.K.V.r.r.h.k.k.k.c.c.c.b.b.b.b.b.b.b.J.b.b.b.J.J.k.k.k.h.h.r.Y H L H H Y H D F Y Y Y j.j.k.k.k.b.J.J.L.L.L.L.L.J.b.b.b.J.b.b.b.c.k.k.k.h.r.r.r.P.T./././././.(.(.(.(.!.!.!.!.!.!.!.T.T.T.I.I.I.I.I.I.I.I.P.P.P.K.K.K.J.J.J.J.J.J.J.J.J.J.G.G.V.V.V.k.k.k.V.k.k.t.k.V.J.Y.Y.Y.Y.J.K.K.H.V.s.V.V.V.V.V.V.V.V.V.V.C.C.C.C.C.C.C.C.C.C.C.C.C.C.C.C.C.C.a.a.a.a.a.a.a.a.a.a.a.p.i.i.i.i.` ` ` ` ` ` ` T T P L L L L L T U K K K K U U K K K J B B B s s c B B B B B B j f f g f j j B B B B B B J J J J B P ` ` ` K B B B C C B n n n b B b b n V P P P K K K K K K K K K K K K K K K K K K K K K K U U U U U U U U ) ) ) ) ) ) ) ) ) ) ) ) ) ) ) ) ) ) ) ) ) ^ ) ) _ d.d.`.[.[.].].d.d.' _ d.d.`.).).`.d.' ) i.p.C.p.p.U U U U I I I I I I I I J J J J J J J J I U t.t.t.t.I I I I I I I I I I U U t.t.i.i.i.i.p.p.p.p.f.C.U F.lXHX4.4.2.2.2.2.2.}.}.mXJXLXLXJXMX}.4.E 6 * * 3 w b m m m m h m n b n h n z ",
"|.BXJXJXBX|.|.3.2.2.E r e e 6 e m m 6 h h w 5 5 5 w w 5 5 h W m 9 : 6 E E R h * 2 i i p 2 2 5 * 3 5 g g n Z R h h 6 6 5 5 2 3 1 - , , , , , 2 3 5 3 3 3 3 3 , , - - , , , , , - - - , 3 2 2 2 2 2 , , , 1 , 2 2 2 2 2 p 3 p p p i p i c B B B K B c s j S K J J J J J S J J J J J J J J J J J J J J J J J J J K K K K K J J J J J J j j j B B B B B B J S S J J ^ _ `.d._ V s c c c c c c B c c F K S j s B B c c c B B B B B c B c c B _ ).).)..X.X).).d.d.).).d.) ^ P / / P K / P / / P P P P / ' ,.`.`.`.`.d.' / o.T T T P P P T ` i.N.C.C.C.f.C.C.V.V.V.V.V.G.V.V.G.V.G.G.G.G.G.G.G.G.G.G.G.G.G.G.G.G.G.G.G.G.k.k.k.G.J.L.Y.Y.L.J.b.c.c.G.G.J.J.G.G.G.L.L.L.L.L.L.L.P.P.P.P.P.P.P.P.P.P.P.Y.Y.Y.Y.Y.Y.Y.Y.Y.Y.Y.Y.Y.Y.Y.Y.Y.Y.Y.T.T.T.T././.T.T.T.T./.Y.K.t.Y r.t.k.k.k.k.c.b.b.b.J.J.J.L.J.J.b.c.k.h.Y Y r.Y Y Y Y Y Y H H H H H h.g.r.Y r.j.j.j.h.h.r.h.j.b.J.J.J.b.b.b.b.J.b.b.c.c.k.k.k.h.Y Y t.Y./.(./.(.(./.T.T.T.T.T.T.T.T.T.T.T.T.T.T.T.T.T.T.T.T.T.Y.Y.Y.P.K.K.K.K.J.J.J.J.J.J.J.J.J.J.G.G.G.V.V.k.k.V.k.k.y.k.J.Y.^.^.Y.K.J.G.G.G.V.V.V.V.V.V.V.V.V.V.V.V.V.C.C.C.C.C.C.C.C.C.C.C.C.C.C.C.C.C.C.C.C.C.C.a.a.a.a.i.i.i.i.i.` ` ` ` ` ` ` ` T U P L L L L L L L P P U K U U U K J J B c c c p p j B B B n n n B j g g j j B K K K V B B J J B J L ' d.' B B B C C C B B n b b m B c z V ^ / L B B V K K K K K K K K K K U K K K K K K U U U ^ ^ ) ) ) ) ) ) ) ) ) ) ) ) ) ) ) ) ) ) ) _ _ _ ' ` ) ) ) ) p.d.).].[.[.[.`.d.d.' _ d.d.).).).`.d._ ` ' d.d.a.s.s.t.U U I I U I I I I I I I J J I J J J I S I t.i.t.U t.I I I I I I I I U U t.t.t.i.p.p.p.p.f.d.d.S.C.f.s.a.a.] ] 2.2.2.4.}.fXLXIXIXJXMX}.2.E 6 * , 9 z b m h h n b n n n n m h h h g z ",
"E 2._.|.BXBXBXgX|.|.2.6 6 h 6 6 6 e 6 5 w 5 5 5 5 w 5 5 5 h m R h R R R h 5 5 m h h 6 R 6 6 R R h 5 3 3 5 4 h h h h h h h g f 5 2 * , , 1 , 2 p 3 3 2 3 3 3 , , & & - , - - , - > , , 2 3 2 3 3 2 > , 1 , 1 , 2 2 2 2 2 2 p p p p i i p c B B V B c s j j J J J J J J S J J J J J J J J J K J J J J J J J J J K J J J J K J J J J J J S S B j B j j B J S S S S S K K d.d.] K j s J B j j s J J J c c B J B B c c c B B c c c c B c c s _ d.).).)..X).).d.d.).d.d.' ` P ^ ^ P P K K P / P P P K / ' ,.`.`.`.`.] ' P L L P P L L L P T ` M.N.C.C.f.C.C.C.C.C.C.C.V.V.V.V.V.C.C.C.K.K.G.V.V.G.V.G.G.G.V.V.V.V.V.V.V.V.V.k.k.J.J.U.Y.U.J.J.J.G.G.G.G.J.J.J.L.H.H.H.H.H.H.P.P.P.P.P.P.P.P.P.P.P.Y.Y.Y.Y.Y.Y.Y.Y./.Y.Y.Y.Y.Y.Y./././.Y./.Y.Y.Y.Y./././././././.T.K.h.Y r.t.h.k.k.k.J.J.G.b.b.J.J.J.k.k.j.h.h.h.h.h.h.j.h.h.h.h.Y Y H Y L L o.j.j.h.r.j.k.k.k.b.b.k.j.j.j.b.J.J.J.J.b.J.b.b.c.k.k.k.k.h.Y r.h.T.(.(.(.(.(.(.(.(.(.(.(.(.(.(.(.(.(././././././.T.T.T.T.T.Y.Y.Y.P.K.K.K.K.K.K.K.K.J.J.J.J.J.J.J.J.G.V.V.V.V.V.k.k.J.U.Y./.Y.Y.K.K.G.V.V.C.C.V.V.V.V.V.V.V.V.V.V.C.C.C.C.C.C.C.C.C.C.C.C.C.C.C.C.C.C.C.C.C.C.C.a.i.a.a.` ` T T T U T T T T ` T T T P K J J J J C J P L L K U U U K K J B B c z c s s B B B B B n B j j j B K K J B J B B K K B B K ` a.' ` ^ V V V C C C C C B B M m b b z V / / P K P K K K K K K K K K K K U K K K K U U U ) ) ^ ) ) ) ) ) ) ) ) ) ) ) ) i.p.) ) ) ) ) ) ) ) _ ) ) ) _ p.d.).].[.[.[.`.d.d.' ' d.`.).`.).`.`.d.d.d.d.`.d.d.a.f.p.i.U U U U I I I I I I I I I J I J J J I J I t.i.t.U t.U I I I I I I U t.t.y.t.i.p.a.f.f.f.f.I.I.I.C.p.i.) ~ E 2.2.}.gXFXJXLXJXBXgX'.] R 6 6 5 3 3 b b b b b b g g h m m h g 5 3 3 p g ",
"6 r 2.2.|.|.BXBXBXBXgXr 6 6 6 6 6 6 5 w w 5 5 5 5 5 5 5 5 6 h h R R R h g g 6 R R R R E R R Q Q Q R R h 6 6 5 5 5 5 h h h g f 5 2 * , 3 , , 2 p 3 2 2 3 3 , & & & - - , - - , - > , 2 2 3 3 3 3 2 , , , , 1 2 2 2 2 2 2 2 p p p p p i p s j B B B c s j j J J J J J J S J J J J J J J J J J J J J J J J J J J J J J J J J J J J J J J J J j j j j j J S S S S S S J J ` ' d.] ^ J B B j j s c J J c c F J B B c B B B B c c c c B c c s ^ d.).).)..X).).).).d.d.d.' ` ^ ^ ^ P P K K P P P P P K / ( ,.4.4.4.`.] ' P L L L P L P P P P ` ` a.a.a.s.C.C.C.C.V.V.C.C.C.V.V.V.V.V.V.V.V.V.V.V.V.V.V.V.V.V.V.V.V.V.V.M.h.h.h.k.V.J.J.U.U.J.J.G.G.V.V.V.V.G.G.G.G.G.G.G.G.H.H.H.H.H.K.K.K.K.K.K.K.K.K.P.P.P.P.P.P.P.P.P.Y.Y.Y.Y.Y.Y.Y.Y.Y.Y.Y.Y.Y.Y.Y.Y././././.T.K.h.Y r.r.h.k.k.k.J.G.c.c.b.J.J.k.k.k.h.h.j.h.k.k.k.Z.h.h.h.Y Y Y Y Y Y L Y h.h.h.r.j.k.k.b.J.J.k.k.j.j.k.b.J.J.J.J.J.b.c.k.k.k.k.k.h.Y r.h.T.(.(./.(.(.T.T.(./.(.(.(./././././.T.T.T.T.T.T.Y.Y.Y.P.Y.K.K.K.K.K.K.K.K.K.J.J.G.J.V.V.V.V.V.V.V.V.V.V.V.V.V.V.k.J.Y.Y.Y.Y.K.K.V.V.V.s.V.V.s.s.s.s.s.s.M.M.M.M.V.V.C.C.N.N.C.C.C.C.C.C.C.N.C.N.N.N.N.N.M.a.a.i.i.i.i.T T T T T U T T T T T T P P K J J J J J C J J J K K U U U K J J B B c z s s s B B B B B B B j j B V K K J B J J B J J J K ' ' ] ( ^ K V V V V C C C C C C M m b b B V / / / P P / K K K K K K K U K U K K U K U U U U ) ) ) ) ) ) ) ) ) ) ) ) ) ) ) p.p._ _ ) ) ` ` ) ) ) ) _ a.d.d.).].[.[.].`.d.a.d.d.d.).).`.`.`.d.d.] d.d.`.).d.d.V.C.p.i.U U U U U I I I I I I I I J I J J J I J I t.i.t.t.t.U I I I I I I y.t.t.t.i.p.p.f.f.f.f.I.I.I.I.C.a.) ^ ( 2.}.gXMXFXJXJXGXgX}.2.Q 5 * 2 2 3 3 p p p b b b b f g g g g 5 5 5 g b m R ",
"4 w w 6 E 2.2.|.BXJXIX&.m 4 w m 6 6 5 w w 5 5 5 5 5 5 5 5 5 5 h R h h 6 R Q ! E ! ! ! ! E E R ! ! 2.2.E E R 3 2 3 2 2 3 5 f 3 2 & * 3 3 , , 2 p 3 2 2 3 3 , , % - - - - , - , , , , 2 3 3 3 p p p 2 , , , 1 2 2 2 2 2 2 2 2 p p p p p p p p j B B B s j j B j S J K J J J J J J J J K K J J K J J J J J J J J J J J J J J J J J J J J J J j j j j S J J J J S J J J F c K ' ).d.) s j B B s s s j J J F c j j B B c c c c B B B B c c s K p.).).).).).).).).d.d.a.` ` ^ ^ K K L K K P P Z P P P / ( ;.,.,.4.`.;./ P L L L P L L L L P P ` ` ` i.i.i.i.i.i.M.M.M.M.M.M.M.M.M.M.M.M.M.M.M.M.M.M.i.i.t.t.t.t.t.t.t.t.t.t.t.t.h.V.J.K.J.J.G.V.V.h.h.h.M.M.V.V.V.V.V.V.V.V.V.V.V.V.V.V.V.V.V.V.V.V.V.G.G.H.H.J.J.J.K.J.K.K.K.K.K.P.P.P.P.Y.Y.P.Y.Y.Y.Y.Y././.Y.Y.K.h.Y Y Y r.j.h.k.V.k.k.c.c.c.G.k.k.k.h.k.k.k.J.Z.Z.J.j.h.h.Y Y Y Y Y Y Y H h.h.h.Y h.k.c.c.c.c.k.k.k.k.k.k.k.J.J.J.J.b.c.k.k.k.k.k.Y Y r.h.Y.T.T.T.T.T.Y.T.T.T.T.T.T.T.T.T.T.T.P.P.P.P.K.K.K.K.K.K.K.C.V.C.V.V.V.V.V.V.V.V.M.M.M.M.M.M.M.M.M.M.M.i.M.t.t.t.V.K.Y.T.Y.Y.K.Z.M.i.i.i.i.i.i.i.i.i.i.i.i.i.i.i.i.i.i.i.i.i.i.i.M.M.M.M.a.i.a.i.i.i.i.i.` ` ` ` ` U U K K P P P P P U U T T P K J J J C C J J J K B C J K K P K J J B s s p p s s B B B B B j j j j B B K J J B J K K K c c J d.d.] ^ V P P V V V V C C B C C C C M b C C P / / ` ` ` ( K K K K K K U U K K K K U U U ^ U ) ) ) ) ) ) ) ) ) ) ) ) ) ) ) ` _ _ _ _ ` ` ` ` ` ` ) _ a.d.).[.[.[.[.].S.d.a.a.d.).).[.).).`.d.d.d.).).`.`.).d.d.s.C.s.i.y.U U U U I I I I I I I I I J J J J I J I t.i.t.t.t.I I I U I I U t.t.t.i.p.p.f.f.f.I.I.].).].f.f.C.T ` A.sXJXLXIXIXJXgX}.E 6 * * 1 1 9 9 l p 2 2 2 p b b n h g f 5 3 3 5 5 R W ! 2.",
"w w w e 5 5 6 r 2.2.|.|.! r n 5 6 6 w 5 5 5 5 5 5 5 5 5 5 5 5 5 Q dXMXMX}.4.] R R R h d k n 3 * 5 g g z 0 0 W W m h 5 5 3 3 3 3 3 5 3 3 3 2 2 3 2 2 , , , , & - - > , , > > > > > > 2 3 p p p p p 2 2 1 1 1 2 2 2 2 2 2 2 2 2 p p p p p p p f j B B B B B B V K K K J J J J J J K K K K K K J J J J J K K K K J J J J J J J J J K K K K J J J J J J J J J J J J J J K J F D U d.).).c x x J J F x S S S j F F B J c c c c c B B B B c s j K ).).).).).).).).d._ ) P / ( ( ^ K L J J V P V P P P K / ( ,.] ,.,.' / P L L L L L C C C Z Z P P P K P K K K U U U U U U U U U U U U U U U T U U U K U K K J J J J J J J J U I T T h.M.V.M.M.t.t.T T U U U T T T T T T T T T T T T T T T T T T T T T t.t.t.t.t.t.t.t.t.t.t.t.t.t.t.t.t.y.t.t.y.t.t.t.t.t.y.k.k.V.V.t.Y Y Y Y Y Y Y r.r.r.r.r.r.t.t.t.h.h.V.V.V.J.V.k.k.h.h.h.Y Y Y Y Y Y Y H h.k.k.r.r.r.j.h.j.k.k.k.k.k.k.h.h.h.h.h.h.h.h.r.h.r.r.r.Y Y Y h.V.V.C.V.V.V.V.V.V.V.V.V.V.V.V.V.M.M.V.V.C.V.V.s.s.i.i.t.t.t.t.t.T T T T T T T U T U U U U T T T T U U U U U U T i.V.C.K.C.V.M.` U K K K K K K K K K K K K K K K K K K K K K K K K K K K K K K K K K K K K K K K K K P K P P P P P P P P P P K C C B C C C C V V V B B C J J J J B B s s s p z c s B B B B B B B B J J J B B J J K K J c K _ d.d.) K k V B V / K V V C C B C C C C M b C Z P / / N.N.' ) K K K K K K U U U K K U U ^ ) ) ) ) ) ) ) ) ) ) ) ) ) _ _ ` _ _ p._ _ ' ' ` ` ) _ p.p.d.d.].[.[.[.[.S.d.d.d.d.`.).[.[.[.).d.d.d.).).)._.).).).).d.d.V.s.s.i.t.t.U U U I U I I I I I I I I J J J I I U t.i.i.t.s.U I I y.y.y.y.i.i.i.p.f.f.f.f.f.].].].I.f.f.p.i.U T.xXIXJXMXfX4.Q 6 O ; < < 2 f p p p p p z b b n g f 5 3 3 3 3 g R R ! 2.2.2.2.",
"5 5 5 w w 5 6 6 R E ! 2.! R n 5 6 6 5 5 5 5 5 5 5 5 5 5 5 5 5 w &.MXJXJXFXfXsX'.] W R h W W m R h h h m h h h h m W m m n 5 2 * 3 b 5 3 2 2 2 2 2 2 2 2 , , , > , , , , - > , , , > 2 3 p p 3 3 p 2 , 1 1 2 2 2 2 2 2 2 2 2 2 p p p p p p p p s B B B B B B V K K K K K K K J J K K K K K K K J J J K K K K K J K K K K K K J J K K K K U J J J J J J J J J J J S S J J I J J ) ' d.a.^ B B B J J j j S S F F J J J B c B B B B c c B s c J d.).).).).).).).d.' K K ^ ( ( K K L L J V P V K P P P ^ ( ] ( ( ' / P P P L C L C C C Z Z Z Z P P K P K K K K K K K K K U U P K P P U U K K K K K K U K K K J J K K K J J J J K T T t.t.t.t.T T K K K K K K U U U U U U U U U U U U T T T T U U U U T T T ` T T T T t.t.i.i.i.i.i.i.s.s.s.s.s.s.s.s.V.V.V.V.V.V.M.t.Y Y Y Y Y Y Y Y Y Y Y Y Y Y r.t.t.t.h.h.h.k.h.h.h.h.h.h.Y h.h.h.h.h.r.Y r.j.J.j.j.j.r.h.h.h.j.j.j.j.h.h.h.r.r.r.r.r.Y Y Y Y Y Y Y Y t.M.C.C.C.C.C.C.C.C.C.C.C.C.C.C.C.N.N.C.N.a.N.i.a.i.i.i.i.i.t.T T T U U U U U U U U U U U U U U U U U U U K U K U U T i.M.M.M.M.` T K K K K K K K K K K K K K K K K K K K K K K K K K K K K K K K K K K K K K K K K K K K P P P P P P P P P P P K V C C C C C C V V V C B B B B B B B B c s c c c s j j B B B B B J K J J J J J J K K B V K ' ' ] ) K K K V B V / P K V V V V V C C C M M C Z P K ^ S.N.' ^ K K K K K K K K U U U U ^ ) ) ) ) ) ) ) ) ) ) _ _ ` ` ' p.p.p.p.p.a.a.a.` _ _ p.d.d.d.].[.[.[.[.].S.d.d.d.`.).).).).).).`.`.).).).).).`.).).).).).d.V.f.a.p.t.t.U U U U U I U U U U I I I J I I I I I t.s.i.t.s.U I I y.y.y.t.i.s.p.f.f.f.f.f.).].].S.S.d.d.p.p.U S.{.MX'.,.( m 5 3 * 3 < < 2 p p p 3 2 3 p f g g f f 3 3 f h R ! ! ] 2.2.! ! W ",
"5 5 5 w g 6 6 h w 5 6 ! R R w 5 5 5 5 5 5 5 5 5 5 5 5 5 5 5 5 w #.fXFXLXIXHXFXMX'.] R Q ! ! ! ! ! R h m h h 5 h m Q m m n 5 * * 3 m b 3 2 2 2 2 2 2 2 2 2 , , , , , , , > , , , , > 3 3 p 3 3 3 2 , , 1 1 , , 2 2 2 2 2 2 2 2 p p p p p p p p s B B B B B B V K K K K K K J J J J K K K K K K K J J K K K K K J K K K K K K J J K K K U U K K K K K K K K K K J S S J I I J J J K ) d.] _ B c J J j j j J F J J J J B B c B B B B B F B c J _ ).).).).).).).d.` U K ^ ^ ( K K L J J V P V K K P K ^ / ( / ( / / P K P P C C Z C C Z Z Z P P P P V P P P K K K K K K K K K K K K K P K K K K K K K K K K K J K K K K K J J J K T T T T T T T K K K K K K K K K K K K U U U U U U U U T U U U U U U T T ` T T T ` ` ` i.i.i.i.i.i.i.i.i.M.M.i.M.M.M.M.M.M.V.V.M.h.Y Y Y Y Y Y I Y Y Y Y I Y Y Y r.Y r.r.r.r.r.r.r.Y h.h.h.h.h.h.j.h.j.h.Y Y j.J.c.j.j.h.r.r.r.r.j.h.h.h.h.h.Y Y Y Y Y Y Y Y Y Y Y Y Y t.V.C.C.C.C.C.C.C.C.C.C.C.C.C.C.N.N.N.N.a.a.a.a.a.a.i.i.i.` T T T U U U U U U U U K U U U K K K U U U K K K K K U T T ` ` ` ` ` ` K K K K K K K K K K K K K K K K K K K K K K K K K K K K K K K K K K K K K K K K ^ ^ ^ ^ P P P P P P P K K P P K K C C C C C C V V V B B B B B B B s s s c c c c s j j j B B J J K K J J J J K J J V V K ^ ' ' ' K J J J B B V / / K V V V V V C C C M C C Z P K ^ S.S.' K K K K K K K K K U U ^ ) ) ) ) ) ) ) ) ) ) p._ ` ' p.p.p.p.p.p.p.p.a.a.p._ _ p.d.d.).].[.[.[.].`.S.d.d.d.`.].[.[.).).`.`.`.).).).).).`.`.).).).).).f.V.C.f.p.y.t.t.U U U U U U U U U I I I I I I I I I t.s.i.t.s.y.I I y.y.y.y.s.p.p.f.f.f.f.f.).].].d.d.d.d.p.p.U p.S.F.R 5 * * * , 2 p 3 2 2 p p p 3 3 3 p f f p p f f g h R ! 2.2.2.2.! E R 3 ",
"5 w b h 5 5 5 5 6 b v 0 0 3 3 n 5 5 3 5 5 5 5 5 5 5 5 5 5 5 5 3 3 Z F.MXJXFXFXUXdX,.Q r 2.3.3.3.2.! m h h h n b 5 w 3 3 3 5 3 5 m m m 5 2 2 2 2 2 2 2 2 3 3 3 , , , , , , , , 2 2 2 2 3 p 3 3 2 2 , , 2 2 2 2 2 2 2 2 2 2 2 p p p p p p p p p c B j B B c B V K ^ K K K K K U U U K K K K K K K K K K K K K K K K K K K K K J J K U K K U U U U K K K U K K K K J J ) U J s J J J J _ d.).) J c B J F F F F J J J J J c c c B B B c c B c c S ).].).).).).).a.` T P ^ ^ ^ K K K J J K P B J P P P P / / ^ P P P L V P L Z Z Z Z L L P P P P P Z V P P P K K K K K K K K K K K K K K K K K K K K K K K K K K K K K K K K K K K K U U U U T T U K K K K K K K K K J K K K K U U U U U U U K K K U T T U U ` ` T T T U T ` ` ` i.i.i.i.a.M.M.M.M.M.M.N.N.N.N.C.V.M.Y Y Y Y Y Y Y Y Y Y Y Y Y T t.t.Y Y r.r.r.Y r.r.Y h.h.h.h.h.r.j.j.h.h.Y Y j.b.b.j.j.j.r.r.r.r.r.r.r.r.r.r.r.r.r.r.r.r.Y Y r.r.r.Y T t.C.C.C.C.C.C.C.C.N.N.N.N.N.a.N.N.N.N.a.a.a.a.a.a.i.i.i.` ` ` T U U T T U U T T T U U U U U U U K K K U U K K U U T U T K K U U K K K K K K K K K K K K K K K K K K V K V K K K K K K K K K K K K K K K K K K K ^ ^ ^ ^ ^ V P P V V V Z L L V P P P L J C C C C C B B B B B B s s s s s c B B B c s s j B B B K K K K J J J K K j j S ^ ' d.' K J K K J B c B P / ^ K V V V Z Z C C C C C C P P K ) S.S.' K K K K K K U U ^ ^ ) ) ) ) ) ) ) ) ) _ _ _ _ _ ' _ p.p.p.p.p.p.p.p.' ) _ p.d.d.).[.[.[.[.[.].S.a.a.d.).[.[.[.[.].`.`.`.].[._.[.[.`.d.d.).).).[.).).f.C.H.s.s.t.t.t.U U U U U U U U U I I I I I I I I U t.s.t.t.s.y.y.y.y.t.y.i.p.p.p.f.f.f.f.f.f.f.f.d.d.d.p.p.i.I s u p % 2 p p p p 2 , 2 2 p 3 2 2 3 p z z p 2 2 3 g R ! ! 2.2.2.] ! R g 3 2 1 ",
"5 w w 0 3 3 3 w z z 5 3 g h 6 5 5 5 w 3 : 5 5 5 5 5 5 5 5 5 5 5 f 5 m Q '.fXMXfX4.! E 4.gXgXgX3.3.2.2.E R R R h 6 h h m Q W 6 6 R Q m 5 * 2 2 2 3 3 p 3 3 2 3 2 , , , , , , 3 3 2 2 2 p p p 2 2 2 , , 2 2 2 2 2 2 2 2 2 p p p p p p d j j j s s B j B B c B V ^ ^ K K K K K U U U K K K K K K K U K K U K K U U U U K K K K K U K U U U U U U U U U U U U U K K U U J I U U J J J K A K _ ).d.' c c J J F F F J J J J J B B B c B c c B c c c d.).[.).).).).' ) P / ^ K J J K U J K K V V B K P K V P P P V K L L V P P L L Z Z L L L L P L L P V V K K K K K K K K K K K K K K K K K K K K K K K K K K K K K K J J J J K K K K K K U U U U U K K J J J K K J J J J J J J J J J K K K J K K K K K U U U T T U U U U T ` ` i.i.i.i.i.i.i.i.i.i.M.M.M.N.N.N.N.N.N.Y I Y Y Y Y Y Y G G Y Y Y Y T Y Y Y r.r.r.r.r.h.j.h.h.h.h.h.h.h.h.h.h.h.h.j.j.b.j.j.r.h.h.h.h.r.r.r.r.r.r.r.r.r.Y Y Y Y Y Y Y Y Y T t.C.C.C.C.C.a.a.N.N.N.N.N.N.N.N.N.N.N.N.a.a.a.a.i.i.` ` ` T T U U T U U U U U U U U U U U U K K U U U U K K K U U U K K K K K / K K K K K K K K K K K K K K K K K K K K V V V V K K V V K K K K K K K K K K K K K K K V V V P P P P V P P P P P P P P C C C C B B B B B B B c p p s j B B c B B c j j B B B B K K J B J J J J j j K ) ' ' ' ^ V J J c j k K B B ^ ^ K K V V Z Z V V C C C V P P / ` ].S.' K K K K K U U ) ) ) ) ) ) ) ) ) ) p.p.p.p.p.p.p.p.p.p.p.p.a.p.a.p._ _ _ d.d.).[.[.[.[.].].`.S.S.S.).].[.[.[.).).).).[.[.[.).).).`.`.[.).).).).`.).).S.C.H.s.y.t.t.t.t.U U U U U U U U U I I I I I I I U t.s.s.t.s.t.y.y.t.t.y.s.p.p.p.f.f.f.f.f.f.d.d.a.p.i.U J J J J c z 1 2 d k V j p 2 2 2 l 1 3 f 3 3 2 2 3 f h W ] ] 2.] ! ( W h f 2 , , , 2 ",
"5 5 5 0 0 3 5 5 b f f 0 f g 6 5 3 3 5 5 4 5 5 5 3 5 5 5 5 5 5 5 f 5 5 n Q 4.'.`.! ! ! }.gXgX}.4.4.4.2.2.2.! W R 6 h 5 6 m n 5 5 Q Q m 5 * 2 3 3 p f f 3 3 3 2 2 2 , , , , , 2 2 2 , 2 2 p 2 2 2 2 1 1 2 1 1 2 2 2 2 2 p p p p p g g j B B B j s j j B B c B K ^ ^ K K K K K U U K K K K K K K K U K K U U U K U U U K K U K U U K U U U U U U U U U U U U U U U U U J J K U J J J J J J U a.d.d._ K B c c J J J J J J J B c c c c c F c c c c _ ).[.).).).)._ ) K / / P B B J K K K K V B V J L K V Z P K B L J L C P P P P P P P P L L P K K P V V V V K K K K K K K K K K K K K K K K K K K K K K K K K K J J J J J J J J K K K K K K K K K K J J J J J J J I I J J J J J J J J J J J J J J J I U U U T T T T T T T T t.t.i.i.i.` i.i.i.i.i.i.M.M.M.N.M.N.N.N.T I Y Y Y Y Y G Y G Y Y Y Y Y Y Y r.r.r.r.r.r.h.h.h.h.h.j.j.h.h.h.h.h.h.h.h.h.Z.k.k.h.h.h.h.r.r.r.r.h.h.h.r.r.r.Y Y Y Y Y Y Y Y Y Y h.C.a.C.C.C.C.a.N.C.C.C.C.a.N.N.N.N.N.N.a.a.i.i.i.` ` ` T T U U T U U U U U U U U U U U U U K U U U U U U U K U K K K K K K K K K K K K K K K K K K K K K K K K K K K K K K K K K K V V V V K K K K K K K K K K K K K K V K K K K V V V P P P P K P P V C B B B B B B B B B p p p s j B c c c j j j B B B J J K K J B K K B j V K ) ' ' ` K V V B J B B B K K K K K K K P Z Z Z V V V C V V K / ` ` ].d.` K K K K U U ) ) ) ) ) ) ) ) ) ) ) p.p.p.p.p.p.p.p.p.p.p.a.a.a.p._ p.d.d.).].[.[.[.[.].].f.d.d.).).[.[.).).).).].).).[.).).).].].[.[.[.[.).).`.`.).).I.C.H.H.s.t.t.t.t.U U U U U U U U I I I I I I I I U t.s.s.t.s.t.y.y.y.t.y.i.i.p.p.p.f.d.d.a.a.p.p.p.p.i.U J J B B c p 1 2 d h h g f 2 2 i 1 2 2 2 2 3 p g R W ! ] ! ! ! R R h f p p 2 2 2 2 2 ",
"5 3 5 5 b w 5 5 5 5 h z 3 5 h 5 3 : 5 6 4 5 5 5 3 5 5 5 5 5 5 5 5 b n w 6 R ! ! E E ] BXmX}.4.4.'.}.4.3.2.2.Q R R e 5 5 5 5 3 w @.Q h 5 * 2 3 3 f f f 3 3 3 2 2 3 2 , , , , 2 2 2 , , 2 3 2 2 2 2 1 1 2 1 1 2 2 2 2 2 p p p p g j j V K K B j s j j J B B B K ^ ^ K K K K K U U K K K K K K K K U U U U U K U U U U U U U U U U U U U U U U U U U U U U U U U U I I K S J J I I I J K J F J _ d.).^ B a s K J J F F J J J c c c c c F c c c x ) d.[.).).).).' ^ K / / P B c B K K K K V B B K L J V V P J J L L L C P P P P P P P P P L L K K K P K V V K K K K K K K K K K K K K K K K K K K K K K K J K J J J J J J J J J J K K K K K J J U K J J J I J J I I I I I I J J J J J J J J I I I I I I I T T T T T T T T T T T T T T T i.i.i.i.i.i.M.M.M.N.V.N.N.N.T Y Y Y G Y G G Y Y Y Y Y Y Y Y Y r.j.h.r.r.r.j.k.h.j.k.J.J.J.Z.Z.Z.Z.Z.D.Z.h.J.J.Z.k.h.j.h.r.r.r.h.h.h.h.r.r.r.r.Y Y Y Y Y Y Y Y r.h.K.a.C.C.C.C.N.C.C.i.a.a.a.i.M.a.a.a.a.a.i.i.i.i.` ` ` T T T U U T U U U T U U U U U U U U U U U U U U U U U K K K K K K K K K K ^ K K K K K K K K K K K K K K K K K K K K K K K K K K K K K K K K K K K K K K K K K K K K K K K V V V K K K P K P P V B B B B B B B B c B s p p j B B c s s j B B B B B J J K K J B K K B j K ` a.a._ K c B B B k K J B B K K K K K P P P P P Z Z Z C V V K ` ` a.I.d.` U K K K U ) ) ) ) ) ) ) ) ) ) _ _ p.p.p.p.p.p.p.p.p.p.p.a.a.a.p.p.p.d.).].[.OXOX[.].].d.d.d.).[.[.[.[.`.d.d.`.[.[.[.[.).).[.[.[.[._._._.`.`.d.`.).].`.f.H.C.s.t.t.t.t.U U U U U U U U I I I I I I I I U t.s.t.t.s.t.y.y.t.y.t.i.i.p.p.p.p.p.p.p.p.p.p.p.i.U T T K j s p p , 3 g h h h d 2 i i p 2 2 1 2 f h R ! ] 2.2.! E m g p 2 , 2 i p p p p 2 ",
"! R h 5 3 3 0 b 5 5 b 5 3 3 3 5 5 5 5 4 3 : 3 3 : : 3 3 3 : 3 3 3 3 5 w n m R Q ! E E ! ! 2.'.FXLXIXGXdX4.2.! W m m R m h 4 w e ( g 3 3 2 2 2 2 2 2 3 3 2 2 p p 3 2 2 , , , 2 2 3 3 2 2 2 2 2 2 2 1 , , 2 2 2 p p p p p p p u p p p j K ^ ) K j s c p j B J B J K ) U K K K U U U U I U U U U U U U U U U U U U U U U U U U U U U U U U U U U U U U U U U U U U U U U U U U K J I J J K K s F K a.).d.) J x D F c s s B c B J J J c c B B s c J i.).).).).)._ U J J V V J c c c B B J J K K P V B B B J J J J B B K K K K P V Z Z L L L J C C K V K K K J J J J K K K J J J J J K K J J J J K K J J J J J J J J J J J J J J J J J J J J J J J K K K K J J J I J J I I I I I I I I I I I J J J J K K U U U U U U U U U T T T T T T T t.i.i.i.i.i.i.M.M.M.M.i.M.V.t.Y I Y G Y G Y Y Y Y Y t.t.h.V.G.k.k.j.r.D.2X2XZ.G.J.U.z.U.Y.U.J.J.U.U.Z.D.K.U.T.2XsXo.t.k.k.r.r.h.j.r.r.r.r.r.r.r.Y Y Y r.r.Y Y t.M.C.C.C.a.C.V.M.M.M.i.i.i.i.i.i.i.i.i.i.i.i.` ` ` T T U U U U U U U U U U U K K K K K K K K K K U U K K K K K K K K K K K K K K K K K K K K K K K K K K K K K K K K K K K K K K K K K K K K K K K K V V V V V V K K K K K K K K V V K K P P K K K K P V V B B B B B B c p s z p s s s s s c j j c c B J J J J J K K J J B J K d.d.] K B B J J J J J J J J J J K K K P P P P P P V B B K ` ` ` ` ^ ) S.N.' ^ K K K U ) ) ) ) ) ) _ ) i.p.p.p.p.p.p.p.p.a.a.a.p.p.d.d.p.p.p.d.].].[.[.$X[.[.S.C.S.`.[.[.[.).).).).].].[.[._.[.).).).[.[. X X X).`.`.`.).).).).).S.V.H.C.s.y.t.t.y.t.U U U U U U I I I U I I I I I U t.s.s.s.s.t.y.y.y.y.y.y.i.t.t.i.i.i.i.i.` T U U U I I J J B c s i 1 p g R k h p 1 2 2 2 1 2 d ( ] ] ] ] ( R f i i p p 2 2 p 2 2 2 2 2 2 2 ",
"! ! ! R R h g 5 3 3 5 5 5 3 p 3 3 3 3 5 3 3 5 3 5 : : 3 : : 3 3 3 3 3 5 n m m Q ! ! ! Q Q ! 4.dXMXHXxX'.,.! E r 6 Q 6 e m w 5 w Q f 5 3 2 2 2 2 2 2 3 3 2 2 p p 3 2 2 , , , 2 2 3 p 3 2 2 2 2 2 2 2 , , 2 2 p p p p p p p p p p p p j K ^ ^ K J j B j B V B J K K K K U K U U U U U U U U U U U U U U U U U U U U U U U U U U U U U U U U U U U U U U U U U U U U U U U U U U J I J J J J J F F J _ d.d._ F c x J S S s F F c c J J c B c s c J i.).).).).)._ K J K P P K c c c c B B B J K K V V C B J J J C V J K K K P P Z Z P L L L C C J C V K K K J J J J K K K K J J J J K K K K K K K K K J K J K K K K K K K J J J J J J J J J J J J J K K K J J J J I I I J J J J J J J J I I I J J J J J J I I I I U U U U U U U T T T T T t.t.t.t.i.i.i.i.M.M.i.M.V.t.Y I Y Y Y Y Y Y Y r.t.h.h.k.V.k.t.r.e.r.U.2XT.M.J.b.k.h.J.K.J.k.b.J.b.V.Z.Z.K.U.T.xXZ.h.r.k.j.j.j.k.k.j.j.j.j.r.r.r.r.r.Y Y Y Y t.M.C.C.a.a.M.M.M.i.i.i.i.i.i.i.i.i.i.i.i.` ` ` ` T T T T U U K K K K K K K K J J J J K K K K K K K K K K K K K K K K K K K K K K K K K K K K K K K K K K K K K K K K K K K K K K K K K K K K K K K K V V V V V V K K K K K K V V V V K V P P P P P P P V V B B B B B j p z s c s s c s s c c c s B B J J J J J J J J J j K ) a.' ) K V K J B B J J J J J J K K K K K K K P V V P P P P P ` ` ` ` ^ ) S.N.' ^ K K K U ) ) ) ) ) _ p.i.p.p.p.p.p.p.p.p.p.p.p.p.a.p.p.p.p.d.).).[.[. X[.[.].`.`.).].[.[.].`.).).).).[.[.[.).[.].].[.[. X X_.[.[.`.`.`.).[.].].).].I.C.H.f.p.y.t.t.t.t.t.U U U U U U I I U I I I I I U t.s.s.s.s.y.y.y.y.y.y.y.t.t.t.t.t.i.i.U U U U U I I J J J c c s i 1 p g R k h p 1 2 2 3 1 f R ] ~ ~ W W k h p p p p p 2 2 p 2 2 2 2 2 2 2 ",
"E ! ! E E R R h 5 5 5 5 5 5 p 3 3 3 3 3 3 3 5 5 4 : : : : : 3 3 3 : 3 3 w n m R Q ! ! Q Q ! ! 4.}.fX'.] ( ( ! ! Q ,.&.( Q 5 5 n Q f 5 3 2 2 2 2 2 2 2 3 2 3 p p p 2 2 2 2 2 2 2 2 p p 3 2 2 2 2 2 1 1 , 2 2 p p p p p p p i p p i p j j K ^ K K J s K K K j J K K S K U ) U U U U U U U U U U U U U U U U U U U U U U U U U U U U U U U U U U U U U U U U U U U U U U U U U U I I I J J J I J F x K ' d.d.K S c J J J J F F c c J J c B c s c J i.).).).).)._ K J K K K K c c s c c B B J J K B V C C J B J V V K K P P P P P Z P L L L C C C C V K K K K J J J K K K K J J J J K J J K K K K K K K K K K J K K K K K J J K J J J J J J J J J J J J J J J J J I I J J J J J J J J J I I J J J J I J I J J J J I I U U U U U T T T T T T T T t.t.t.i.i.M.i.i.s.V.t.Y Y Y Y Y Y Y Y Y r.k.V.V.V.V.k.r.Y G r.T.2XT.h.J.J.k.h.Z.J.J.b.J.J.J.Z.Z.Z.Z.J.T.xXF.M.r.c.k.k.k.J.b.b.k.k.k.r.r.j.h.r.Y Y Y r.t.M.C.C.i.i.s.i.i.i.i.i.i.t.i.i.i.i.` ` ` ` ` T T U U U U U K J J J J J J J J J J J J J J J J J J J K K K K K K K K K K K K K K K K K K K K K K K K K K K K K K K K K K K K K K K K K J J J K J J K K K K K K V K K K K K K K V V V V V V V K V P P P K V V B B B B B j p z z c s s s s s s s c c j V B J J J K J J B j k _ ' S.` K B B K K J J J J J J J K K K K K K K K V V V K K P P P ` ` P / ^ ` S.N.' ^ K K K U ) ) ) _ _ p.p.p.p.p.p.p.p.p.a.p.p.p.p.p.a.p.p.p.d.).[.[.[. X[.[.].).).).).).[.`.`.`.).).).).[.).[.[.`.`.].[. X X X[.).`.`.[.[.).[.].I.].I.I.H.I.f.p.t.t.y.t.t.t.t.U U U U U U U U I I I I I U t.s.s.t.s.y.y.y.y.y.y.y.t.t.t.t.t.t.U U U U U J I J J J J c s p i 1 p g R R h p 1 2 2 2 1 g ~ ] ~ k p f d 5 2 p p p 2 2 2 2 2 2 2 2 2 2 2 ",
"R E E E 2.! ! E R h 3 3 3 5 g f 5 5 3 3 3 3 5 5 4 4 4 3 3 : 3 3 w 3 3 3 b 5 5 5 R R Q ! 2.2.! r E E E ! ] ] dXdXdXMXFXdX@.* m W r g 5 5 2 2 2 2 2 2 2 2 2 3 f p p 2 2 2 2 2 2 2 3 p p p 3 2 2 , 2 1 2 1 2 p p p p p p p i i p p p p p j j K K K J s / ` ^ j K K ^ S S K ) ) ) U U U U U U U U U U U U U U U U U U U U U U U U U U U U U U U U U U U U U U U U U U U U U U U U U I I J J F F J I J F F J ` ).d.) J F D J J J c c F F c F c c c F ) d.).).).d.) K J J K K J c c s s c c c B J J J K K K B B B V K K K K P K P P L P L L L L C C C C J K K J J J J K K K J J J J J J J J J K K K K J J J J J J K J K K K J J K K J J J J J J J J J J J J J J J I I J J J J J J J J J J J J J J J I J J I I I I I I I I I I I I I I U U U U U T T T t.t.t.t.i.i.i.M.t.Y Y Y Y Y Y Y Y Y k.Y.Y.U.K.K.J.G.k.h.j.2XU.Z.k.U.U.U.U.U.T.T.U.U.U.T.T.D.Z.Z.K.T.sX2XK.t.k.b.J.U.U.Y.Y.U.U.J.j.Y h.h.r.G Y Y r.t.M.M.s.i.i.i.i.t.t.t.t.t.t.T T T T T T T U U T U U K K J J J J J J J J J J J J J J J J J J J J J I I J J J J K K K J J K K K K K K K K K K K K K K K K K J J B B B B V B V K V K K K J J J J J J K K K K K K K K K K K K K K V V V V V V V V V V V V K V B B B B B B p p z c z c s s s s c c c c B k k j B K K B c c S a.d.d._ K J J J V j B J J J J K K K K K K K K K K K K K K P ` ` / P P K P ^ ` S.a.` ^ K K U ) ) ) _ _ p.p.p.p.p.p.p.p.d.d.d.d.a.a.d.a.p.d.d.).[.[.[.OX$X[.).).).].[.[.[.].`.].).).].].[.[._.).].S.S.]. X X[.).).`.`.].[.[.[.].`.].].].].I.H.I.f.p.y.t.t.t.y.t.t.U t.t.U U U U U U I I I I U t.s.s.t.s.y.y.y.y.y.y.t.U y.U U U U U U U I I J J J J J F c s p i 1 p g R R h p 1 2 2 2 1 g R ] W g 1 1 > , 2 p p p 2 2 2 2 2 2 2 2 2 , , ",
"2 3 g h R ! ! ! 2.! ! R R h 5 3 3 5 5 5 3 3 3 3 3 3 3 3 : : : : , 3 3 3 0 3 5 g m m h E 2.4.4.! ! E 2.2.2.2.aXMXGXGXLXxX=.5 5 m ! h f 5 3 3 3 2 2 2 2 2 2 p f f p 2 3 p p p 2 p p p p 3 3 2 2 , 2 1 1 1 , 2 2 p p p p p p i i i p p u p p s j B B s K ' a.` ^ ) d.' ^ S K U U U U U ) ) U U U U U U U U U U U U U U U U U U U U U U U U U U U U U U U U U U U U U U U U U U U U I I I J J J J J J J F F J ) d.d.U J F F F F J J c c s F c c x c K d.).).).d.^ J J J J J B c c c s s s c B B J J J K K B B B B J K K P P P P K V K L L L C C C C C J J J J J J J J J J J J J J J J J J J J J J J J J J J J J J J J J J J J J J J J J J J J J J J J J J J J J J J J J J J J J J J J J J J J J J J J J I I I I I I I I I I I I I I I I I I Y Y Y T T t.t.t.t.t.t.M.t.Y Y Y Y Y Y Y G Y h.J.Z.h.h.h.h.h.r.k.K.(.J.k.c.k.k.k.Z.D.U.J.J.J.U.T.T.T.K.K.H.V.B.2XT.G.r.r.j.j.j.j.r.b.U.J.j.G Y r.r.Y Y h.r.t.t.i.i.t.t.t.t.T T T t.T T T T T T U U U U U U J J J J I I J J J J J J J J J J J J J J J J J J J J J J J J J K K J J J J K K K K K K K K K K J J K K K J B B B B V V V K K J K K K J K K V K B B B B J K K K K J J J K K K V B B V B V B V B B K K K K V B B B B j s s z z z s s s s s B c c B B c B B K k j j B K ) a.S.' ^ j J J J J J J J J J J K K K K K K K K K K K K K / ` ` ` U / K K K ^ ^ ) N.' ` ^ K K ) ) _ _ p.p.p.p.p.p.p.p.p.a.p.p.p.p.p.p.p.d.).).[.[.$X$X$X[.S.S.I.].[.[.).).].].[.].[.).[.[.[.].S.S.S.].[. X X[.[.].].[.[.[.[.].`.].].[.[.[.[.].H.H.C.s.i.i.t.t.t.t.t.t.t.U U U I I U I I U I I U t.s.s.y.s.y.y.y.y.y.y.y.y.U U U I I U I I I J J J J F F c c s i i 1 p g R R h p 1 2 2 2 1 f R ( R g 1 p p p i i i 2 2 2 2 2 2 2 2 2 2 2 2 ",
"1 2 3 3 g h W E ! ! ! ! ! R R h g 5 5 3 3 3 3 3 3 3 3 3 : : : 3 3 3 3 3 3 3 3 b n n h R ! 2.2.! ! ! ! 2.2.2.1.dXfXGXFXdX} f / ,.! h h g 5 3 3 2 2 2 2 2 2 p g f p 2 3 p p p 3 p p p 3 p p 3 2 2 , 2 1 1 2 2 2 p p p p p p p i i i p p p p p s s s s V ) ' ' ) _ d.d.d.) K U U U ) ` ` ` U U U U U U U U U U U U U U U U U U U U U U U U U U U U U U U U U U U U U U U U U U U U U U I I I J J J J J J J J J U ' a.) U F F J J J J J s F c c c c J d.).).`.d.K J c B B B c s s s s s c c c B B J J J J B B B B J J K K K P P K J J J L L C C C C J J J J J J J J J J J J J J J J J J J J J J J J J J J J J J J J J J J J J J J J J J J J J J J J J J J J J J J J J J J J J J J J J J J J J J J J J I J I I I I J I I I I I I I I I I I I I I Y Y Y T T t.t.t.t.t.t.Y Y Y Y Y Y Y Y Y h.k.h.Y Y r.r.r.Y h.J.U.V.k.b.c.b.b.K.T.T.U.J.J.K.T.T.T.K.K.H.V.-.T.K.J.h.r.r.r.j.j.e.j.k.k.j.Y Y r.r.r.r.Y r.t.t.t.t.t.t.T T T T T T T T T T T U U U U I I I I I I I I I I I J J J J J J J I I I I J J J J J J J J J I I J J J J J J J K K J J J J K K J J J J J J J J B B B B B J K K J J K B B B B B B B B B B B B B B B B B B B B B B B B B B B B B B B B B V V V B B B B B s s s s z c s s s s B B c c B B c c B K B j j K ' ' d.` K K J J K K J J J J J J K K K K K U K K ^ K K K K ` ` ` ` U U ^ K K K ` ) ) a.' _ ) K ) ) ) _ p.p.p.p.p.p.p.p.p.p.a.p.a.p.p.d.d.).).).[.$X$X$X[.[.].).].].].).).).).[.[.[.[.[.[.).).`.S.].].[.[.[.[.[.[.[.[.[.[.[.[.[.].].].[.[.[. X[.].H.H.C.s.s.i.t.t.t.t.t.t.U t.t.U I U U I U U I I U t.s.s.y.y.y.y.y.I r.r.r.I U U I I I I I I J J J J F F c s s p i i 1 p g R R h p 1 2 2 2 1 p k ( R g 2 2 p p i 1 1 2 2 2 2 2 2 2 2 2 2 2 2 ",
"1 < < < 1 2 5 h W E E ! ! ! ! R R h 5 3 3 2 3 3 < 3 3 3 3 * 3 3 b 0 3 3 3 3 3 b b b g h h R E ! ( ( ] 2.2.2.! 4.}.gXfXF.C g F.aX,.R h h f 5 2 2 3 3 3 2 2 p g p p 2 p p p p 3 p f p 3 p p p 2 2 , 2 1 1 2 2 p p p p p p p p i i p s p p p p s s s s j K ' ' _ ' `.].d.d.) ) ) ) ) ` ` i.U U i.) ) ) ) ) ) U U U ) ) U U U U U U U U U U U U U U U U U U U U U U U U U U U U U U U U U I I K S J J I J J J D F J d.d._ J I J J F J J s F F F c c J a.d.d.d.) J J c B B B c s s c c c c c c c B B B B J B B B B B B B J K K K J J J L L L C L L J J J J J J J J J J J J J J J J J J J J J J J J J J J J J J J J J J J J J J J J I I J J J J J J J J J J J J J J J J J I I J J J J J J I I J J J J I I I I I I I I I I I I I I I I I I I I I I I Y Y Y Y Y T T t.t.t.T Y Y Y Y Y Y r.r.r.j.Y G Y r.Y r.Y h.V.k.k.k.J.J.J.J.T.2X2XY.Z.h.Z.2X2XT.F.K.K.K.M.Z.Z.J.k.r.r.e.j.j.r.G r.j.j.r.r.Y r.h.r.Y r.t.t.t.t.t.t.t.t.T T T T T T T Y Y Y I I I I I I I I I I I I I I I J J J J J I J J J J I J J J J J I I J J I J J J J J J J J K J J J J J J J J J J J J J J J J J J J J J J J J K B J J B B B B J B B B B B B B j j j j j j j j B B B B B B B B B B B B B B B B B s s s s s c c s c c c B B B B B J c c B J B j j ^ d.d.' K J J L J J k K J J J K K K K K K U U U U U K K K ` ` ` ` ` U U ^ K K U ) ) ) ' ' ) ) K ) ) ` _ p.p.p.p.p.p.d.p.p.a.a.a.p.p.d.d.).[.[.[.[.$X$X[.].`.).[.[.[.).).).[.[.[.[.[. X[.].`.d.f.I.[. X$X X[.).].[.[.[. X[.[.[.].].[.[. X X[. X[.].H.I.f.f.s.s.i.i.t.t.t.t.U t.t.U U U U I I I I I U t.s.s.y.y.y.y.r.I I I r.I I I I I I I I I J J J J F F c s s p i i 1 p g W R k p 1 1 2 2 1 p V ( W h 2 u p p i 1 1 2 2 2 2 2 , , , 2 2 2 2 ",
"3 3 < 2 1 , , , 3 3 5 R ! ! 2.2.2.! Q m h 5 3 < < 9 3 3 3 3 w N =.Z b 3 0 0 2 3 3 3 f f g m Q Q R ! |.|.}.2.2.2.2.2.] ( B / sXxX] m h h f d 2 2 3 3 p p p p f p 2 2 p p p p 3 p f p 2 p p p 3 2 2 2 2 2 2 p p p p p p p p p i p p s s s s s s s s s p j k K ) ' d.`.].].S.d.p.) U U U ) ) U i.i.) ) ) ) ) ) ) ) i.i.) U U U U U U U U U U U U U U U U U U U U U U U U U U U U U U U U U I J J I U I F F F U J J F ) d.).U J J U F F J F F F F F I ' ' ' ) K s c c B B B c c s s c c c c c c c c B B B B B B B J B B J J J J L J J L L L L B J J J J J J J J J J J J J J J J J J J J J J J J J J J J J J J J J J J J J J J J J I J I I I I J J J J J J J J J J J J J I I I I I I I I I I J I I I I I I I I I I I I I I I I I I I I I I I I I I I Y Y Y Y Y T t.t.t.t.Y Y Y Y r.r.Y Y G Y Y Y r.r.r.r.h.j.h.h.k.J.U.U.U.T.T.T.T.U.J.J.J.Y.K.K.K.T.T.T.T.Z.Z.V.h.j.r.e.r.r.r.j.r.r.r.j.r.r.Y r.Y G r.t.t.t.t.t.t.t.t.t.t.T T T T Y Y Y Y Y I I I I I J I I J J I I I I I I I I I I J J J J I J J J I J J J J J J J J J J J J J J J J J J J J J J J J J J J J J J J J J J J J J J J J B J J J J B B J J B B B B J J B B B B B B J B B B B B B B B B B B B B B B B B B s s s s s c c c c c c B B B B c c J B c s B ^ ' d.d.` B J J J J J J K K K K K K K K K U U U U U U K U ) ` ` ) K K U ) ) ) K K ` ` ) ) ' ) ) ) K ) ) ' p.p.p.p.p.p.p.d.p.p.p.p.p.a.d.).[.[.$X$X$X[.].S.d.].[.[..X).).).[.[.[.$X$X$X[.).d.f.].[. X$X X X[.[.[. X X[.[.[.[.].].].[. X%XXX_. X[..X[.].I.I.H.s.s.s.i.i.t.t.t.t.t.t.t.U U I U I I U U I t.t.s.s.y.y.y.y.r.I I I I I I I I I I I I J J J J F F A s s s p i i 1 p g W R k f 1 1 2 2 1 f R _ R g 1 2 p p i 1 1 2 2 2 2 2 , , , 2 2 2 2 ",
"; ; < 3 3 3 3 : 2 3 3 5 6 h R E ! ! ! ! ! R 5 3 ; < 3 : 3 f C Z %.C z 3 3 0 z 3 3 3 b g h 6 w e Q 2._.|.|.|.|._.2.2.] W j V A.A.W h h h g f 3 3 p p p p 2 p p 2 2 2 3 p 3 3 2 p p 2 2 p p p p 2 2 2 2 2 p p p p p p p p p p p p p j j s s s s j j j j j j s K ) _ d.d.].].].d.d.p.p.i.) ) ) i.i.i.i.i.) ) ) i.i.i.i.U U U U t.t.U U U U t.t.U U U U U U U U U U U U U U U T T T U U U U U I G F F J J U U I J F I J U _ d.p.U D J J J F F F J F J T ) K J J s c F B B B c c s s c c c c c c c c c B J B B B B J B J L L L L J L L L L L L J J J J J J J J J J J J J J J J J J J J J J J J J J J J J J J J J J J J J J J J J J J J J J J J J F F F J J J I I I I I I I I I I I I I I I I I I I I I I I I I I I I I I I I I I I I I I I I I I I Y Y Y Y Y Y t.t.t.t.r.r.Y Y r.r.r.Y Y Y r.r.r.r.r.r.r.r.h.h.J.K.Y.T.D.Y.T.T.T.T.U.J.J.U.T.T.T.T.T.sX2XT.K.J.k.r.j.j.j.r.r.r.j.r.r.r.h.r.r.Y h.h.Y t.t.t.t.t.t.t.t.t.t.t.t.Y Y Y Y Y Y Y Y I I I I I I I I I I I I I I I I I I I I J J J J J J J J J J J J J J K J J J J J J J J J J J J J J J J J J J J J J J J J J J J J J J J J J J J J K J J J K K J J B B J J J J B B B B J J B B B B B B B B B B B B B B j j B B B c s s s s s c c B B B B B c c J j j j K ' a.' ^ K J K J J J K J J J K K K K K K K U U U U U U U U U U K K K K K ) ) ) ^ K ` ) ) ) ' ` ) ) K ) ) p.p.p.p.p.p.p.p.d.d.p.p.d.d.).].[.[.$X[.[.].f.).).[.[.[.).f.).].[.[.$X$X[.[.).).`.].[.[. X$X[.[.[.[. X X X X[.[.[.[.[.[. X X XXX_._. X X_..X).I.I.H.s.s.s.i.i.t.t.t.t.t.t.t.t.U U U U U U U I t.t.s.s.y.y.y.I I I I I I I I I I I I J J J J F F F F c s s s p i i 1 p g W W k p 1 1 1 , 1 f R ( k g 1 i p p 2 2 2 2 2 2 2 2 2 2 2 2 2 2 , ",
": : : 3 3 : : : 3 3 w 5 5 5 5 m R R E ! ! E h 5 : < < : * b Z %.%.M 3 , < 2 z 3 3 3 5 g g g w w m ! 2.2._.|.|.|.}.2.] V p g K / W h h h g f d p p p p 3 2 p p 2 2 2 2 3 3 2 2 p p 2 2 p p p p 2 2 p p p p p p p p p j j j p p p j j j s c c B j B J K B j p B K ^ _ d.S.].].].`.f.d.p.i.i.) i.i.i.i.i.i.i.i.i.i.i.i.i.U ) ) i.i.U U U t.t.t.t.t.U U U U U U U U U U U U T T U U U U U U U U I I J J I U I J J F I F F U a.a.i.I I J J F F F J F J T U J c J c c F B B B F c c s s c c c c c c c F J J J J B c F J J J L L L J L L L L L L J J J J J J J J J J J J J F F J J J J J J F J J J J J J J J J F J J J J J J F J J J J I I J J J J F F J J I I I I I I I I I I I I I I I I I I I I I I I I I I I I I I I I I I I I I I I I I Y I I Y Y Y Y Y Y Y t.t.t.t.r.r.Y Y r.r.r.Y r.r.r.r.r.r.r.j.r.r.j.h.P.Y.Y.T.D.T.T.T.T.K.U.J.J.U.T.T.T.sXsXsX2XT.K.Z.h.j.j.j.j.r.r.r.j.j.r.r.h.r.r.r.h.h.r.h.t.t.t.t.t.t.t.t.y.t.t.Y Y Y Y Y Y Y Y I I I I I I I I I I I I I I I I I I I I J I J J I J J J J J K K K K K J J J J J J J J J J J J J J J J J J J J J J J J J J J J J J J J J J J J J J J J J K K J J B B B B J J J J B B J B B B B B J J J J B B B B B j j B B B B c s s s s s s c B B B B B c c j j K ^ ' ' ' / K J J J J J K K K J K U U K K K K U U U U U U U U U U U K K K K K ) ` ) ^ ) ` ) ) ) ' ' ) ) ^ ) ` p.p.p.p.p.p.p.d.d.p.d.d.).).[.[.[.[.[.[.].).).).[.[.[.).).f.].[.[.OX[.[.[.).`.].].[. X X X[.[.[.[.[. X X X[.[.[.[.[. X X$X$XXX_.XX_._. X_..X[.I.I.H.s.s.s.s.i.t.t.t.t.t.t.t.t.U U U U I U I I t.t.s.s.y.y.y.I I I I I I I I I I I I J J J J F F F F c s s a p i i 1 p g W W k p 1 , , , 1 f k ( k g 1 i p 2 2 2 2 2 2 2 2 2 2 2 2 2 2 , , ",
"3 3 3 3 ; ; ; ; 0 w m 5 5 3 0 0 5 5 R R ! 2.R 6 3 < < 3 * b Z %.Z b 3 , 2 2 p z p 3 2 p f g V p p f R 2.2.2.4.4.}.2.( V z p j S ~ h d g g f f p f f f 3 3 3 3 2 , 2 2 2 2 2 2 p p 2 p p f p p 2 2 p p p p p p p p p j j j j c g g j j s c c B B K K K K J a s j K ~ _ a.).].[.[.].].f.p.) ) ) i.i.i.i.i.i.i.i.i.i.i.i.i.` ) ` i.i.i.` ` t.T t.t.t.t.t.t.U U U U U U U U U U U U U U U U U U U U U I I J J J I I J J F F Y t.N.a.U J J c F F J F J T L F c J F F F B B c F F c s s s c c c c F F F J J J J F c F J J J J J L L L J L L L L L J L J J J J F F F J J J J J F J F F F F F F J J J F F F F F F F J J J J J F J J J J I I I I J J G I I I I I I I I I I I I I I I I I I I I I I I I I I I I I I I I I I I I I I I I I I Y Y Y Y Y Y Y Y Y Y Y r.t.t.t.t.r.r.Y Y Y r.r.r.r.r.r.r.r.r.j.j.r.r.j.b.Y.Y.K.D.F.T.T.T.K.K.U.J.J.U.U.T.sXkXsXT.F.K.V.k.h.k.j.r.r.r.r.r.e.j.j.j.r.r.r.r.r.r.Y h.t.t.t.t.t.h.t.t.t.t.t.r.Y Y Y Y Y Y Y I I I I I I I I I I I I I J J J J J J J I I I I I J J J K K K K U I U J J J J J J J J K J J J J J J J J J J J J J J J J J J J J J J K J J K J J J J K J K J J J j j B j K K K J B B B B B J B B B B B B B B B B B j j B B B B B c c c c s s c c B B B B J J s j ^ d.S.' K s B B J J J K K K K K U U K U U U U U U U U U U U U U K K K K K K ^ ^ ` ) ) ) ` ) ) ) ' ' ) ) ^ ) ` p.p.p.p.p.d.d.d.p.a.d.).).[.$X$X$X[.).).].)._. X[.[.).d.).[.[. X$X X[.).S.I.].[.[.$X$X[.[.[.[.$X$X$X X X[.[.[.[.[. X$X%X%XXX_._.$X$X X X_.OX].I.I.H.s.s.s.s.i.i.t.t.t.t.t.t.t.U U U U U U I I t.t.s.s.y.y.y.I I I I I I I I I I I I J J J J F F F F s a s a i i i 1 p g W W k f 1 , , , 1 p V ( V g 1 2 2 , , 2 2 2 2 2 2 2 2 2 2 , , , % ",
": 3 3 3 3 : : : 5 6 R Q Q Q Q Q R R 6 5 5 h 5 3 3 3 , , 3 Z Z Z C b 3 < < < < 2 p p p p f f g g g g f f b n E E ! ( V n p p g V k p p p h g g p d d g p p f p p 2 2 2 2 2 p 2 p p p p p p p p 2 p p p p p p u > i p p p j B B g j j B j s s c c s s _ ' ' K J J S a.d.d.) a.d.`.[.[.[.[.`.d.p.) ) i.i.i.i.p.p.p.i.t.t.i.i.i.i.i.i.i.i.i.i.i.i.i.i.i.t.t.t.t.t.t.U t.t.t.t.t.T U U U U U U U U U U I I I I I J J J F F F F J I T a.i.J s F F J A c J T K J J J J J J F c c c c c F F F F F F F F F F F J F F J J J J J J J L L L P P P P L L J L L J J J J J J J J F J J J J F J J J J J J J J J J J J J J J J J J I I I I I I I I I I I I I I I I I I I I I I I I I I I I I I I I I I I I I I I I I I I I I I I I I I I I I I I I I Y Y Y Y Y Y Y T Y Y t.t.t.t.t.t.r.Y Y r.r.r.r.r.r.r.r.r.r.j.j.j.j.k.V.Y.T.T.T.T.T.T.T.T.T.U.J.Z.U.T.8XT.T.D.D.D.Z.K.K.K.J.k.j.r.r.r.j.r.j.g.g.j.j.r.r.r.r.r.t.t.t.t.t.t.t.t.t.t.t.r.Y Y Y Y Y T Y Y Y Y I I I I I I I I I I I I I I I I I I I I I I I U I I J J K K K J J J J J J J J J J J J J J J J J J J J J J J J J J J J J J J J J K K K J J J J J J J J J J J K K K K K K K J J J J B J J B B J J J B B B B B B B B B B j j j B B j p c c c j j j c F j j K ' N.N.K B j J L J J J J K K K K U ) ) ) U U U U U U U U U U U U U U U ) U ) U ^ ^ / ) _ _ ) ) ` ' _ _ _ i.) ` p.a.p.d.d.d.p.p.p.).).[.$X$X$X$X[.].f.f.[. X X.X[.).].].[.[. X X[.].].].].[.[. X X$X$XOX[.[. X X X X[.[.[.[.[. X X%X%X%X$X$X$X%X%X%X_. X|.fXMXlXK.!.H.f.s.s.s.i.i.t.t.t.t.t.y.t.t.t.t.I U U t.U U t.s.s.y.y.r.I I I I I I I I I I I I J F F F F F c c c s a p p i i 1 p g W W k p 1 1 1 , 1 p k ( V g 1 2 2 2 1 1 1 1 2 2 2 2 , & & & = $ # ",
": : 3 3 3 3 : : 4 5 R R Q Q Q Q R R R e w 6 5 3 < < , 3 3 Z Z Z C b 3 , < 2 < < p p p 3 p f f g g g f f g b R R R k g f p p g k R p p p g g g f d f d p d d d p p p 2 2 2 p 2 p p p 2 2 2 2 2 2 p p p p p p p i p p p p j j j j B V K B j j c c c s ) ' ] ) U K ^ _ d.d.d.d.d.d.`.].[.[.].].S.d.p.` U i.p.p.p.i.i.i.i.i.i.i.i.i.i.i.i.i.i.i.t.t.t.t.U U U U U U U U U U U U U U U U U U U U U U U I I I I I I J J F F F F J I U i.i.T J F F F F F J T J J J J J J J J F c c c c c c c c c c c F F F F J J J J J J J J J J L L L P P L L L L L J L J J J J J J J J J F J F F F J J J J J J J J J F F J J J J J J J I I I I I I I I I I I I I I I I I I I I I I I I I I I I I I I I I I I I I I I I I I I I I I I I I I I I I I Y Y I Y Y Y Y Y Y Y Y r.T t.t.t.t.t.t.t.Y r.r.r.r.r.r.r.r.r.r.j.j.j.j.j.k.Z.K.U.Y.T.T.T.T.T.T.T.U.J.J.K.Y.T.T.T.K.K.K.F.K.K.K.Z.j.r.r.r.r.j.r.j.j.j.j.j.r.r.r.r.r.h.h.h.t.t.t.t.t.t.t.t.t.t.t.Y Y Y Y Y Y Y Y I I I I I I I I I Y I I I I I I I I I J J J I J J J I I U U K J K J J J J J J J J J J J J J I I I I I I J J J J J J J J J J J J J J J J J J J J J J J J J J B B B B B B B B J J J B J J J B B B B J J J B B B B B j B B j B j s s B c c c B B J J c j S ` a.' ` K K J J J J J J K K K K K U U U U K K K U U U U U U U U U U U ) ) ) ) ^ ^ K ^ ` ) ) _ ) ) _ d.a.p.) _ p.p.a.p.p.p.p.d.d.d.].[.[.$X X[.[.].].).[.[.[.[.).).).[.[.[.[.[.[.].[.[.[.[.[. X X X[.[.[.[. X X X[.[.[.[.[.[. X XXX%X%X%X%X%X%X%X%X$X|.*XmXFXFXlXI.I.H.p.s.s.s.i.t.t.t.y.t.t.t.t.U U U U U U U I U t.s.s.y.y.r.r.I I I I I I I I I I I F F F J F A s s s s s p p i i 1 p g W W k p 1 1 1 , 1 p k ( V j 1 2 2 2 1 1 1 2 2 2 2 , , & & = = # # ",
": 3 3 3 3 3 3 : 4 5 e R Q Q Q R Q Q Q Q m 6 5 3 , ; < 3 w Z Z Z M 0 3 , 1 1 2 2 3 3 3 3 3 3 p g f f f f p f h g g f f p p p h R R j d p g k k g p p d g g g g g p p p p p p 2 2 2 2 2 2 2 2 p p p p p p p p p u p i p p p j j B K K K K B j B B B J ^ _ d.d.' ' _ _ _ d.).d.d.a.d.d.`.].[.[.[.].d.p.U ) p.p.p.i.i.p.i.i.i.i.i.i.i.i.i.i.i.i.i.i.i.i.t.U U t.t.t.t.t.t.U t.t.U U U U U U U U U U U U I I I I J J J F F F F J I U U i.M.U J A F J J J L L J J F F J J J F s s c F c c F c c c F F F F F F c F F J J J J J J L L L P P L L L L L J J J J J J J J F J J F F F F J J J J J J J J F F F F J J J J F F J J I I G G J I I I I I I I G G I I I I I I I I I I I I I I I I I I I I I I I I I I I I I I I I I I I I I Y Y Y Y Y I Y Y I Y Y Y Y Y Y t.t.t.t.t.t.t.Y r.r.r.r.r.r.r.r.r.r.j.j.j.j.j.k.Z.Z.Z.Z.Z.K.T.T.T.T.T.Y.U.J.J.Y.Y.Y.Y.K.U.Y.T.T.K.K.k.j.j.r.j.j.j.j.j.j.j.j.j.r.r.r.r.h.t.t.h.t.t.t.t.t.t.t.t.t.t.t.Y Y Y Y Y Y I I I I I I I I I I I I I I I I I I I I I J J J J J J J J I I I I J J J J J J J J J J J J J J J J J J J J J J J J J J J J J J J J J J J J J J J J J J J J J J J B B B B B B B B J J J B J J B B B B B J J J B B B B j j B j j j s s s L B s s B J J J s S ) N.' ` V K K K J J J J K K K K U U U ) ) U K U U U U U U U U U U U U U ) ) ) ) ) U K ^ ` ) ) ' ' ' _ d.d.a.) p.p.p.p.p.p.p.d.d.).).[.[.$X X[.).].].].[.$X[.[.].`.].[.[. X X[.].].].[.[. X X$X$XOX[.[.[.[. X X X[.[.[.[.[. X X%X%X%X%X%X%X%X%X%X%X%X&XmXBXGXGXJXlXI.I.C.a.s.s.s.i.i.i.t.y.t.t.t.t.U U U I U U U I U t.s.y.y.y.r.r.I I I I G G I I I I A A A A F F A s s s s s p p p i 1 p g W W k p 1 1 1 2 1 p k ( V j 1 2 2 2 1 1 1 2 2 2 2 , , & & $ $ = = ",
": 3 3 3 3 3 0 : 4 5 w w h h 6 6 6 6 m R m m b 3 < < 3 3 b Z M M b 0 3 , < 1 < 2 2 2 3 3 3 3 p f g f f p 3 p p 2 2 2 p p 3 2 d k R R k g g k k k p p p k j j j j j g p p p p p 2 2 2 2 2 2 2 2 p p p p p p p p p p p p p p f j K K K ^ ^ K K B B B J K _ d.).d.d.d.] _ _ d.).).).a.i.N.].[.[.[.[.[.].I.p.U U i.p.p.p.p.p.i.p.p.p.p.i.i.i.T i.i.i.i.i.i.i.t.i.t.t.t.t.t.t.t.t.t.t.t.t.U U U U U U T U U I I I J I J F F G I I I J J I T T I I F I Y L J J L J F c c c J J J F c c F F F F c c c F F F F c c c F F F F J J L L L L P L L C C B J L J J J J J F F F J J J F J J J J J J J F J F F F F J J J F F F G J J J J F F F J I I I I I G I J I I I I I I I I I I I I I I I I I I I I I I I I I I I I I I I I I I I I I Y Y Y Y Y I I I I Y Y Y Y r.t.t.t.t.t.t.t.t.r.r.r.r.r.r.r.r.r.r.j.j.j.j.j.j.k.J.K.U.U.U.K.K.K.K.K.K.K.U.K.K.J.K.K.K.Y.K.Y.T.K.K.Z.j.j.j.j.j.j.r.j.j.j.r.j.g.r.r.r.r.h.t.t.t.t.t.t.t.t.t.t.t.t.r.r.Y Y Y Y Y Y Y Y I I I I I I I I I I I I I I I I I I I I J J J J J J I J J J J J J J J J L J J J J J J J J J J J J J J J J J J J J J J J J J J J J J J J J J J J J J J J J J J J J B J J J J S S J B B B B B B B B B B B B B B B j j B j s s s c c u J J J s c B j ^ ' N.) K J J J J J J J K K K K U U ) ) ) ) ) U U U U U U U U U U U U U U U ) ) ) ) ) ) ) ^ T ` ' ' ' ' d.d.d.a.) p.p.p.d.p.d.d.).[.[.$XOX[.[.].).).). X X[.).).).).[. X X X_.[.].].[. X X X X X[.[.[.[.[. X X X[.[.[.[.[.[. X%X%X|.|.%X%X%X%X%X%X%X*XmXFXLXLXLXGXMX@XI.I.I.d.s.s.s.i.i.t.t.t.t.t.t.t.t.U t.I I t.U I U t.s.s.y.y.r.r.I I I I G G I I G G A A A A F F F s c s s s p p p i 1 p g W W k p 1 1 1 2 1 p k ( V g 1 1 2 2 1 2 2 1 2 1 1 , , & $ # # = = ",
": 5 5 3 3 3 3 : 5 5 w e m h 6 5 6 5 5 6 6 m b 3 3 < 3 z b N b b b 0 < , < 1 1 , 2 3 3 2 3 3 p b g g f p 3 3 p p 3 3 p p 2 2 p j k ^ W k k k k j p p j k j j j j j j g j p p p p p p p 2 2 2 2 p p p p p p p p p p p p i i s k K K K K ^ ) ) K K J J J ) ] ).] d.d.d.d.d.d.d.d.).).).d.a.d.d.).[.[.[.[.].f.p.i.i.i.p.p.p.p.p.p.p.p.i.i.i.i.i.i.i.i.i.i.i.i.i.i.i.t.t.t.t.t.t.t.t.t.t.U T U U U T T T U U U U I I I J J I I I I J J J I T Y I F Y Y Y L L L s c F J c c c F F c c F F F F c c c F F F F c c c F F F F J J J L L L L L L C C B J L J J J J J F F F J J J J F F J J F F F F F F F F F F J J F F F F J J J J F F J I I I G I I G F F J I I I I I I I I I I I I I I I I I I I I I I I I I I I I I I I I I I I I I I I I I I Y Y Y Y Y Y r.r.t.t.r.t.t.t.t.t.r.r.r.r.r.r.e.r.e.r.r.r.r.r.r.r.r.j.k.V.J.J.K.U.U.Y.T.T.T.T.Y.T.Y.T.T.T.T.U.K.K.Z.Z.j.j.g.g.j.j.g.r.r.r.r.r.r.r.r.r.r.r.r.h.t.t.t.t.t.t.t.t.t.t.t.r.Y Y Y Y Y Y Y Y I I I I I I I I I I I I I I I I I I I I I I I J J J J I J J J J J J L J J J J J J J J J J J J J J J J J J J J J J J J J J J J J J J J J J J J J J J J J J J J J J J J J J J J J J B B B B B B B B B B B B B B B B B B B s s s s c c B j B B J c J K a.a.` K J J J J J J J J K K K U U ) ) ) ) ) ) U U U U U U U U U ) U U U U U ) ) ) ) ` ) ) ) K ` ' ' _ a.d.d.d.p.` p.p.p.d.d.).).[.[.[.[.[.).).).[.[. X_..X).[.[._. XXXXX X[.).[.[. X X X X[.[.[.).[.[. X$X$X$X[..X.X.X$X X%X%X%X|.|.%X%X%X%X%X&XmXFXGXGXGXLXFXMX&X X[.I.~.H.f.s.s.s.i.i.y.t.t.t.t.t.t.t.U t.I I t.U I U t.s.s.y.y.r.r.I I I I G G I I G A A A A A F F A s s s s a p i p i 1 p g W W k p 1 1 1 , 1 p k ( k g 1 1 2 2 1 1 1 1 1 1 , , & # # # = = = ",
": 5 5 : : 3 3 : 5 4 w w e e 6 5 5 5 5 5 5 g w 3 3 < 3 z b M b b b 3 , , < < 1 , < 2 2 2 3 3 p p f f f p p 2 p p p 3 p p 2 2 p z j ^ W W k k k j j j j k k j j j j j j j j d p p p p p p p p p p p p p p p p p p p i p i i s k K K K K ^ ) ) K K K J J ^ _ d._ _ d.).d.d.`.d.d.).).).).d.d.d.d.].[.[.OX[.].].d.p.p.i.i.i.p.p.p.p.p.i.i.i.i.i.i.i.i.i.i.i.i.i.i.i.t.t.t.t.t.t.t.t.t.t.U U U U T T T U U U U U U I I I I I I I I I J I I T J J J Y Y Y Y L L F F F F c c c c F F c F F c c c c F F F F F c c c F F F F F J J L L L L L L L C L L L L J J J F F J J J J J J J F F F F F F F F F F F F F F F F F J J G F F F J F J I J J J I I I J J F I I I I I I I I I I I I I I I I I I I I I I I I I I I I I I I I I I I I I I I I I Y Y Y Y Y Y Y Y T t.Y Y r.t.t.t.r.r.Y Y Y r.r.e.e.e.r.r.r.e.r.r.r.r.r.j.k.k.k.J.J.J.U.U.U.K.K.U.U.K.K.K.K.K.Z.Z.Z.k.j.j.r.r.g.g.g.g.g.g.r.r.r.r.g.r.r.r.r.r.h.t.t.t.t.t.t.t.t.Y Y Y Y Y Y Y I I Y Y Y I I I I I I I I I I I I I I I I I I I I I I I I I I I J J J J J J J L J L L L J J J J J J J J J J J J J J J J J J J J J J J J J J J J J J J J J J J J J J J J J J J J J J J J B B B B B B B B B B B B B B B B B B B c j s s s c s c J s s B J K K ` a.` K J J J J J J J J J K K K U U ) ) ) ) U U U U U U U U U U U ) U U U U U U ) ) ) ` ) ) ) K _ _ ' ' a.d.d.d.a.p.p.p.d.d.).[.[.$X[.[.).).).).[.[. X_.[.[.[._._._._.XX.X[.[.[.[. X%X X X[.[.[.[.[.[. X X X[.OX.X.XXXXX%X%X%X%X%X%X%X%X%X%X*XmXMXFXJXGXGXGXMXmX&X X%XOXI.P.H.f.s.s.s.s.i.y.t.t.t.t.y.t.U U t.r.I U t.U t.t.s.s.y.y.r.r.I I I I I I I I G G G F F A A A A s s s s s p i i i 1 p g W W k p 1 1 1 , 1 p k ( k g 1 1 , 2 1 1 , 2 2 1 , & & $ # # # # $ ",
": 5 5 : : 0 3 : 3 4 5 w w w e e e w w 0 3 5 5 3 3 < 0 b M b b b b 3 , , < < < , < 2 2 1 2 2 3 p p f p p 3 2 3 3 f 3 3 2 2 2 z z z V W ~ R k j j j j j j k k j j j j j j j j p p p p p p p p p p p i p p p p p s p p p p p p j K K K K ^ ) ) ) ` ) K J ^ _ d.) ) ] ).`.d.).).).`.d.`.).[.].S.h.a.S.].[.$XOXOX[.S.p.U t.i.i.p.p.p.p.p.p.p.p.p.p.p.i.i.i.i.i.i.i.i.i.i.t.t.t.t.t.t.t.t.T T T T T U T U T U U U U U I I I I I I I I I Y T J F F L Y Y L Y Y Y Y L c c F J J c c c F F F c c F c F F F F F c c c F F F F F J J L L L L L L L L L L L L J J J J F F J J J J J F F F F F F F F F F F F F F F F F F J I G G F F F F F G F J F G I I I J F G I I I I I I I I I I I I I I I I I I I I I I I I I I I I I I I I I I I I I I I I Y Y Y Y Y Y Y t.T t.Y Y r.t.t.t.t.r.Y Y Y Y Y Y e.e.e.e.e.r.r.r.r.r.r.j.h.h.j.j.j.h.k.k.V.Z.Z.Z.Z.Z.Z.V.M.h.h.h.j.j.j.j.r.r.r.r.g.e.e.r.r.r.r.r.r.r.r.r.r.r.h.t.t.t.t.t.t.t.t.Y Y Y Y Y Y Y I I Y I I I I I I I I I I I I I I I I I I I I I I I I I I I I I J J J J J L J L I I I I I J J J J J J J J J J J J J J J J J J J J J J J J J J J J J J J J J J J J J J J J J J J J J J J J J J B J B B B B B J J B B B B B B B c B c c c B j j B c c c S ` N.C.U S j K J J J J T U J J K U U K U ) ) U U ) ) U U U U U U ) ) ) ) ) U U U U ) ) ) p.p.` ) ) ` ) _ ' a.a.a.d.d.p.) d.d.d.].[.OX$X[.[.).).).[.[.$X X[.).[.[. X_._. X_..X[.[.$X$X$X%X%X[.[.[.].OXOX$X X|. X_.).].OX$X%X%X%X%X%X%X%X%X%X%X*XmXMXGXLXIXLXGXMX*X X_.XX$X*X$X].H.H.p.p.s.s.s.i.y.t.t.t.t.y.t.t.t.y.r.t.t.t.U t.t.s.y.y.y.r.r.I I I I I I I I G G G F A A A A s s s s s s p i i i 1 p g W W k p > 1 , , 1 p k ( k g 1 1 , , 1 1 2 2 2 1 1 & & $ = O O O $ ",
": 5 4 5 4 3 3 : 3 5 6 6 6 6 6 6 6 e w w w 5 5 3 3 3 b b N b b b z 3 , - < < , , 1 1 1 < 2 2 3 3 3 3 p p p p 2 3 p 3 2 2 2 p f j g g k R R k j j k k k j k k j j j j k k k j p p p p p p p p p p i i i i p p s j p p p p p p s j J K K ) ) ) ) ) ) ) U K ) a.T ) _ `.`.d.d.).). X[.].S.C.S.].).`.S.N.C.].[.$XOX[.[.[.d.p.p.p.p.p.p.p.p.p.p.p.p.p.p.p.p.i.i.i.i.i.i.i.i.i.i.i.t.t.t.t.t.t.t.t.t.t.U U T U U U U T U U I I I I I Y Y Y Y F L L o.Y L L o.Y Y h.T L F F F J J J F c F F F F F F F F F F F F F F F F F F F F L L J L L L L L L L L L L J F F F F J J F F J J J F F F J J J J F F F F F F F F J J I I I I I J F J F G I I G G G I G I G G I I I I I I I I I I I I I I I I I I I I I I I I I I I I I I I I I Y I I I I I Y Y Y Y Y Y Y Y t.Y r.r.r.t.t.t.t.r.r.e.Y H Y Y r.r.r.r.r.r.r.r.r.r.Y e.r.j.j.j.r.r.r.j.h.h.y.h.h.h.h.y.r.r.r.r.j.j.j.g.g.r.r.r.r.r.e.e.r.r.r.r.r.r.r.r.r.r.j.h.t.t.t.t.t.t.t.t.t.Y Y Y Y Y Y Y Y Y I I I I I Y Y Y I I I I I I I I I I I I I I I I I I I I I I I J J J J I J J J I I J J J J I J J J J J J J J J J J J J J J J J J J J J I I J J J J J J J J J J J J J J J J J J J J J J J J J J J J B B B J B B B B J B B B B B B B B J j s F F J i.a.` S J J K J J J I T I J J U U U K K K K K K K U U U U U U U U ) ) ) ) ) ) U ) ) ) ) i.p.a.p.p.` ' ' _ ] a.a.' _ d.d.d.).[.[.OXOX[.[.).).[. X$X X_.).).).[. X X_. X[.[.[. X X X%X%X$X[.].].[.[. X X X X XOX.X.XXX%X%X%X%X%X%X%X%X%X%X%X*XJXLXIXIXGXBXBX*X$X$XXX%X*XBXBXBX=X].R.f.f.p.s.s.s.i.i.i.t.t.t.t.t.t.t.t.U t.t.y.t.t.t.s.s.y.y.r.r.I I G G G I I I I I J F A A F A s s s a s s i i i i 1 p g W W k p > 1 , , 1 p k ( k g 1 1 1 , 1 1 2 2 2 , , , & = = # # # $ ",
": 5 4 4 5 5 3 : 5 5 5 m m R R m m m m e w n 5 3 3 3 b M N b b b z 3 , , < < , - < < 1 1 1 2 3 3 3 p f p p p 2 p p 3 3 3 2 p g g g j j k k k k k k k j j k k j j j j k k k j p p p p p p p p u i i i i i i p s j p p p p p p s s j J K ) ` ' ) ) ) ` K ) ) ` ` ) _ `.d.d.d.d.`.).[.[.].`.S.`.).S.S.S.S.S.].].[.$XOX[.].].f.p.p.p.p.p.p.p.p.p.p.p.p.p.p.p.i.i.i.i.p.p.i.i.i.i.t.t.t.t.t.t.t.t.t.t.t.t.t.T U t.T T T U U Y I I I Y T Y F L Y o.h.o.o.o.o.L F Y Y Y Y J F c F F F F F F F F F F F F F F F F F F F F F F F F L J J J J L L L L L L L L J J F F F J J F F J J J F F F J J J J J F I J J J F F I I I I G I J I J J J I I I G G I I I I G G I I I I I I I I I I I I I I I I I I I I I I I I I I I I I Y Y Y Y Y Y Y Y Y Y Y Y Y Y Y Y Y Y T r.r.t.r.t.t.t.t.h.r.r.Y Y Y Y r.r.r.r.r.e.r.r.r.r.r.j.g.g.j.j.j.k.k.j.r.r.y.j.j.j.j.y.r.y.j.j.j.j.j.g.j.g.r.r.r.r.r.r.r.r.r.r.g.g.r.r.r.r.j.h.h.h.t.t.t.t.t.t.t.t.r.Y Y Y Y Y Y Y Y I I Y Y Y Y Y I I I I I I I I I I I I I I I I I I I J J I I I I J I I I I J J J J I J J I I I I J J J J J J J I I I I I I J J J J J J J J K J J J J K K K J J J J J J J J J J J J J J J J J J J J J J J J J J J J J J J B J J J B J J s J U ` i.U K J J J U J J I U I I U U K K U K K ^ ^ ^ K K U U U U U U U U ) ) ) ) ) ) ` ` ` ` i.p.p.p.a.p.a.` ] d.d._ _ a.d.d.d.).[.[.[.[.[.[.[.[.[.[._.[.[.[.).).).[.$X X X_. X X X X X X X X[.[.].[. X X X X X[..X.XXX$X%X%X%X%X%X%X%X%X%X*XBXBXGXJXLXJXJXBX*X*X%X%X%X*XBXBXBX*X%X$X].I.f.f.s.s.s.s.i.i.i.t.t.t.t.t.t.t.t.U t.t.y.U t.t.s.s.y.y.r.r.I G G G G I I I I I J J A A F A s s s s a s a i i i > p g W W k p > 1 , , 1 p k ( k g 1 1 2 2 1 1 2 2 2 2 , , & & = = # # # ",
": 4 4 w w 5 3 : 5 w w e R R R R m m m e m m 5 3 3 3 b M Z b b b z < , - , , , - - < < 1 2 3 3 3 3 p f f p p 3 3 p 3 3 p 3 3 f g g g g V k k k k j j j k k k j j j j k k k j p p p p p p p p p i i i i i u p s B p p p p a a s s s J U ` ` ` ) ) ) T K U ) T ` ) ] d.d.d.d.d.d.d.).[.[.[.].).).S.].].).S.S.I.[.[.OXOXOX[.].d.d.p.p.p.p.p.p.p.p.p.p.p.p.p.i.i.i.i.i.i.i.i.i.i.t.t.i.t.t.t.t.t.t.t.t.t.t.U U T U U U U U U I I Y Y Y Y H Y o.o.h.o.o.o.o.L F F Y Y T I F c c F F F F F F F F F F F F F F F F F F F F F F J J J J L J L L L L L L L L J J J J J J J F F F F F F F F F J J J J J I I J J J J F F F G G G I I J J I I I I I G I I I I I I I I I I I I I I I I I I I I I I I I I I I I I I I I I I I I I I I Y I Y I Y Y Y Y Y Y Y Y Y Y r.t.t.t.t.t.t.t.h.h.h.r.Y Y r.r.r.r.e.r.r.r.r.r.r.r.g.j.g.r.r.j.j.k.k.k.r.h.j.j.j.j.j.j.k.k.k.j.j.j.r.r.r.r.r.r.r.r.r.r.r.r.g.g.g.g.r.r.r.j.j.h.h.t.t.t.t.t.t.t.t.t.r.Y Y Y Y Y Y Y Y I I Y Y Y Y I I I I I Y Y I I I I I I I I I I I I I I I I I J J J J J I J L J L J J I I I J J J J I J J J I J J J J J J J J J J J J J J J J J J J J J J K J J J J J J J J J J J J J J J J J J J J J J J J J J J J J J J J J B B B c F J J T a.` J S J J J J J I U U I U U U J U U K ^ / W W / P U U U U U U ) ) ) ) ) ) ` ` ` ` i.i.i.p.p.p.p.p.p.) a.d.d._ ' ' d.).).[.OX[.[.[.[.[.[.[. X X_.).).).).).). X%X$X X X X X$X$X X X[.[.[.[.OX X X X X XXX.X.XXX$X%X%X%X%X%X%X%X%X%X*XBXJXJXIXJXJXBXBX*X%X%X*X-X-XBXBXBX-X X_..X].I.H.s.s.s.s.s.i.i.i.t.t.t.t.t.t.t.t.U U U t.U U t.s.s.y.y.r.r.I I I I G I I I I I J J A A F A A s s s a a a i i i > p g W W k p > 1 1 , 1 p k ( k g 1 1 2 2 1 1 1 2 2 2 < , ; & = # # # # ",
": 4 4 w w w : : w w 3 e R R Q Q m e e r R m 5 3 : 3 b m Z b b b 0 < , , < , , - - < < 1 2 3 3 3 3 3 f f p p 3 3 2 2 p p p 2 p p f n n B k k k k g j j k k k k B j k k k k j p p p p p p p p p i i i i i i p s B p p p s p a a s c J ` ` ) ) ) ) ) T K ^ ) K ) _ d.d.d.d.d.d.d.d.d.).)._. X[.].S.`.).).[.].I.C.S.].[.$X$X$XOX].I.f.i.s.p.p.p.p.p.p.p.p.p.p.p.p.p.i.i.i.i.i.i.i.i.i.i.t.t.t.t.t.t.t.t.t.t.T T U U T T U t.t.T T Y Y Y j.o.o.o.h.h.h.o.Y L F c F F J Y L I J F F F F F F F F F F F F F F F F F F J F F F F J J L L L L L L L L L L J J F J J J J J F F J J F F F F J J J J F J I J I I J J F F F F I I I I J J I G I I I I I I I I I I I I I I I I I I I I I I I I I I I I I I I I I I I I I I I I I I Y Y I Y Y Y Y Y Y Y Y Y Y Y Y r.t.t.t.r.t.t.t.h.h.h.r.Y Y r.r.r.r.r.r.r.r.r.r.r.r.r.e.r.r.r.r.j.j.k.k.k.k.j.j.j.j.h.j.k.k.j.j.g.j.j.r.r.r.r.j.j.j.j.j.r.r.r.g.g.g.r.r.r.j.j.h.h.t.t.t.t.t.t.t.t.t.r.Y Y Y Y Y Y Y Y Y Y Y Y Y Y I I Y I Y Y I I I I I I I I I I I I I I I I I I J J J J J I J I J L J J I I I J J J J I I J I I J J J J J J J J J J K K J K J K K K J J J J J J J J J J J J J J J J J J J J J J J J J J J J J J J J J J J J J J J B J s s T a.' U J J J J J J F T U U U U U U J U U U ^ / W Q Q / P U U U U U U ) ) ) ) ) ` ` ` ` ` i.i.i.p.p.p.p.p.p.` ' d.d.a.' _ `.[.[. X[.[.[.[._. X_._._.[.[.).).d.d.).[.%X%X X X$X%X%X X$X$X$XOX[..X X%X X X$X.X.XXX%X%X%X%X|.%X%X%X%X%X*XBXBXJXIXIXLXBXBX*X%X%X%X%X-XBXBXJXBX*XXX_..X.X).).f.H.H.s.s.s.s.i.i.i.t.t.t.t.t.t.t.t.y.U y.t.U t.t.s.s.y.y.r.r.G I I I G I I I I I I J A A F F A s s s s a p i i i > p g W W k p 1 1 1 , 1 p k ( k g 1 1 2 2 1 1 1 2 2 2 3 3 , ; = # # # # ",
": 0 w w w 4 : 3 w w 5 5 5 6 Q Q Q Q m 5 5 z 3 3 3 z M m m m b w 9 < , - , , , , , , , , < 1 2 2 2 p p p p p p 3 2 f g n m f g f f k k k k k k k V j j g j V k j j j k j j j p p s p p p p p p p i 2 i p i p p s s p p p s s s x c J K ) ` a.) U U K K U T U U ` a.d.`.`.d.d.d.d.`.`.d.`.[.[._._.[.`.S.`.).).[.].].S.I.].[.$X$XOX[.I.f.p.i.p.p.p.p.p.p.p.s.s.p.p.s.s.i.i.i.i.i.i.i.i.i.i.t.t.t.t.t.t.t.t.t.t.T T U U U U T T T Y Y Y Y h.o.o.h.h.h.T Y L F F F F F F J J J F F F c F F F F F F F F F F F F F F F F F F F F J L L T T L L L L J J G J J J F F F F J I F J F F F J J I J I J F F F F F J I J I I I I I I I I I I I I I G G I I Y I I I I Y I Y Y I I I Y r.Y I I Y r.Y Y Y I Y Y Y Y Y Y r.r.r.r.r.r.r.r.r.r.r.r.r.r.r.t.t.r.t.t.y.t.t.t.t.t.t.t.h.h.h.h.h.y.r.Y r.r.e.e.e.r.r.r.r.e.j.j.r.r.r.r.r.j.j.j.j.k.k.k.Z.Z.J.J.J.k.k.j.j.j.j.j.j.j.j.g.j.j.j.j.j.j.j.r.r.j.j.r.r.r.h.h.h.h.j.j.h.h.h.h.t.t.t.h.h.r.r.r.r.r.r.Y Y Y Y Y Y Y I I I Y Y Y Y I Y Y Y Y I I Y Y Y J I I I I I Y Y Y J J J I I J I J J I J J J J J J J J J J J I J J J J J I I J I J J K K K J J J J J J J J J J J J I J J J J J J J J J J J J J J J J J J J J J J J J J J J B B J J J s J U M.T K J J K K J K K W U U Y J K U ` i.t.U ^ W Q Q Q ^ ^ U U U U U U U ) ) ) ) ) ) ) ) _ ) i.i.p.p.a.p.p.p.a._ ' a.d.d.a.a.].[.[.[.[.[.[._._._._._. X X[.).).).)._._.%X X X X%X%X$X X[.[.$X%X%X%X$X X$XXXXXXX%X%X%X%X%X%X%X%X%X*XBXBXJXLXLXLXBXBX*X%X%X%X%X*XBXBXBXBX*X%XXX_._.).).).).f.I.f.f.p.s.s.s.i.i.i.t.t.t.t.t.t.t.y.r.r.r.t.y.y.t.s.s.y.y.y.I I I G G G I I I G G J J F F A A s s s a a s p i i i 1 p j W W k p 1 1 , , 1 p k _ k g 1 1 2 2 1 2 2 2 2 , , , , , & & & & = ",
": w w w 4 4 5 5 5 5 5 5 5 6 h Q Q Q n 5 5 z 0 3 0 b M m n m b w 9 < , - , , , , , , , < < 1 1 1 2 p p p p p p 3 2 f g h m g g g p k k k k k k V V j g j B B k j j j j j j j s s s s p p p p p p i 2 i p i p p p s s p s s s s x c J K U ` a.) U U K U U T U U ) a.d.`.).d.d.d.d.`.`.d.d.`.[.[._.[.[.].].`.].].].].].].].].[.[.[.OX[.].f.d.p.p.p.p.p.p.p.p.p.s.s.p.p.p.s.s.i.i.i.i.i.i.i.t.t.t.t.t.t.t.t.t.t.t.T U U U U T T T Y Y Y Y h.Y Y o.h.h.T T I J J F F F F F F J F F F F F F F F F F F F F F F F F F F F F F F J J L P T T L L L J J J F J J J F F F F I I I J F F F J J I I I J F F F F F I I J I I I I I I I I I I I I G G G G G G G G G G I I G G G G G I I I G I I I G I G I I I I I I I I I I I Y Y Y Y Y Y Y I Y r.r.r.r.r.r.r.r.r.r.r.r.r.r.r.h.y.h.h.j.r.e.G r.e.e.e.e.e.e.e.e.e.e.e.e.e.e.e.e.j.g.g.r.r.j.k.k.j.k.k.k.j.j.j.e.g.g.g.g.g.g.g.e.g.g.g.g.e.e.e.e.e.g.e.e.e.r.j.j.h.h.h.r.r.r.r.r.r.r.r.r.r.r.r.r.r.r.r.r.Y Y Y I Y I I I I Y Y I I I I Y G G I Y I I I I I I I I Y Y Y I I I I I J J I I J J J J J J I J J J J J J I J J J K J J J J J K K K K J J J J K K K K J K J J K J K J J J J J J J J J J J J J J J J J J J J J J J J B B J J J J J U T i.T J J J J J J U / ( ` ` U U U U U ` U U ^ W Q Q Q ^ U U U U U U U U ) ) ) ) ) ) ) ) ) ` i.i.p.p.p.p.p.p.p.a.' p.d.d.d._ `.[.[.[.[.[.[._._._._._.[.[.).).).[._._. X%X X X X X$X$X$X X X X%X%X%X$X X$X$X$X%X%X%X%X%X%X%X%X*X*XBXBXJXLXJXJXBXBX*X%X%X%X*X*X*XBXBXBX*X%X$X_._.).).).).).f.I.f.f.s.s.s.s.i.i.i.i.t.t.t.t.t.t.y.r.r.r.t.y.y.y.s.s.y.y.y.r.I I G G G I I I G G A F F F A A s s c s a s p i i i 1 p j ^ ~ k p 1 1 , , 1 p k _ k f 1 1 2 , 2 2 2 < < , , , , , , , & & = ",
"5 4 4 w 4 4 4 4 5 5 w 5 5 5 6 6 6 w 5 5 3 z 0 0 0 b M M n m b w 9 1 < - - , < < , - - - < < 1 1 2 p p p p p p 3 3 f g g k g g g f j k k k k k V B j g j j B j j j j k j j j p s s p p p j p p p i i i p i p p p s s s s s s s c c J K U ` a.' ) T U U T T U U ) ' d.`.`.).).).d.S.d.`.d.S.S.`.[. X X X].S.C.I.].[.[.).).I.T.].[.$X$XOX[.].d.p.p.p.f.f.d.p.p.p.V.a.p.p.p.p.p.s.i.i.i.i.i.t.t.t.t.t.t.t.t.t.t.t.T T T T U U U T Y Y Y Y o.H H Y o.T T T I I J F F F F F F F F F F F F F F F F F F F F F F F F J J J J J J J I J P T T P L L J J I F J I I I I J F I I F F F F J J F F J J J J G G G G I I I I I I I I G F F F I I F F G I I I F F F F F F F F F F F G A A A J I I G F G I F F G G G G G G I I G I I I G I I I I I I I G G e.e.e.e.e.e.e.e.e.e.e.e.e.e.e.g.e.e.e.e.e.e.e.e.e.e.e.e.e.e.e.e.e.e.e.e.e.e.e.e.e.e.e.e.e.e.e.e.e.e.e.e.g.g.e.e.e.e.e.e.e.e.e.e.e.e.e.e.e.e.e.e.e.e.e.e.r.r.r.r.r.r.r.r.r.r.r.r.r.r.r.r.r.r.r.r.r.I G G G G G G G G G G G G F F F F F I I I J I I I I I I I I I T T I J J J I I J J J J K J J J J J J J I J J J J K U U U K J K K U K K J U U U U U U U ~ ~ ~ ~ ^ K K K K K J J J J J J J J J J K K J J J J J J J J B B J B s J t.M.i.T J J J J J S J N.;.,.&.( / U U U K P U ^ K Z Z Q Q ^ U U U U T U U U ) ) ) ) ` ` ` ` T i.i.i.p.p.p.a.a.p.i.i.` _ ] d.d._ d.).[._.[._._._._._._.[.[.).).).[._. X X$X$X%X%X X XOX$X$X X X X X X XXXXX$X$X%X%X%X%X%X%X%X%X%XBXBXLXIXIXLXBX*X%X%X%X%X%X*XBXBXBXBX*X$X_._._._.).).).).).).d.I.f.f.s.s.s.s.i.i.t.t.t.t.t.t.t.t.t.U r.t.t.y.y.t.y.y.y.y.y.r.G G G G G I G G G G A A F F A A s s s a a s a i i i 1 p j ^ ~ k p 1 1 2 2 1 p j _ k f 1 1 2 2 2 2 2 < , , , , , , , , ; & = ",
"4 4 4 6 6 w 5 5 5 5 w w w 5 5 5 5 5 3 0 z z 0 0 0 C M b m M b b 9 1 < - - , < < - - , - < < 1 1 2 p p p p p p p p g g g g g g j j j j k k k k k k j g j j k k j j j k k j j j j j j j j j p p p p p i i i p p p j s s s j j j c c J K K ` ' ' ' ` ` ` ` ` ` ` ) ) _ d.`.).).`.[.`.S.S.].].`.S.S.].[. X_._._.].I.S.C.].[.].].S.S.].[.$X$X$XOX[.].p.p.p.p.f.f.f.p.p.p.p.p.p.p.p.i.i.i.i.i.i.i.t.t.t.t.t.t.t.t.t.t.t.T U U U U T T Y Y Y h.Y H H Y Y T t.T I I J J F J J J F F F F J J J F J F J J J I I I I I I U I I U U T T U T ` -.T T U T T t.T T T t.t.t.t.t.t.t.t.t.t.t.t.t.t.t.i.i.M.M.h.M.M.M.V.V.V.V.V.V.V.V.V.V.V.V.V.V.Z.Z.G.K.K.K.K.K.K.K.K.K.K.K.K.K.U.U.U.U.U.Y.Y.U.U.Y.Y.Y.T.T.T.T.Y.Y.Y.Y.T.T.Y.T.T.T.T.(.8X8X8X8X8X8X2X2X2X2X8X8X8X8X8X8X8X8X8X8X8X8X8XkX0X0X8X0X0X0X0X0X0X0X0X0X0X0X0X0XzXzXzXzXzXzXzXzXzXzXzXbX0X0X0X0X0X0X0X0X0XbX0X0X0X0X0X0X0X0X0X0X0X0X0X0X0X0XzXzX0X0X0XzX8X8X8X8X8X8X8X8X8X8X8X8X8X8X8X8X8X8XkXkXkXkX8X0X0X8X8X8X8X8X8X8X8X8X8X8X8X8X8XY.K.K.K.J.Z.Z.V.h.t.t.T T T T T T T T T T T U U U U T T T T T T T T T i.i.i.i.i.i.i.a.S.].}.@X&X&X*X*X*X*X*X*X*X*X&X&X&X&X[.[.[.].].`.S.S.S.S.N.N.i.` ` ` ` ` ` T T T U J J J J J s J T M.t.I J J J J I T J J J T ` ' &.] ( ( U U K P K ^ K V Z Q W / ` ` T T T ` U ) ` ) ) ) ) ` ) p.p.p.p.p.p.p.p.i.p.a.S.[.`.d._ d.d.d.d.).[.[._._._. X_.[.).).).).)._._. X$X$X$X$X X X X[. X X X$X$XXX X X$X%X%X%X%X%X%X%X%X%X*X*XBXLXIXIXJXBXBX*X%X%X%X%X-XBXBXBXBX*XXXXXXXXX_.).).).).).).d.).).d.H.f.s.s.s.s.s.i.i.t.t.t.t.t.t.y.t.t.U I t.t.y.y.t.y.y.y.y.r.r.G G I G I I G G G G A A F A F A s s s a a s p i i i 1 p j ^ ~ k p 1 1 , 2 1 p j _ k f 1 1 2 2 1 2 2 < < , , , , , , , ; ; , ",
"4 4 4 6 e w w w 5 5 w w w w w w w 0 0 z z z 0 0 z Z M b b b b z < 1 < , , , , , , , , , - - - 1 2 2 p p 3 3 p p f g g g g j g g j g j V k k k k V j j j j k k k k k S k j j j j j j j j j j p p p p i i i p p p j j j j B B j s c J K J U ` ' ' ` K U U T i.i.` ) ' d.`.d.`.].[.].).`.[.[.[.].].].].[. X X X[.].].S.S.].].[.[.].].].].[.OX$XOXOX].S.d.p.s.a.a.p.p.p.p.p.p.p.p.s.s.i.i.i.i.i.i.i.i.i.i.t.t.t.t.t.t.t.t.U U U T T T Y Y h.Y Y G I Y T t.Y I I I I I I I I I J J J J J J F J J J J J I I I U T T T T T T T T T T T T ` ` T T t.t.i.t.t.t.t.i.i.i.i.M.M.M.M.V.V.V.V.V.V.V.V.V.V.V.V.V.C.C.V.C.C.K.K.K.K.K.K.K.K.K.K.K.K.K.T.T.T.T.T.T.(.(.8XkXkXkXkXkXkXkXkXkXcXcXcXcXcXcXcXzXzXzXzXzXzXzXzXzXzXzXzXzXzXzXzXzXzXzXzXzXzXzXzXnXnXnXnXnXnXnXnXnXnXnXnXnXnXnXnXnXnXZXAXZXnXnXnXCXZXCXnXZXZXZXZXnXnXnXnXbXbXZXZXbXbXbXbXZXZXZXZXZXZXZXZXZXZXZXZXbXbXbXbXZXZXbXbXZXZXZXZXbXbXbXbXnXbXbXnXbXbXbXbXbXbXbXbXbXbXbXbXbXbXbXbXbXbXbXbXbXbXbXbXbXbXbXbXbXbXbXzXzXbXcXcXcXwX8XY.K.J.V.J.V.V.h.t.t.t.t.T T Y T T T T T T T T T T T T T Y T T T U T U T T T i.i.i.i.a.N.S.].[.[. X X X X X X X X X[.[.[.[.].].`.S.S.S.S.N.N.N.a.i.` ` ` T T T U T U U K J J J J J J T T t.T J J J I J I I J J J K / ` ( ] ( ( / P K K V V V Z Q Q Q / / ` T T U ) ) ) ` ) ` ` ` ` ` i.p.p.p.p.p.p.p.a.d.].[. X[.`.a.a.a.d.d.).).[._._._. X[.).).).).)._._._._.$X$X$X X X X X X X X X$X$X$X%X%X%X%X%X%X%X%X%X%X*XBXBXJXJXGXJXBXBX*X*X%X%X*X*XBXBXBX*X*X%X$XXX_._._._.).).).).).).).).).f.H.H.f.p.s.s.s.i.i.t.t.t.t.t.t.y.t.t.U U t.t.U y.t.y.y.y.y.r.r.G G I I I I G I G G A F F A F A s s s s a s a i i i 1 p g W ~ k p 1 1 2 2 1 p j ^ V f 1 1 2 2 1 2 1 < < < < , , , , , , , , ",
"w 4 w w e w w w w w w w w w w w b 0 z z z z 0 z b Z m m b b b z < 1 < , , < , , , , , , - - - , 1 1 p p 3 3 p p f g j j g j g g B j j V k k k k k j j j k k j j k k S k j j j j j j j j j j p p p p i i i p p p j j B B B B j s B J K J U ` ' ' ` ) U U U T i.i.` ' d.d.' d.`.[.[.[.).).[.[. X[.[.[.[.[.[.[.[.[.].].S.S.].[.[.[.].I.].].[.OX$X$XOX].].f.a.a.p.p.f.f.f.a.p.p.p.p.p.s.s.i.i.i.i.i.i.i.i.t.t.t.t.t.t.t.t.t.t.U U U U Y Y h.Y Y H I Y T T Y I I I I I I I I I J J J J J J J I I I J I I I T T T T T T T T T T t.T T T T T T t.t.t.i.M.s.s.s.i.i.i.i.s.M.M.M.V.V.V.V.V.V.V.V.V.C.C.C.C.C.C.C.C.K.K.K.K.K.K.K.K.K.K.K.K.K.T.T.T.T.T.T.(.8XkXkXkXkXkXcXcXcXcXcXcXbXbXbXbXbXbXcXzXzXzXzXzXzXzXzXnXnXnXnXnXnXnXnXnXnXnXnXnXnXnXnXnXnXnXnXnXnXnXnXnXnXnXnXnXnXnXnXbXZXZXZXbXbXbXbXZXZXnXnXnXZXbXbXbXbXbXbXbXbXZXZXZXbXbXZXZXZXZXZXZXZXZXZXZXZXbXbXbXbXbXbXbXbXbXbXbXbXZXbXbXbXbXbXbXbXbXbXbXbXbXbXbXbXbXbXbXbXbXbXbXbXbXbXbXbXbXbXbXbXbXbXbXbXbXbXbXbXbXbXzXcXwX8X8X8X8XY.J.V.V.k.k.h.h.t.t.t.t.r.Y Y Y Y T Y T T T T T T T T Y Y T T T U T T T T T t.i.i.i.i.a.S.`.].[.[.[.[.[.[.[.[.[.[.[.].].].`.S.S.S.a.N.N.N.M.i.` ` ` ` T T U U U U U U J I J J J I T t.t.U I J J J I J J J J J U K U ) ` ' ( Q Q / ^ K V V V Z Q Q Q / / ` ` T ) ) ) ) ) ` ` ` ` i.` ` i.p.p.p.p.p.d.d.[.[. X[.[.`.d.a.a.d.d.).).)._._. X X).).).).)._. X_._._.%X%X$X X X X X X X X XXX%X%X%X%X%X%X%X%X%X%X*XBXBXJXLXLXJXBXBX-X*X%X%X%X*XBXBXBX*X*X%XXXXX_._._._.).).).).).).).).).).).f.I.H.f.s.s.s.s.i.i.y.t.t.t.t.t.y.t.t.U I t.t.U y.t.y.y.y.y.r.r.G G I I I I G G G F F F F A F A s s s s a s a i i i 1 p j W ~ k p 1 1 2 2 1 p j ^ V f 1 1 2 2 1 1 1 1 < < < , , , , , , , , ",
"w w e e w w w 3 0 3 5 5 w w w w b z z z z z 3 b M M N m b b z z < < < , , < , , , , , , - - - , 1 < p p p 3 p p f f V V V k j g V j n V k k k k k k j V k k j k k S S k k k j j j j j j j j p p i p i i i i p p j B J K K J B s B J K J U ` ' ' ` ` ` U U ` i.i.' d.d.d.a.d.d.`.[.[.[.).[.[.$X$X$X X[.[.].].[.[. X$X[.[.].S.].].[.[.[.].].].[.[.&X&X&X[.S.d.p.p.f.f.s.a.a.a.a.a.a.a.p.s.i.i.i.i.i.i.i.i.t.t.t.t.t.y.t.t.U U U U U I I o.Y Y L I Y T T I I I I I I I I I I I I I I I I I T T T I I I I Y Y Y Y Y Y Y Y Y T T T T T T T T t.t.t.t.t.t.t.t.t.T U U U T T T t.t.t.t.t.t.t.t.i.i.i.i.i.i.M.M.M.M.M.M.V.C.V.M.V.V.V.V.V.Z.K.K.K.K.K.K.K.K.K.K.K.K.J.J.J.U.U.U.U.U.U.U.U.U.U.U.^.^.^.^.^.^.^.^.^.^.^.^.^./.^.^.^.^.(.(.(.(.^.7X7X7X^.7X7X7X7X7X7X7X7X7X7X7X7X7X7X7X7XW.7X7X7X7X7X7X7X7X7X7X7X7X7X7X7X7X7X7X7X7X7X4X4X4X4X4X4X7X7X7X7X7X7X7X7X7X7X7X7X7X4X4X4X4X4X4X4X4X4X4X4X4X4X4XW.4X^.^.W.4X4XW.W.W.W.W.W.W.W.W.W.W.W.W.W.W.W.W.^.^.^.^.^.^.^.^.^.^.^.U.U.b.b.b.J.c.k.k.k.h.r.Y r.r.r.r.r.r.Y Y Y I Y Y I Y Y Y Y Y Y Y I Y Y Y T T T T T T T t.i.i.i.i.a.d.d.`.).).).).).).).).).].].].).).S.S.S.S.N.N.N.N.N.N.N.` ` T T U U T U U U T K J J J U t.M.t.Y J I I I J J J J J J J U T t.t.y.t.` / Q Q / ^ K K W Q Z Z W / / ` ) ) ) ) ) ) ) ` ` ` i.i.i.i.i.i.i.i.p.d.).$X$X X[.S.`.`.d.d.d.d.).).)._._._. X[.).).).).). X%X X X_.%X$X X[. X X X X%X%X%X%X%X%X%X%X%X%X%X%X*XBXJXLXIXIXJXBX-X-X-X%X%X*X*XBXBXBX*X%X$XXX_.XXXX_..X).).).).).).).).).).)..X).R.I.H.f.s.s.s.s.i.i.i.t.t.t.t.y.y.y.t.U I U y.y.y.t.s.y.y.y.r.r.I I I I G G I I G G G F F F F F s s s a a a a i i i 1 p j ^ ~ k p 1 1 2 2 1 p k ^ V f 1 1 2 3 1 < 1 1 < , , , , , , , , , , ",
"w w w e w w 0 0 0 0 b 5 w 5 w w w b z z z z z b C M Z N b z z 0 < < , , , , , , - , < < - - - , < < 2 p p p p p f f V V V V j j V B n V V k k k k j j j k j k k S S S k k j j j j j j j j j p p i p i i i i i p j B K K K J B s J K K J U ` a.` ` ` ` ` ` i.` i.a.d.d.).).d.d.).[.[.].`.`.`.].[. X X$X X X[.].].[.[.OX$X$X X[.].I.].].[. X[.].].[.OX&X&XOX[.].f.d.a.p.p.p.a.s.f.f.f.p.p.p.i.i.i.i.i.i.i.i.t.t.t.t.t.t.t.t.T U U U Y I o.Y Y L I Y T T Y I I I I I I I I I I I I I T T t.t.t.t.t.Y I I I I I Y I I I I I I Y Y Y Y Y Y Y T t.t.t.r.t.t.s.i.i.i.i.s.s.i.s.s.s.t.t.t.t.t.t.t.t.i.t.T T T T T T t.t.t.t.t.t.h.h.h.h.h.V.V.V.V.V.J.J.K.K.K.Y.Y.Y.Y.U.Y./.(.(.Y.8X8X8X(.(.(.(.8X8X8X8X8X8X8X8X8X8XkXkXkXkXkXkXkXkXkXkXkXkXkXkXkXkXkXkXkXkXkXkXkXkX8XkXkXkXkXkXkXkX8X8X7X7X7X7X7X7X7X7X7X7X7X7X8X8X8X8X8X8X8X8X8X8X8X7X7X7X7X7X7X7X7X7X7X7X7X7X7X7X7X7X7X7X7X1X1XU.U.1X7X^.U.7X8X0XzXzXkXkXzXzXzXzXcXcXkXkXkXcXcXcXkXcXkXkXkXkXkXkXkXkXkXkXkXkXkXkXkXkXkX8X8X8X8X(.^.Y.U.J.J.b.b.J.J.b.j.r.Y Y Y Y F H H H H F F I L H F L I I I I J T T T T I I I I Y T t.a.d.S.].[.[.[.].].].`.`.S.S.S.C.N.a.T T T Y Y Y Y Y Y I J K K K T T T T U I I I T U I t.i.t.U I I I J J J J J I I I I U U U t.t.y.y.y.t.` ( Q Q W W Q Q Z Z W / / / ` ) ` ` ` ` ) ` ` ` i.p.p.a.a.i.a.d.].[.OX$X[.].`.].].].`.d.d.d.`.)._._._._._._.).).).).)._._. X X X$X X X_. XXX%X X%X%X%X%X%X%X%X%X%X*X*XBXJXJXIXJXBXBX*X%X%X%X%X*XBXBXBX*X%X%XXXXXXXXXXX.X).).).).).).).).).).)..X.X.X.X.XR.I.f.f.s.s.s.s.i.i.t.t.t.t.t.t.y.y.y.t.U t.y.y.y.t.s.s.y.y.y.r.I I I I G G I I G G G F F F F F s s s a s s a i i i 1 p j ^ ~ k p 1 1 2 2 1 p k ^ k p 1 1 2 3 1 1 1 1 1 , 1 , , , , , , , , ",
"w w w w w w w 0 z b b b w 0 0 0 0 z z z z 3 b M C M N Z M z z 9 < < , , < < < , - , , , , - - - < 1 < 2 p p p p f f g V W V k j V j B V V k k k j j g j j j k S S S S k j j j j j j j j j s p p i p i i i i p p j B K K B B B s J K U J U T a.i.` ` ) ) i.i.i.p.a.d.).).[.].].).[.[.[.].S.S.S.[.[. X X$X X[.[.[.].[.[.[. X X X[.[.].].[.[.[.].].[.[.OX$X&X$XOX[.].f.d.d.a.a.s.a.f.f.p.p.s.p.p.p.i.i.i.i.s.i.t.t.t.t.t.t.t.t.T U I I L L L L B B B J J Y Y I I I I I I I I I I I I I T t.t.t.t.y.Y I I G I Y Y Y I Y I I I I L L Y Y Y Y T t.t.t.r.t.t.t.i.s.s.s.s.s.s.t.t.t.t.t.T Y Y Y Y Y T Y Y Y J I Y I I Y I Y Y Y Y Y Y Y Y r.r.t.t.h.h.h.k.V.V.G.G.G.J.J.J.U.Y.Y.U.^.8X8X^.(.(.(.(.(.(.(.8X8X8X8X8X8X8X8X8X8X8X8X8X8X8X8X8X8X8X8X8X8X8X8X8X8X8X8X8X8X8X8X8X8X8X8X8X8X8XU.U.m.m.U.L.L.L.L.U.U.U.U.m.U.U.U.U.U.U.U.U.U.^.7X7X^.^.^.^.U.U.m.m.m.m.m.m.m.m.m.m.m.m.m.m.b.b.b.m.b.b.U.7XwXwXwX8XcXcXwXcXcXcXcXcXkXcXkXwXkX8XcXkXkX8X8X8X8X8X8X8X8X8X8X8X8X8X8X8X8X(.(.^.^.^.Y.U.J.J.U.U.U.U.b.j.Y Y Y Y Y I I H H H H F F F H F F I G F J I T T T T I I I I Y T t.a.a.S.S.I.I.S.S.S.S.C.C.C.a.i.i.t.t.I I I I I L I I I I I J J I Y T T T I I I I T T t.i.t.t.Y I I I I I I J J J J J U U U t.t.t.t.y.y.t.` ( Q Q Q Q Q Q Q Q W / / / ` ) ) ` ` ` ` ` ` ` ` a.p.p.a.d.`.].[.[.[.].].].].[.[.[.].d.d.d.d.).[._._._._._._.[.).).)._._._. X X X X X_.%X%X%X%X%X%X%X%X%X%X%X*X*XBXJXJXJXJXBXBX*X%X%X%X*X*X*XBXBX-X*X%XXXXX_._.XX.X.X).).).).).).).).)..X.X.X_.XX.X.X.XR.I.f.p.s.s.s.s.i.i.y.t.t.t.t.t.y.y.y.t.I t.y.y.y.t.s.s.y.y.y.r.I I I I G G I G G G F F F F F A s s s a a a a i i 1 1 p j ^ ^ k p 1 1 2 2 1 p k ^ k p 1 1 2 3 1 1 1 1 1 1 1 , , , , , , , , ",
"5 w w w w w b b b b b z z z z 0 z z z z z p b M C b m m C 3 p 1 < , , , < < < , , , < , , , - - < 1 < 2 p p p z f f g m W V k j V p j V k k k k k j g g j S S S S S S k k j j j j j j j j s p p p i i i i p p p j B K K j j B s J K ) J T T i.i.` ) U ) i.i.i.p.d.].].).[.[.[.[.].[.[.[.].].`.].[.[.[. X$X$X X[.[.].].].[.[. X X$X[.[.].].].[.[.[.[.[.[.$X&X&X&X[.].].f.f.a.s.a.f.f.f.f.a.s.s.p.p.s.s.i.i.i.i.t.t.t.U K B B g f f f f f f f f f f f f f g B B J J I I I I I I I I I Y I t.t.t.y.Y I I G Y Y Y Y Y Y Y I I I L L Y Y Y Y Y t.t.t.t.t.t.t.t.s.s.s.s.i.t.t.Y Y Y I I G F F I I I I F F F F F F F F F F F F F F G G G G G Y Y Y Y r.r.r.r.r.r.r.j.j.k.b.m.m.v.U.7X7X^.Y.Y.Y.Y.Y.^.^./.Y.^.^.^.(.^.(.(.(.(.(.8X8X8X8X8X8X8X8X8X8X8X8X8X^.Z.Z.M.-.-.P P P P P P P L B B F J J J I Y r.j.j.j.j.x.g.g.x.x.x.x.g.x.v.m.W.m.m.m.m.m.v.v.v.v.v.v.v.v.v.v.v.v.v.v.v.j.x.x.x.x.g.g.v.^.wXwXwX8X8X8X8X8XwXwXwX8X8X8X8X8X8X8X8X8X8X8X8X8X8X7X7X7X7X^.^.^.^.^.^.^.Y.Y.Y.Y.Y.Y.U.J.J.U.U.U.U.U.j.j.Y Y Y Y T T Y Y G H H F F F F F F F G I I I Y T T T I I I I T t.i.M.N.C.a.C.V.s.s.s.s.s.s.s.s.t.t.I I J J J J I I I I I I U U I I T T T U I Y Y Y T i.C.t.T I Y I I J I I I I J J J I U U U t.t.t.T T t.t.` / / Q Q Q Q Q W W W / / / ` ) ) ` ` ` ` ` ) ) ) a.a.d.d.).[. X$X[.].S.S.`.[. X[.[.[.d.d.d.d.).[. X X_._. X X_.).).).).)._._. X X X%X%X%X%X%X%X%X%X%X%X%X%X*XBXBXJXIXJXJXBX*X%X%X%X*X*X*XBXBX*X*X%XXXXXXX_._._._..X).).).).).).).)..XXXXX$XXXXXXX.X.X.Xf.H.f.p.s.s.s.s.i.i.t.t.t.t.t.t.t.y.y.t.I t.y.y.y.y.s.s.y.y.y.r.I I I I G G I I G G F F F F F A s s s a a s a i i 1 1 p j ^ ^ k p 1 1 2 2 1 p k ^ k p 1 1 2 3 1 1 1 1 1 1 1 , , , , - , , - ",
"R m w w w 0 b b b z z z z z z z z z z z z p C Z N b b m Z 2 i i 1 < , , < < < , , , < , , , < < < < < 2 p p p z f f 5 g V m h g g p g k V k R V V j g p j k S S S S k k j j j j j j j j j s s i i i i i p i p p j B J J j j c s J ^ ) J T t.i.t.i.C.i.i.i.) ) p.f.].[.).[.[. X X[.[.[.[. X X$X[.].].I.].[. X$X$X$X$X[.].].I.].[.$X%X X[.].[.[.[.[.[.[.[.[.[.OX&X=X&XOX].I.C.f.a.a.a.f.f.s.s.s.s.s.s.s.s.i.i.t.K B f f f f f f f f f f f f f f f f f f f 5 5 5 f 5 f j B J I I I Y Y Y I I r.r.t.t.t.Y I I Y Y Y Y Y I I Y Y Y Y Y Y Y Y Y Y Y t.V.y.t.t.t.s.s.s.t.t.t.I Y Y I Y Y G H H H L L I G G G G G G G G G G Y Y Y Y Y Y Y Y Y Y Y r.r.r.r.r.r.j.j.k.k.k.c.v.m.m.v.m.^.7X^.^.^.^./././././././.(.(.(.(.(.(.(.(.(.(.(.(.(.8X8X8X8X8X8XT.M.n n b n n b n n n b b b n b b g f f f f f f f f B r.v.v.v.v.v.v.b.b.c.c.b.L.L.U.m.m.b.U.L.b.b.v.b.c.b.v.c.c.c.c.c.c.c.c.v.v.v.v.b.c.c.b.^.wX8X8X8X8X8X8X8X8X8X8X8X8X8X8X8X8X8X8X8X8X8X8X8X8X8X8X8X(.(.(.(./.Y.T./.Y.^.^.^.Y.Y.U.U.U.U.U.U.U.j.o.Y r.t.r.T T h.Y Y Y H F H F F G I I I G Y L J L T T T Y Y Y I T t.M.C.C.f.f.f.f.s.a.a.a.a.C.M.i.T Y L F I I I I I I I I I I I U T T T U U I I Y U t.V.V.t.I I I I I I I J I I J J J U T U U U t.i.i.i.` / P P P ` ( Q Q Q Q W / / / / / ` ) ) ) ` ` ' ` ` ` ' a.S.`.[. X X[.].`.`.`.[. X X].`.[. X).`.d.d.).)._.%X%XXX%XXX_._.).[.).).[. X%X%X%X%X%X%X%X%X%X%X%X%X%X*XBXJXIXIXLXBXmX*X%X%X%X-XBXBXBXBX*X%XXXXXXX_._._._..X.X.X.X_.).).)..XXXXX%X_._._.XXXXXX_..X.X).f.H.H.f.s.s.s.s.y.y.y.t.t.t.t.t.t.t.y.r.r.t.y.y.y.t.s.s.y.y.y.r.I I I I I I I G G F F F F F F A s s s a a s p i i i 1 p j ^ ^ k p 1 1 2 2 1 p k ^ V p 1 1 2 2 1 1 1 1 1 1 1 , , - - - - - , ",
"! ! E Q r m e w w 0 p z z z z z z 0 w w w w N N N b b m C p 2 2 2 2 2 2 2 < 1 1 1 < , , , , < < < 1 1 1 p z p z f f f g V V V j g p s B V V V V j B B j j k S S S k j j j j j j j j j j B j s p i i i i p p p p j B B B j s c B J K T I T i.i.t.` A.S.a.i.S.{.{.{.].[.).[.[. X X X X[.OXOX$X$X|. X[.[.].].].].[.[. X|. X[.].].].].[.[. X$X[.[.[.[.[.[.$X$X[.[.].[.[.&X&X$X[.].f.a.f.f.f.f.s.s.s.s.f.p.) K g f f f f f f f f f f f f f f f f f f f f f f f 5 5 f 5 5 f f f f f B J I I I I I I r.y.t.t.Y Y I I Y Y Y Y Y Y I Y Y Y Y T T Y Y Y Y r.h.h.t.t.t.t.M.t.t.t.r.Y Y I I I I I I F H F F G H H H H G G I I I I I Y Y Y Y Y Y Y Y Y Y r.r.r.r.y.h.y.j.k.k.k.k.b.b.L.b.L.^.7X^.U.U.^.^.^.^.^.^././.^.^.^.^.^.^.^.(././.(.(.(.(.(.(.Y.o.b b b b b n n n b n n n n n n n n g f f f f f f f f f f Y c.c.v.b.b.b.b.b.c.c.b.b.b.b.c.c.c.v.v.v.v.c.c.v.c.c.c.c.c.c.c.c.c.c.c.c.c.c.c.c.b.^.8X8X8X8X8X8X8X8X8X8X8X8X8X8X8X8X8X8X8X8X8X8X8X8X(.(./././.^.^.Y.Y.Y.Y.Y.U.Y.Y.Y.L.L.L.L.U.U.U.b.j.j.h.r.r.Y Y T T t.T I Y Y Y H I I I Y Y Y Y Y L L J Y T T T T T I Y T t.M.C.C.C.C.C.s.a.a.a.N.i.i.t.T Y I I I I J I I Y Y I J K T T T U U U I I Y T t.s.t.t.T I I I I I I I I U U U U U T U U U t.t.T ` ` ` / P T P / / &.( Q W Q Q W W ( ' ' ' ' ' ` ` ` ` / ' ' `.`.].`.].].`.`.`.`.[.[.[.].[.[. X X).`.d.] ).[._.%X_._._. X X X_. X_._._. X%X%X%X%X%X%X%X%X%X%X*XBXJXJXLXJXJXBXBX*X%X%X*XBXBXBXBXBX*X%X%X%XXX_._._._.XXXXXXXX X X_._..X.XXXXX$XXX_._._._._._.$X$X$X[.f.H.H.s.s.s.s.s.i.t.i.t.t.t.t.t.t.t.t.t.t.t.t.t.t.t.y.y.y.y.r.r.G G I I I G G G G G G A F F F F F c c c s s p i i i 1 p k ~ ~ k d 1 1 1 1 1 d k ^ B s 1 i 1 1 1 2 2 2 2 3 , - - - , , , , , ",
"! ! ! ! r r r m e m n b b b b z z z z z z 0 N N N b b M C z < 2 2 2 2 2 2 2 2 1 1 < , , , < < < < 1 1 2 i p p z z p f g V V V j g p s B j V V B j B B j k k k k k k j j j j j j j j j j B j s p p i i i p p p p j B B B j s c J J J T I T ` p.i.i.A.S.a.p.{.MXMXlX].[.[.[. X$X$X$X$X$X$X X X$X X X X X[.[.].].].[.[. X X X X[.[.].].].[.[.[.[.[.[.[.[.$X$X[.[.[.[.[.[.$X&X$X[.].I.f.f.f.f.f.s.s.s.^ g f f f f f f f f f f f f f f f f f 5 5 f 5 f f f f f 5 f f 5 5 5 f f f f 5 f f j J I I I I r.t.t.t.t.Y I I Y Y Y Y Y Y Y Y Y Y T Y Y Y Y Y Y r.t.t.r.t.t.t.t.t.Y t.Y Y I I I I I I L H F F F H H F H G G I I I I Y Y Y Y Y Y Y Y Y Y Y r.r.r.r.t.t.t.y.j.k.k.k.k.b.L.b.b.L.^.U.U.b.L.L.L.L.L.L.L.L.L.L.L.U.U.U.U.U.L.L.Y.Y.Y.Y.U.o.b b g g b b b n n n n n n n n n n n n b f f b b b b b f f f f r.c.U.T.T.T.T.Y.c.v.v.T.T.T.U.j.j.c.c.c.c.c.c.c.c.c.c.c.c.c.c.c.c.c.j.c.v.c.j.c.b.U.^.^.^.^.^.^.^.^.^.^.^.^.^.^.^.^.^.Y.Y.Y.Y.Y.Y.Y.Y.Y.U.Y.U.Y.U.U.U.L.L.L.J.J.J.J.J.J.b.J.J.b.b.k.h.h.r.r.r.Y T T T T Y Y Y Y H H Y I I Y Y Y T T Y Y L Y T T T T T Y Y Y T t.i.s.a.C.V.s.p.i.i.M.i.t.T T Y I I I I I I I J B g g f g g g f f f f f g g g g g g g f f f f f f g f f f f g g g g g j j j n m V P K P ` / / ( &.&.( Q Q Q Q W ( ' ' ' ' ' ' ' ' / ' ] ] `.`.`.S.S.`.`.`.`.].[.[.[.[.[. X X X[.`.d.] ).[. X_._._._. X X$X$X X X_._. X%X%X%X%X%X%X%X%X*XBXBXBXJXJXJXBXBX*X%X%X%X*XBXBXBXBX*X%X%XXXXXXX_._._._.XXXX$X$X$X$X$X$XXX_.XXXXXXXX.XXXXX_. X[.$X$X$X$XOXI.H.H.s.s.s.s.s.i.t.i.t.t.t.t.t.y.y.t.t.t.y.t.U t.t.s.y.y.y.r.I G G I I I I G G G G G G G F F F F c c c s a p p i i i p j ~ ~ k d 1 1 1 1 1 d k K B j i i l l 2 3 2 2 9 3 * & - - , , , , - ",
"} Q ! ! E ! ! ! ! Q m e e w w z z z l l l z C X.>.=.>.>.>.b < M } } } } } } } } C < < } } } } } z 1 z X.X.X.%.%.%.%.%.n k V V j g p p j j j k j j j B j k k k k k k j j j j j j j j j j B j j p i p i i p p p s s B B B s s c J j J U U U i.p.p.a.N.a.p.p.sXHXJXFX{.}.mX X X$X$X*X*X%X|. X X[.OXOX$X$X%X|. X].].].].].[. X|.%X$X$XoX].I.S.[.[.[.$X X[.[.[.[.[.$X[.[.[.[.OX&XmX&X@X{.I.I.I.{.I.` g g g g g g g f f f g g g g f g g g f f 5 5 5 5 f f f f 5 f f f f 5 5 f f f f 5 f f f f f j J I I Y t.V.k.t.I G I Y I I Y h.T Y T T T T Y Y I I G Y Y h.Z.Z.Z.Z.Z.Z.Z.Z.Z.Z.Z.Z.Z.I I M.Z.Z.Z.M.o.F Y M.Z.Z.Z.Z.Y Y Y M.Z.Z.Z.Z.Y Y Y Z.Z.Z.Z.r.r.t.K.Z.K.K.K.U.U.U.U.U.T.Y.Y.Y.2X8XT.U.U.U.U.U.Y.J.k.k.k.k.k.k.k.k.k.k.k.c.c.c.c.r.f f f f f f f g g g g g g g g b b b b b n b f f n g g g f f f f f B c.U.T.U.U.Y.Y.v.v.v.U.U.J.J.j.c.c.c.v.b.v.c.c.c.c.c.c.c.c.c.c.c.c.c.c.c.c.j.c.c.b.L.L.b.J.J.b.b.b.b.b.b.b.b.b.b.b.b.b.b.b.b.c.c.c.c.c.c.c.c.c.c.c.k.k.k.k.k.k.k.k.k.k.j.k.j.j.j.h.h.h.t.t.r.Y t.t.T Y T T Y Y Y H Y I I Y Y Z.Z.B.B.B.T Y M.B.A.A.Z.Z.Z.Z.Z.Z.i.i.I.F.F.F.I.C.i.N.A.Z.Z.Z.Z.Z.Z.M.Y I J f f f f f f 5 5 f f f 5 f f g f f 5 f f f f f f f f f f f f f f f f f f f f f f f 5 f f 5 f g n V Q &.,.,.Q Q Q Q / ' ' ' ` ` / ] ] ] ] ] ,.S.S.' ` ' ] d.).[.[.].`.`.[. X[.[.[. X[.`.d.] ).[._._._.[.[._. X%X%X$X X X_._. X$X%X%X%X%X%X*XBXGXLXLXJXJXBX*X*X*X*XBXBXBXBXBXBX*X%X%X%X$X X$X$X$X$X$X&X&X&X$XXXXXXXXXXXXXXXXX.X.X.X.X.X$X$X$X&X&X$XOXoXI.H.H.s.s.s.s.s.i.t.i.t.t.t.t.t.y.y.t.t.t.t.t.U t.t.s.s.y.y.r.I G G I r.V.M.M.M.M.M.M.M.M.M.M.` o.s s o.o.o.o.X.B p p / &.;.,.;.g 1 < C } Z / ;.K B B X.X.X.} 0 z z } { } @.Q } } M Z Z Z } ",
"| |  . .{ #.Q ! 2.2.! ! r r r m m n b c z p B Z >.*.:.:.>.b 3 Z *.{ } } } } } %.Z , , %.} } } *.b 1 b *.X.X.%.%.%.%.%.g g V B n p p p n j k k k j j B k k k k k j k j j j j s j j j j j j j j j s i i i p p p p s c B c s s c B S S ) ) p.p.f.d.d.f.d.f.f.d.`.}.}.}.mXVX[.mXBXBX|.|.%X*X*X*X$X&X$X$X$X X$X&X&X$X[.[.].].].].[.[.$X&X&XOX[.[.[.[.[.[. X X X[.[.[.OXOXOX[.[.[.mXmXmX&X&X{.{.S.V g f g n g g g g f f g g g f f f f f b f f f f 5 5 5 5 f f f f f f f f f f f f f f f f 5 5 5 f f f f J I I t.h.k.t.Y Y Y T T T Y Y T T L L Y Y Y Y F G I h.T.Z.Z.Z.K.Z.Z.Z.Z.Z.Z.K.Z.I Y D.D.Z.Z.D.M.I Y D.Z.Z.Z.D.Y Y Y M.Z.Z.D.D.Y Y Y Z.Z.Z.Z.r.r.h.T.K.Z.Z.K.K.K.K.Z.K.U.T.Y.U.U.T.Y.U.U.U.U.Y.U.J.k.k.k.c.k.c.c.c.c.c.k.k.c.c.y.f f f f f f f g g g f f f f f f f f g g g n b f f b f f f f f f f f f h.U.T.c.b.U.T.c.v.v.v.v.c.c.c.c.c.v.c.b.v.c.c.c.v.v.v.c.c.c.c.c.c.c.c.c.c.c.c.c.c.c.c.c.c.c.c.c.c.c.c.c.c.k.k.k.k.k.k.k.k.k.y.k.y.y.y.y.y.y.y.y.y.y.y.y.y.y.r.r.r.r.r.r.r.h.h.h.t.t.T T T Y T T T Y I T ` T Y L L L L L L Y Z.B.B.B.F.-.T B.F.B.Z.Z.K.Z.Z.K.Z.T t.T.F.F.F.T.Z.t.M.F.B.B.Z.Z.Z.Z.Z.L B f f 5 f f f f f f 5 f 5 f f f f f f f f 5 5 5 5 f f f f f f f f f f f f f f f f f f f 5 5 f f 5 5 5 5 5 m Q W Q Q Q / ( ;.' ` ' ] ,.,.2.2.2.,.,.;.%./ ] `.`.`.`.`.`.[.[. X X[.[.[. X[.`.d.] ).[._._. X X X_._._.XXXXXX%X_. X X%X%X%X%XBXBXJXIXJXBXBXBX*X*X*XBXBXBXBXBX*X*X*X*X*X*X*XXXXX*X*X&X&X&X&X&X&X&X$X_._.XXXX.X.X.X.XXXXX$X$XOXOXOXOXOXOX].oX].f.H.H.C.s.s.s.s.i.i.t.t.t.t.t.t.t.y.t.t.t.y.t.y.t.t.s.s.y.y.r.r.G I I r.K.V.Z.Z.Z.M.M.h.h.:.:.Z.Z.F F M.M.o.X.:.L i z >.A.A.A.A.k p 1 C X.X.&.;.n g g Z Z Z M # # & @.N N N N N N M N } { N ",
"O.| | | |  .{ #.#.Q ! ! ! ! E ! ! Q m n b p n Z >.C z Z >.z p } *.3 < < , , , @.N < < *.M < z *.M < M *.z 1 3 p p p p f g n B B p p g n k k k k j j B k j j k j j j j j j j s j j j j j k k j j s i i i p p s s s s c c s s B c J J i.p.p.p.f.f.).).).f.f.d.].[.&X[.&XmX XmXBXJXBXBX*X*X*X*X*X*X*X*X$X$X$X$X$X$X$XOX{.{.].].].].[.OXOX$X$X[.[.[.[.[.[. X X X[.[.[.[.[.[.[.[.&X&X X X$X[.' g n g f g n g f g n f f g g f f f f f f b f f f f 5 5 5 f f f f f f f f f f f f f f f f f 5 5 5 5 f f f f f j I y.h.h.t.Y Y T t.T T T T L Y Y Y Y Y Y H G G t.D.h.Y t.t.t.Y T Y Y Y Z.Z.I I Z.Z.I I D.M.I T D.o.G h.D.Y Y Y Y Y r.Z.D.Y Y Y Y Y r.r.r.r.h.T.V.r.r.r.r.r.r.r.r.r.k.k.k.j.c.c.k.y.y.y.y.y.y.u.u.k.k.k.k.c.c.k.k.k.k.c.c.j f f f f f f f g g g g f f g f f f f g g g b b f f b f f f f f f f f f L U.T.v.c.U.T.c.v.b.J.J.b.b.b.c.c.b.b.J.b.b.J.b.J.J.b.b.b.c.c.c.c.v.v.j.c.c.c.c.c.c.c.c.G.G.c.c.c.k.I B f f f g f f f f f f f f f f f f f f f f f f f f f f f f f f f f f f f f f f f 5 f f f f f f f f f f 5 5 5 f f 5 5 f f f f f n g b C Z B B B J J J -.` J U B.C.i.M.T.M.T M.D.Y J I I I I I J f f f f f 5 f f f f 5 f f f f f f f f 5 f f f f 5 5 f f f f f f f f f f f f f f f f f f f 5 f f 5 5 5 5 5 5 5 5 5 n m / ( ' ' ' ] ,.,.,.,.] ] ] ' &.&.,.] S.`.`.`.`.[.[.[.[.[.[.[.[. X[.`.`.] ).)._. XXX%X X_._._.%X%X%X_.%X%X_.%X%X*XBXBXBXJXBXBX*XBX*X*X*XBXBXBXBXBX*X%X%X*XXXXX%X*X%X%X*X*X$X$X$X$XXXXX&X$X_.XXXXXX.X.X.X.XXX$X$X$XOXOXoXoX].].I.I.I.f.H.H.f.s.s.s.s.s.i.t.t.t.t.t.t.t.y.t.t.y.y.y.y.t.t.s.s.y.y.y.r.I I I r.Z.r.G G G G G F F F F h.M.F F M.o.c c :.C i z ;.^ V / >.j , > > , * Z %.3 3 3 < 9 9 7 9 7 q +.M 9 q q q q q . X # # ",
"O.O.O.O.5.O.O.|  .{ @.Q ! ! 2.2.2.! Q r m n b Z >.C z C >.z l } >.p 3 3 2 2 2 %.} 0 9 *.C 2 z *.M < M *.z 1 3 p p z p p f n n B p f n m V V V V j j V j j j j j j j j j j j j j j j j j k S K B B p i i p a s s s s c c s s j c J U p.p.p.p.f.).).).).).f.d.OX&X*X[. X$X$X*XBXJXLXJXBX*X*X*X*X*X*X*X*X$X$X$X$X$X&X&X@XOXOX].].].I.].[. X|.&X$XOX[.[.[.[. X$X$X$X[.[.[.[.[. X&X&X[. X[.W h m n g g g n g f g n f f g g f f f f f f f f f f f 5 f p p f f f f f f f f f f f f f f f f f 5 f f p p p f f f f J t.k.h.t.Y t.t.t.T T T T L L Y Y Y Y G G G Y Z.h.t.h.t.t.Y T Y Y Y Z.Z.I I Z.M.I I F.M.Y h.D.h.Y h.D.Y Y Y Y Y Y Z.D.Y Y Y r.Y r.r.r.r.h.T.V.t.y.y.r.y.r.y.t.r.k.k.k.r.k.k.k.y.y.y.y.y.y.y.y.u.y.u.u.k.c.k.k.k.u.k.t.f f f f f f f b n n n n n b b g g g g g f f b b f f b b f f g f f f b b Z T.T.b.b.U.T.c.b.T.T.T.T.T.U.c.b.T.T.T.T.T.T.T.T.T.T.T.T.b.c.c.c.c.v.j.c.c.c.c.c.J.J.J.J.J.G.G.J g f f f g g g g f g f f f f f f f f f f f f f f f f f f f f f f f f f f f f f f f p f f f f f f f f f f f 5 5 f f f f 5 f f f f f n f f f g 5 f f f f f f f f f n f B T T.M.Y h.Z.I F F J I I Y B 5 5 f f f f f f f f f f f f f f f f f f f f p p 5 5 f f 5 f f f f f f f f f f f f f f f f 5 f f 5 5 5 5 5 5 5 f f f 5 5 m ( ' ' ] 4.,.,.,.] ] ] ( ] ,.,.,.,.S.S.`.[.[. X[.[.].[.[. X X[.).`.] ).)._.%X%X%X%X X_._.%X%X%X_.%X%X_.%X*XBXBXJXBXBX*X%X%X*X*X*XBXBXBXBX*X*X%XXX%X*X_._.$X*X%X-X*X*XXXXXXXXXXXXX&X$X.X.X.X$X[.[.[.OX$X$X$XOX[.].I.I.I.I.f.I.H.C.H.H.s.s.s.s.s.s.t.t.t.t.t.t.t.t.t.t.t.y.y.y.y.y.t.s.s.y.y.y.r.r.I I r.Z.r.I I I I I I G F F h.M.A c :.o.c l :.C 2 z =.V g Z =.3 > , , , 2 Z } 9 9 9 q v [ [ [ [ [ <. .[ | [ [ | | O     O ",
"O.O.+.+.+.O.5.5.5.O.+.+. .{ @.Q 4.4.4.4.4.1.1.1.1.Z b Z %.z z X.:.z B P %.Z Z >.%.0 0 *.C 0 z =.*.=.=.*.z < p X.:.>.>.%.p n V >.>.>.>.,.A.A.A./ j j B j j j j j j j j j j j j j j j j j k K K K B s a s c c s s s s c c s s j F I U p.p.p.p.f.).).a.;.] d.).OX$X*X).)..X$X%X%X*XBXJXLXIXJXBXmX*X|.|.*X*X*X*X*X&X$X[.OXOXOX@X[.}.}.].].].].[.$X$X*X$X$X X X|.*X*X*X$X$X[.[.[.&X&X$X`.h h h m m m n n n f f g g f f g n n g g g f f f f f f f f f f B J I I I I J J B g f f f f f f f f 5 f p p p p p f f f f f Y h.V.V.t.t.T h.h.h.o.T Y Y Y I I G Y G Y Z.T Y h.Z.T.F.F.t.Y Y M.Z.Y I Z.Z.Y Y Z.M.T h.F.h.I h.D.D.D.D.F.Y Y M.Z.r.r.D.D.D.U.D.U.U.T.T.V.t.V.T.T.T.T.T.t.r.k.T.T.T.T.T.T.T.T.T.T.T.T.J.k.k.G.G.k.k.c.c.c.k.c.c.B f f f f f f g n g B T t.h.k.k.k.k.k.Y.T.V.V.T.K.k.k.U.V.Y C b f f f b f b b.b.b.b.U.T.v.b.T.Y.J.b.T.U.c.b.T.U.b.b.b.b.b.J.J.b.J.b.c.c.k.c.c.v.j.c.c.c.c.G.J.J.J.c.G.c.B g g f f f f f f g g g f f f f f f f f f f f f f f f f f f f f f f f f f f f f f f f p p f f f f f f f f f f b b n n n n b b f f f f g f f f n 5 f f f f f f f f f g f 5 f Z Z.D.D.D.L F F M.B.B.B.n f f f g g g g f f f g g f f f f f 3 5 f f f f f f f f f 5 f f f f f f f f f f f f f f f f f f g 5 5 f f f f 5 5 f f 5 g 5 5 m W ] ,.,.,.,./ -.' ] ] ] ] ;.' ] d.[.[.[.`.`.].[. X X X X X).).] `.). X_._._.%X$X X_. X%X*XmX%X%X%X*XBXBX*X|.%X%X%X*X*XBXBXBXBX*X%XXX%X*X*X*X$X*X%X%X*XBX%X%X*X*X*X*X&X$XXXXX&X$XOX[.[.[.[.].).[.OXOXOX].].f.I.I.I.I.H.H.H.H.H.H.s.s.s.s.s.s.t.t.t.t.t.t.t.t.t.t.y.y.y.y.y.y.t.s.s.s.y.y.r.r.G G r.Z.r.Y G h.Z.Z.K.y.r.e.y.o.x c -.Z 2 * Q 5 * 0 *.e q { <.<.8.8.,XO.5.6.,X5.O.,X,X,X,X,X,X,X,X8. .[ | <.<.<.,X8.8 o = ",
"+.+.O.O.O.O.O.O.O.+.+.O.O.O.|  .1.1.,.4.4.4.4.4.4.! Q Q m b z X.:.z z *.*.z z =.} 3 3 =.C < 0 Z Z Z } } 0 2 p C P X.:.%.p g n %./ %.&.&.;.;.A./ j j j g j j j j j j j j j j j j j j j j j S K K B s s s s s j j j j j j B j j J U i.s.p.p.p.f.f.f.s.i.i.a.f.).[.*X[.[.OX%X%X%X*X*X*XBXBXJXJXJXJXBXBX%X%X*X*X*X*X*X*X$X$XOXOX[.[.[.[.[.[.oX[.[. X$X$X$X$X$X$X*X*X*X*X$X$X$X X&X}.( h h h h h m m m m n g f g g f f f g g g g g f f g f f f g J I r.r.y.y.y.y.t.y.y.y.y.y.T I J B f f f f f f f 5 5 5 5 f f f f f Y h.K.V.M.T T T t.T T T Y Y I I I G G Y Z.Y I Y M.Z.Z.Z.t.Y Y Y Y Y Y D.Z.Y Y T T T h.F.h.Y h.Z.Z.Z.Z.F.Y Y Y Y r.r.K.K.Z.Z.Z.Z.Z.Z.Z.k.r.V.T.K.Z.Y.T.r.h.k.Z.Z.K.K.K.J.K.K.K.K.K.T.J.y.G.T.G.y.y.y.k.k.k.k.k.f g g f f f f g -.V.c.c.c.c.c.c.c.G.G.T.T.J.J.T.T.b.c.T.U.c.b.Y.C f g b f f j.b.b.b.U.Y.b.b.Y.Y.b.c.T.U.c.b.T.U.v.c.c.b.c.b.b.c.v.c.c.c.c.c.c.c.c.c.c.c.c.G.G.G.G.c.c.t.g g g f f f f f f f f f f f B L Y Y Y Y Y Y Y Y Y Y Y Y Y Y Y Y Y Y Y Y L T T T T L L F L L T T U P U / P L J -.-.P P -.-.` / P P J K K P P -.;.J B Z b 5 f f f f f g f f f f n M.h.h.H F F o.M.M.;.g f f f f g B P P P N.B./ J J J J B B J F J J J J J K K K K K K K K K K K K K K K K K K V n n n f f f f f 5 5 5 5 5 5 g g 5 5 5 g m ( ] ] ] ( ;.;.] ] ] ] ] ,.,.S.S.S.S.`.`.).[. X X X X X[.).d.`.). X X%X%X%X%X$X$X X|.BXJX*X*X%X*X*X*X*X%X*X*X*XBXBXBX*X%X%X%X%XXXXX$X$X X X%X%X*X-XBX%X%X$X$X$X$X&X$X.X.X&X$XOXOX[.[.).).).[..X].].R.I.H.H.H.H.H.H.H.H.H.H.H.s.s.s.s.s.s.y.i.t.t.t.t.t.t.t.y.y.y.t.y.y.y.y.s.s.s.y.y.y.I I I t.K.t.G G h.h.h.h.I A j j p 2 2 %.X.z v [ [ | +.,X+.+.+.+.+.+.8.8.[ [ t q q q  .} { { N N N N N 7 = 0 #.N N { ,X[ 7 X ",
"<.+.+.5.O.O.O.5.O.O.O.O.O.O.5.+.,X<.#.#.#.! ! ! ! ! ! ! ! Q N =.>.b b *.*.z z *.Z 3 2 *.C < , < < < < < < 2 p p p z %.%.p g n n p b n V V W A./ g g j g j j j j j j j j j j j j j j j j j k K K B j s s s j B j j j j S J B B K i.i.s.s.p.p.f.I.f.s.s.s.s.f.f.).OX).[.$X%X*X*X*X%X%X*X*XBXBXJXJXJXBXBX*X*X*X*X*X*X*X*X&X&XOXOX[.[.[.OXOXOX[.[.[.$X$X$X$X$X$X$X$X$X$X$X$X$X$X@XW h h h h h h h h h h h g g g n f f f f f f n g f f g g J I r.t.t.r.r.t.y.y.t.y.y.y.y.y.y.t.y.y.y.r.I J B f f f 5 5 5 5 p f f f f f I V.V.V.i.t.t.t.T T T T I I I I G G h.K.Y G I Y Y r.t.Y Y Y Y Y Y Y D.Z.T T T T T h.D.h.Y Y Y Y Y M.F.t.t.Y Y r.t.T.D.t.t.r.r.r.r.r.r.h.V.T.k.y.J.K.r.k.k.r.r.j.k.y.r.y.y.y.y.k.T.J.y.G.T.G.k.y.y.k.k.k.k.t.f f g f f f g V.T.K.J.J.J.c.G.G.G.G.G.T.T.J.J.T.T.U.L.T.U.c.b.T.L.L g b b f h.L.b.b.U.T.b.b.Y.Y.b.c.T.U.c.b.2XU.L.L.L.U.U.L.L.L.L.J.c.c.c.c.c.c.c.c.c.c.c.G.c.G.G.c.c.B f g g f f f f f f f f B t.k.k.k.k.k.k.k.k.k.k.k.k.k.k.k.k.k.k.j.y.j.j.j.k.k.k.V.h.h.j.r.r.h.h.M.M.M.M.N.M.T Y D.Z.T T ` i.t.T T T T T T ` i.A.F.T T D.B.J f f f f f g f f f 5 5 c F F F F J J I J / g f g B K U T t.i.M.C.T.N.Y Y Y U I I I G I U U T U t.t.t.t.T T t.t.t.t.t.t.t.t.i.i.i.i.i.` ` ` / W g f f 5 5 5 5 5 5 g g g 5 5 5 g g g W ( ( ] ,.;.;.] ] ] ,.] ] ] ,.S.`.`.`.).[.[.[. X X[.).d.).). X$X%X%X%X%X%X%X|.|.*XJX*X*X*X*X*X*X%X*X*X*X*X*X*XBX*X_._._._._._._._._._.%X%X*X-XBX%X$X X$X$X$X&X&X[.[.&XOX[.[.[.).).).).].].R.R.f.f.H.H.H.H.H.H.H.H.H.f.C.s.s.s.s.s.s.y.i.y.t.t.t.t.t.t.y.y.y.t.y.y.y.y.s.s.s.y.y.y.r.I I t.K.t.I I G F c a p p z b v v v <.+.[ | | | | O.,X+.| [ [ [ q { <.q 7 7 ; ; = { { X X = = # # O - # 0 *.w : w 8.| [ # ",
"$.<.+.5.O.O.5.5.5.5.| | O.+.+.+.,X,X+.+.+. .#.#.,.2.2.2.2.! ! ,.1.Q Q =.=.M b =.} 3 3 *.Z 3 < < < 0 0 0 0 z b z p z %.%.p n V V b n m Z m V ,./ b B B p j j j j g g f j j j j g j j j j j j j j j j j s j B B B B S K K K K K ) p.p.s.f.p.p.I.I.I.f.f.f.p.s.f.f.].).XX%X*X*X*X*X*X*X*X*X*X*XmXGXGXLXLXBXBX*X%X*X*X&X*X*X*X&XOX[.oXoXOXOX X&X&XOXOXOXOX&X&X&X$X X[.[. X X$X`.V m m m g h h h g g g h h h h g n g g f f f g n g g J B.Z.t.t.t.t.t.r.r.r.y.t.t.t.t.t.y.y.y.t.y.y.y.y.t.r.r.I I B f 5 5 f f f p f f f f I V.G.K.h.t.t.T T T T Y I I Y I I h.D.Y F G Y r.t.t.t.Y Y Y Y Y Y D.Z.T T h.h.T h.F.M.Y Y T Y Y Z.T.h.h.h.h.t.t.T.T.M.h.h.h.r.r.h.h.j.Z.T.k.y.J.K.r.k.h.t.t.k.k.k.k.k.k.k.u.k.T.J.k.G.T.G.k.k.k.k.k.k.k.t.f f f f f f t.J.T.T.T.T.T.J.J.G.c.G.G.J.K.G.G.T.(.T.T.T.J.c.b.L.b.k.n n n b Z.T.b.v.U.T.b.b.Y.Y.b.c.T.U.c.b.T.2XT.T.T.T.T.T.T.T.T.T.b.c.c.c.c.c.c.U.J.c.b.J.J.c.c.c.k.f f f f f f f f f f f J k.k.k.k.k.k.k.k.k.k.k.k.k.k.k.k.k.k.k.j.y.r.r.y.h.k.k.k.h.h.h.j.h.h.h.M.M.M.M.M.M.T T T D.Z.o.T T ` -.M.M.M.h.h.h.o.T A.F.T t.F.F.T Y P f 5 f g f f f 5 5 B H L Y I L Y I U P g f U xXLXLXLXLXPXLXLXLXLXLXLXxXI U LXLXLXLXxXT t.t.t.t.t.sXLXLXLXLXHXt.t.t.LXLXPXxXi.i.M.` ` ` ' / / / g 5 5 5 5 5 5 5 g 5 5 5 5 g g 5 5 f W ] ,.' ;.] ] ' ] ] ] ] ,.`.`.2.] S.[.[.[. X X X).d.).[. X$X%X%X_.|.*X*X|.|.|.BX*X*X*X*X%X%X%X*X*X*X*X%X%X*X*X X X_._._._._._._.%X*X*X%X*XBX$X$X$XOXOXOX&XOX[.[.@XOX].].).).).).).].f.f.f.f.H.H.H.I.H.H.H.H.H.H.f.s.s.s.s.s.s.s.s.i.y.t.t.t.t.t.t.y.y.y.y.y.y.y.y.s.s.y.y.y.y.r.r.r.t.K.t.r.U K k d 4 3 9 q [ O.O.O.,X;X5.5.O.| [ v *.z - % # # $ w @.* * * o O # @.} 9 9 q q 9 9 3 [ v C *.{ w e <.| O.7 ",
"4.1.6.5.+.+.+.5.O.O.O.5.5.5.5.5.,X6.6.6.6.5.5.6.,X,X,X,X'.2.2.4.4.2.! ! &.N N >.%.B B >.>.=.*.=.*.*.*.*.*.*.>.=.p z %.>.=.>.>.>.>.>.>.%.m V >.>.>.>.>.C j j j j j g g j j j g g j j B B B B j j k B B B B J K K K K K ^ ) ) ) _ p.p.s.s.p.p.I.I.S.s.C.a.a.f.f.d.d.).).)._.XX%X*XBXBXBX*X*X*X-X%X*XBXBXLXLXLXJXBX*X%X*X*X*X*X*X*X*X$X[.oXoX{.[.OX$X%X$X$X X X$X$X$X$X[.[.] g m m m m m h h g g n m m g g m m m m m m n n n ,.dXxXxXFXxXxXxXT.t.t.xXxXxXxXxXT.t.T.xXxXxXxXxXxXxXxXM.y.t.t.r.r.r.I B f f f f f f f f f f Y t.K.V.V.M.t.i.t.t.T Y Y Y I I Y Z.Y G h.D.Z.Z.K.F.Y Y Y Y Y Y D.Z.T t.F.T.F.F.F.M.t.h.M.h.T Z.T.T.T.T.D.T t.T.T.T.T.T.Z.r.r.h.T.T.T.T.k.r.k.T.y.y.Z.T.T.T.Y.T.T.T.T.J.y.k.K.k.y.k.T.k.y.u.y.k.k.u.u.T f f f f b %.xXxXxXFXnXAXHXT.c.T.xXxXxXnXnXc.c.kXAXAXFXnXxXxXnXnX2Xc.r.f g g M.T.c.v.U.T.b.v.Y.Y.c.c.T.U.c.c.b.b.b.b.b.b.b.b.b.b.b.b.c.c.c.c.c.c.c.T.U.c.c.b.b.b.c.c.k.f g f f f f g n n n >.xXxXxXxXxXxXxXxXxXk.k.xXxXxXxXxXT.k.Y.xXxXxXxXxXV.k.V.zXxXxXxXzXh.h.Z.xXxXxXsXM.M.M.xXxXxXFXFXxXxXxXxXxXxXFXFXFXFXFXxXxXFXFXxXxXFXsXT Y B.n 5 f f f f f f f n Z.D.D.D.D.F.T T V n B.F.sXFXFXFXHXFXxXxXFXFXFXIXFXt.I UXHXxXxX{.t.i.t.i.i.i.lXUXxXxXLXLXi.t.t.xXxXxXlXs.i.` ` ` -.;./ ( ' ,.Q n 5 g g g 5 g 5 g 5 5 5 5 5 5 g f g W ] ] ] ] ] ] ] ] `.`.`.`.] ] `.`.`.].[. X X).d.).[._. X|.*XBXJXJXBX*X%X%X*X%X%X_.|.|.|.%X%X%X%X%X_._.*X*X*X%X%X_._._._.*X*XBX-X*X%X*X-X-X-X&X@X@X@X@X@X].].@X[.].).).].f.f.f.f.f.f.p.f.f.C.G.H.H.f.H.G.H.f.f.s.s.s.s.s.s.s.s.i.y.t.t.t.t.t.t.y.y.y.y.y.y.t.y.G.s.s.y.y.y.r.y.I Y N.5 * w <.<.,X<X<X:X:X5.| [ q } M $ $ @.@.@.@.@.0 - < 0 - < M %.} } } } 9 l *.<.<.<.<.X.l l C %.%.*.>.z 9 { &.v [ <.",
"<.4.9.8.6.6.6.O.6.5.5.5.5.5.6.6.6.6.1.+.5.5.z.;X<X;X;X,X<X<.=.1.'.! ! 2.! ! ! 1.=.N m X.P P Z Z Z C C M b b } =.3 z M C C C Z Z V C >.Z n m Q Q V / >.P V V V g g g j j j j j j B j j j j B B B V V K K g V P P ^ ) ^ ^ / ) p.p.p.p.p.s.s.p.I.I.C.s.a.d.f.f.f.f.f.).).)..X.X.X.X$X*X*X*X*XBXBX*X*X*X*XBXBXJXJXJXJXBXBX*X*X*X*X*X*X*X&X&X[.[.[.[.OXOX$X$X$X$X$X$X$X$X$X] g g h m m h m h h h h h g g g g m N m m m m n ^ sXUXUXUXUXUXUXUXUXxXt.t.UXUXUXUXUXsXs.sXUXUXUXUXUXUXUXUXV.y.y.y.y.y.t.r.I I f f f f f f f f f f Y t.V.V.V.M.t.t.t.t.t.Y Y Y I T Z.Y G h.Z.h.t.Z.F.t.r.Y Y Y Y K.Z.T T T.Z.M.M.M.h.t.Z.T.h.t.M.Z.Z.Z.D.F.T t.Z.Z.Z.Z.T.Z.r.r.j.k.V.V.V.h.r.Z.T.r.r.Z.T.V.V.V.G.G.c.Y.K.y.y.y.y.y.k.T.k.j.j.k.k.k.u.u.Y f f f f m '.UXUXUXUXUXUXUXkXc.kXUXUXUXUXUXc.c.xXUXUXUXUXUXUXUXUXzXc.k.f f f M.T.c.c.U.T.c.c.Y.Y.v.c.T.L.c.v.v.v.c.v.v.c.c.c.c.v.c.c.c.c.v.v.v.c.c.T.U.c.c.c.c.c.c.c.k.f f f f f f g m m / LXUXUXUXUXUXUXUXUXPXu.u.PXUXUXUXUXzXy.T.UXUXUXUXUXK.V.V.HXUXUXUXLXh.h.K.UXUXUXFXh.h.Z.UXUXUXUXUXUXUXUXUXUXUXUXUXUXUXUXUXUXUXUXUXUXUXxXT I Z.-.f f f f f f 5 f f T T T T B.F.T U g V N.M.i.N.Z.K.T.C.t.Y h.M.i.LXFXt.U UXlXi.i.t.t.t.t.t.t.i.lXUXt.t.xXLXt.i.i.i.i.s.s.s.i.` ' ;.;.;.( &.&.&.( &.Q h g g 5 5 g g 5 5 5 f g g 5 5 5 5 h ( ] ] S.] ] ] ] `.`.`.`.`.`.`.`.`.}. X X).`.).[. X|.BXBXBXBXBXBX%X%X%X%X%X%X%X|.%X%X%X%X%X%X_._._. X X X X|._._._._.*X*X*X*X*X*X%X%X$XOXOXOX[.OXOX[.].].@X[.].).f.f.f.f.f.f.f.s.s.s.f.f.s.H.H.H.H.H.G.H.H.G.V.s.s.s.y.y.y.y.y.y.y.y.y.t.y.t.t.t.y.y.y.y.y.s.G.G.k.y.I A u p C <.+.| +.,X6.+.6.<.[ [ q 9 9 7 } M # & @.N 0 0 0 ; - 0 @.9 - 0 v v C X.*.9 l C { C C :.} l 1 l b z z M 0 9 { %.9 [ 6.",
"+.1.0.0.6.6.5.O.6.5.6.5.5.5.6.6.6.8.4.6.5.5.;X;X<X6.5.;X<X5.+.,X2X&.,.! 2.2.! 4.,.Q Q C V m n n b z p p 2 2 C =.3 z z z z p p p p z >./ m m m g f V >.P V V V g g g j j j j j B c s s j j B V V V K K ^ g V P K ) ) ) ) K ) p.p.p.p.p.s.p.p.].I.S.f.f.f.d.f.f.f.f.).).).].)..X.X.X$X$X*X*XmXBX*X*X*X*X*X*XBXBXJXJXJXBXBXBX*X*X*X*X*X*X*X|. X[.[.[.[.OX$X&X$X$X$X$X X] m h h h h h h m m h h h h g g g g m N m g ( fX].f.MXUXi.s.t.T.C.t.PXxXt.t.UXkXy.T.UXsXs.sXUXC.t.t.y.y.t.t.y.y.t.t.t.y.y.r.r.r.I f f f f f f f f f f I V.V.V.V.M.t.t.t.t.t.Y Y I T D.Y G h.D.Y G h.F.T Y Y Y Y Y K.Z.T o.F.Z.t.t.t.t.h.Z.T.M.t.t.T h.h.K.T.t.h.h.M.M.h.T.Z.r.r.r.r.r.r.r.r.r.Z.T.r.r.Z.K.r.y.y.j.y.r.Y.K.y.y.y.y.y.k.T.k.j.j.j.k.k.u.k.Y f f f f m 2Xk.k.k.k.k.T.UXkXc.kXUXT.Y.xXUXY.Y.FXPXc.c.U.U.U.U.UXzXc.b.B b b M.T.c.c.U.T.U.U.T.Y.v.c.Y.Y.U.U.U.U.U.U.U.U.U.U.b.v.v.c.U.U.U.U.U.U.U.T.U.v.c.c.c.c.k.k.r.f f f f f f b m g B j.j.j.j.j.j.j.j.HXPXu.u.PXxXj.j.UXzXy.T.UX2Xj.2XUXK.V.V.k.k.h.xXLXh.h.M.M.M.M.h.h.h.Z.UXsXM.M.M.M.M.h.M.M.B.T.M.h.Z.F.M.o.F.T.M.i.i.T Y I Z.M.b f f f f 5 3 3 5 J J J I M.F.T U g T T U T i.C.V.T.M.I Y Y Y I LXFXi.T UXsXi.t.t.t.t.i.t.t.i.lXUXt.t.xXLXt.t.i.i.i.s.s.s.i.' ;.,.,.,.,.&.&.&./ &.,.4.Q g 5 5 g g 5 5 g f g g 5 5 5 g g g ( ,.S.] ] ] ] 2.`.4.`.}.}.2.`.`.`. X X[.`.).[. X*XBXBXBXBX*X*X*X%X%X%X%X%X|.|.%X%X%X_._._._._._._._._._.|. X_._. X%X*X*X*X*X*X%X$X[.[.[.[.[.[.[.].].].@X[.].).d.d.f.f.f.p.s.s.s.s.s.s.s.s.G.G.G.G.G.G.s.s.s.s.s.s.y.y.y.y.y.y.y.y.y.y.y.t.t.t.y.y.y.y.y.s.s.s.t.I s p 0 q { 8.6.O.6.,XO.[  .*.< , & ; , , %.Z < < %.M < - - - < z *.9 < 9 l l v X.:.l l l l 1 1 *.C 9 1 1 1 1 1 1 < 9 C *., 9 6.",
"8.<.1.0.9.6.6.6.5.6.,X8.6.6.6.;X8.1.0.6.6.6.6.6.<X6.6.8.<XO.5.;X<X6.+.<.=.,.4.4.4.2.2.! ! #.} { C C C C B c Z =.B C C C V V m b b b >.;.^ V j p c P >.W V B B j g g j j j j p s p p j j j V V V V V J J ` K S j i.` i.U I U U t.s.s.f.s.s.p.].].]..X).).f.f.f.).).).).).).).].R.).)..X_.$X%X*XBXBXBXBX*X%X%X-XBXBXJXIXIXJXBXBX*X%X%X*X*XBX-X*X*X[.[.].{.OXOX$X*X$X( m m h h h h h h m m h h h h m g g g m N ^ `.mXUX[.I.MXUXM.V.C.T.C.t.PXxXy.t.UXkXy.T.UXsXs.sXUXC.t.t.y.y.y.t.y.y.t.t.t.t.y.t.t.r.r.I f f f f f f f f f f I t.V.K.V.M.t.t.t.t.T I I t.D.t.G h.K.Y Y h.D.h.h.h.h.h.h.T.Z.o.M.F.Z.M.M.M.M.h.Z.T.Z.M.M.M.h.h.K.T.M.M.Z.Z.M.M.T.Z.r.r.j.k.k.k.k.h.k.Z.T.r.r.Z.U.r.y.y.y.y.y.T.K.j.y.j.k.k.J.Y.k.j.u.u.u.u.u.u.r.f f f f m sXk.c.Y.c.k.T.UX2Xk.kXUX8XT.xXUXT.T.HXPXc.c.T.T.T.T.UXzXc.J.C b b -.T.c.c.U.T.T.T.T.Y.c.v.T.Y.T.T.T.T.T.T.T.T.T.T.b.v.v.v.T.T.T.T.T.T.T.T.U.c.c.c.c.k.k.k.r.f f f f f f b m g I j.j.j.j.j.j.j.j.HXPXu.u.PXxXj.j.UXzXy.Y.UX2Xj.2XUXK.V.V.k.j.j.xXLXh.M.V.Z.Z.Z.Z.M.M.F.UXsXN.N.N.M.M.B.Z.M.B.T.Z.M.Z.T.M.o.F.T.M.M.M.M.h.o.D.M.B f f f f f f 5 5 J T T T M.F.` F.F.UXUXUXUXUXUXUXsXZ.I Z.F.I Y PXFXi.t.UXsXi.i.F.C.t.{.UXUXUXUXUXi.i.xXLXt.t.LXUXUXUXUXlXi.S.UXUXUXUXUXUXUXUXUXUXUXUX'.( m g g g 5 5 5 g g 5 5 5 f g g g h ] ;.] ] ,.,.2.2.2.4.`.}.`.`.`.`.[. X[.`.).[._.mXBXBX|.|.|.*XBX*X*X%X%X|.|.|.|.%X_._._._._._._._._._._.|. X X%X*X*X*X*X*X%X%X$XOX[.[.[.[.[.[.[.].].].@X[.).d.d.d.f.f.p.p.s.s.s.s.s.s.s.s.V.G.G.s.s.G.s.s.s.y.s.s.s.s.i.i.i.i.i.s.y.y.t.t.t.t.T t.i.s.G.s.t.A * o 8 t 6.;X;X<X .t t #.= X b A.L C C z z v :.X.l l :.} z z v v v C :.v v [ { l l } *.v z z l 1 1 *.C 1 l C C C C v z z C %.% - { ",
"8.<.1.1.0.0.8.5.<X<X<X<X<X<X;X8.9.0.0.8.<X<X<X<X<X>X;X;X,X,X6.,X<X5.5.5.<X<X<X<X1.,.! 2.4.4.4.4.4.F.A.A.C B X.>.>.>.>.>.>.>.>.>.>.=.1.,.] ( W C c C / ^ k j j j p p s s s s p p p p j j k V K K K K K J V S S V b B J K K U i.t.i.s.p.s.s.f.].R.R.)..XXXXXXX.X[.).).).).].).)..X.X.X.X.X.X.X.XXX%X*XBXBXBXBX*X*X*X*X*XBXJXLXIXJXJXBX*X*X%X&X*X*X*X*X*X$XOXOXOX].W n m m h h h h h g m m m m m m m m m Q dXLX@X].lXUXkX{.HXUX@X{.T.T.C.y.LXxXr.t.UXkXy.T.UXHXHXPXUXZ.t.t.xXHXHXHXMXt.t.V.FXFXFXFXHXFXHXFXT.f f f f f f f f f f I r.h.K.K.V.t.t.t.t.t.Y t.Z.Y I h.K.Y I h.D.D.D.D.D.T.T.T.D.h.h.T.T.T.T.T.Z.h.Z.T.T.T.T.T.h.h.K.T.T.T.T.T.V.V.T.Z.h.h.U.T.T.T.T.T.T.T.T.r.r.Z.U.r.y.y.y.y.y.T.K.j.y.c.T.T.T.T.c.j.y.u.u.u.y.u.r.f f f f m xXk.b.T.b.k.T.UXHXHXLXUXJ.k.zXUXc.c.FXIXHXHXHXxXc.b.UXzXc.J.P b f Y c.c.c.c.c.c.v.v.c.c.v.v.v.v.v.c.c.c.v.v.c.c.v.v.v.v.c.c.c.c.v.c.c.c.v.c.c.c.c.c.c.c.k.Y f f f f f f b m g I j.kXHXHXHXU.j.j.HXPXy.y.PXxXj.u.UXzXy.Y.UX2Xj.2XUXHXHXHXFXj.j.xXLXM.Z.xXHXHXHXHXHXHXLXUXsXN.T.HXHXHXJXJXT.T.T.FXHXHXHXFXFXHXJXHXHXFXHXsXD.K.M.B f f b b f f f f -.D.T T M.F.F.sXfXFXxXxXxXxXxXxXT.M.I FXLXI U PXxXi.t.UXlXt.F.UXsXt.sXUXxXlXlXlXi.t.xXLXi.i.PXLXlXxXUXxXM.Z.UXFXfXfXfXfXfXfXfXfXfXfX4.,.,.( m 5 5 5 5 g g g g g f f g g f m ,.] ] ] 4.`.}.}.'.`.`.}.}.}.`.).[.[.`.[. X|.|.|.|.|.*XBXBXBX*X%X|.|.|.|.%X%X%X%X_._._._._._._._._. X*X*X*X*X-XBXBXBXBX%X%XOXOX[.[.@X@X@X@X@X@X@X@X@XOX].).f.f.f.p.p.p.s.s.s.s.s.s.s.s.V.V.s.s.G.H.H.H.G.y.y.y.s.s.s.p.s.s.i.t.i.t.y.y.y.y.s.s.U j d 3 v | 5.5.5.+.[ q 8 @.3 $ 0 %.z v o.D.D.D.D.:.D.D.D.o.x v D.D.D.D.D.o...o.D.:.:.:.:.l l } *.*.*.*.X.l l :.} z C :.:.:.:.:.*.*.%.%.& & M ",
"8.9.9.1.0.0.9.8.<X<X6.8.<X<X6.9.0.0.0.,X<X,X6.;X;X;X;X6.6.8.6.,X<X5.5.5.;X6.6.6.<.<.=.$.$.,.2.2.2.! ,.A.W m C Z Z V V V C C C C C N @.&.! ! ( Q n j j k j j j p p p p p p p p p p p g j B V K K V V V K j j V @.*./ U V K ) i.i.s.s.p.s.s.p.I.I.f.]..X.XXXXX_..X.X[.[.).).).)..X.X.X.X.X.X.X.XXXXX$X*X*XBXBXBX*X*X*X*X*XBXBXJXJXJXBXBXBX*X*X*X*X*X*X*X*X$XOX].V n n h h h h h h h h h h h m m m m Z '.JXJXJX{.].I.{.{.I.MXUX].].JXHXs.t.PXxXr.t.UXkXt.K.HXHXHXHXHXV.t.y.xXHXHXIXPXt.t.C.FXHXHXHXFXHXHXUXsXt.j f f f f f f f f f I y.V.G.K.V.i.t.t.t.r.t.Z.Y I h.D.Y G Y T T h.h.h.h.h.M.M.h.h.M.M.M.Z.T.Z.h.M.Z.Z.V.K.T.M.h.M.Z.V.V.T.T.V.V.T.Z.h.h.T.J.k.k.h.k.k.k.h.r.r.Z.K.r.r.r.r.r.y.T.K.y.y.k.k.k.k.k.k.j.y.y.j.j.j.j.r.f f f f Z xXk.b.T.c.k.T.HXHXHXHXHXJ.k.zXUXc.c.xXHXHXHXIXHXc.b.UXzXc.J.X.b f Y c.c.c.v.c.c.c.c.c.c.v.c.c.c.c.c.v.c.c.c.c.c.v.c.k.k.c.c.v.c.v.c.c.c.c.c.v.c.c.c.c.c.k.Y f f f f f f b m b Y j.zXHXHXHXY.u.u.j.j.j.j.PXxXy.j.j.j.y.T.UX2Xj.T.HXHXHXLXUXh.h.h.M.Z.Z.LXIXHXHXJXHXHXHXHXT.N.sXUXJXHXIXUXZ.B.B.FXHXHXHXFXHXHXJXHXHXHXUXsXt.F.UX>.5 f f f f f 5 f T D.T Y T T T F.fXT.Z.K.M.M.t.h.t.I I FXLXU T LXxXt.i.UXlXt.F.UX{.t.sXUXC.i.i.i.i.i.xXLXs.i.LXHXs.s.UXxXM.Z.UXsX&.,.,.,.,.,.,.&.&.,.4.,.,.,.] m 5 5 f g 5 5 g g f 5 5 5 f f Q 2.2.2.4.`.}.}.}.`.`.}.`.`.4.).[.[.`.). X_.|.|.|.*X*XBXBX*X%X|._.|.|.|.%X%X%X%X_._._._._._._. X X%X%X%X%X%X*X*X*X-XBX%X$XOX[.].[.@X@X].].].].].].].].].].f.f.f.p.s.s.s.s.s.s.s.s.s.s.s.s.s.s.s.H.H.H.s.y.s.s.s.s.s.s.s.s.y.t.t.t.t.y.y.y.U J C v v [ | | O.O.O.[ q ; : #.z 1 v :.[ ....o.o.o.........o...H H ..o.o.o.D.o.H H L C v o.:.l l z z z v :.X.z l :.X.z c :.X.v v z z z 3 3 & & M ",
" .9.0.aX1.0.0.9.,X<X5.8.<X,X8.q.0.0.0.,X<X;X6.;X;X;X8.9.9.7.6.<X<X5.6.6.6.5.5.5.5.5.5.+.<.<.,.2.2.2.2.4.! Q Z Z C b z z z B B c c } @.#.! ! ! ! Q g d S j p p p p p p p p p z p p p g j B V V V V V V m p s Z $.dXF.a.K K ) ) i.s.f.f.f.s.p.I.C.C.H.I.].)..XXXXXXX$X$XOX).).).)..X.X.X.X.X.X.X.X.X.XXX%X*X*XBXBXBX-X-X*X%X%X*XBXJXIXLXJXBX*X%X%X*X*X*X*X*X}.W h n n h h h h h m h h h h h m m W ] [.&X[.[.].I.I.I.].{.f.MXUX].].JXHXs.i.LXxXt.y.UXkXt.t.y.s.s.s.y.y.y.y.s.s.y.FXPXt.t.t.t.t.y.s.y.s.K.UXsXt.y.B f f f f f f f f g I t.V.P.K.V.t.t.t.y.t.K.t.I h.D.Y G I Y Y Y t.t.t.t.h.h.h.h.h.h.h.Z.T.Z.h.h.h.h.M.K.T.M.h.h.h.h.h.T.T.Z.Z.T.Z.h.j.T.V.y.y.r.r.r.r.r.r.r.Z.K.r.r.y.r.r.j.T.K.y.y.j.j.j.u.y.j.k.y.y.k.k.j.j.r.f f f f %.xXk.J.T.Y.Y.T.T.k.k.J.T.Y.Y.xXUXc.c.T.T.Y.Y.LXHXc.b.UXzXc.J.M.b b o.b.c.v.U.Y.Y.Y.Y.Y.Y.U.U.J.c.v.Y.Y.Y.Y.Y.Y.Y.U.U.Y.Y.Y.Y.Y.Y.Y.U.c.c.Y.Y.Y.Y.Y.Y.Y.Y.U.h.f f f f f f b N b r.j.j.j.j.j.j.j.u.j.j.j.j.PXxXy.y.k.j.y.T.UX2Xr.j.k.k.k.zXUXh.h.V.Z.Z.Z.LXHXZ.D.T.h.h.T.F.N.C.sXUXT.C.xXUXN.N.N.M.M.M.M.M.M.F.T.N.N.A.UX2XY K.UXB.f 5 5 5 f f 5 5 T D.Y I I I I A.FXkXT.Z.M.I Y Y I I I FXLXU T LXFXC.C.UXlXi.F.UX{.t.{.UXT.C.C.C.i.i.xXPXi.s.LXHXi.i.UXxXi.A.UXdXA.A.F.F.A.,.,.,.,.4.,.,.&.,.,.( ,.m 5 5 5 5 g g 5 5 5 5 g g g ( 4.4.4.`.}.}.}.}.}.}.2.2.4.`.).[.`.)._._.%X%X*XBX*X*X|._._._._._._._.|.%X%X|._._._._._._. X%X%X%X%X%X%X%X%X%X%X-XBX%X$XOX].].].@X@X].].I.I.].].].].f.f.f.f.s.s.s.s.s.s.s.s.s.s.s.s.s.s.y.s.s.H.H.H.s.y.s.s.s.y.y.y.y.y.y.y.t.t.s.s.y.I s > q [ 5.5.5.O.[ 2 > > > % 0 >.......D.O.l.O.......v H ....g.........H H H D.o.H F F x l L :.i z z x l v :.:.c v B.X.l v D.L l l 1 1 1 , $ $ $ M ",
"8.9.0.0.1.0.0.q.aXdX<X;X<XdXq.9.9.9.q.0.dX;X;X;X8.0.w.w.9.6.;X<XhX8.8.<X,X,X,X,X;X;X;X;X:X5.5.5.+.<.1.'.4.4.2.2.! ! &.&.%.%.%.X.X.o.o.:.=.=.1.1.,.Q m f b M C C Z Z C 2 2 3 p p p p p p p p p p p p 3 2 i 2 #.0.jX'.J y.~ _ ) i.i.s.p.C.f.f.oXI.f.f.f.H.H.H.I.].[.XXXXXX%XXXXX.X.X)..X.X.X.X)..X.X[.[..X.XXXXX%X*XBXBXBXBX*X*X%X%X*XBXJXIXLXGXBXBX*X*X*X*XW m h m h h h h m m m h h m m m 1.fX[.).[.&X$X[.[.[.[.[.&X@X).MXUXI.].JXJXI.C.LXxXi.s.UXlXt.y.y.s.s.s.s.y.y.y.s.s.s.HXLXt.t.t.t.t.s.s.s.s.K.UXsXt.t.t.J f f f f f f f f n t.y.I H.K.P.i.T I h.T.t.I t.K.r.Y r.M.Z.Z.Z.Z.Z.Z.Z.K.K.Z.Z.Z.M.Z.T.F.Z.Z.Z.Z.K.T.T.V.M.h.h.M.M.T.T.T.T.T.K.h.h.T.V.y.t.k.Z.Z.Z.h.r.r.Z.Y.J.J.J.c.r.j.T.U.J.J.J.J.J.J.J.k.k.k.k.k.k.j.k.r.f f f f %.xXk.c.Y.Y.Y.Y.Y.k.c.J.Y.Y.Y.xXUXc.c.Y.Y.Y.Y.PXHXc.b.UXzXc.J.o.b b o.b.c.c.U.T.Y.Y.Y.Y.Y.U.T.U.c.b.T.Y.Y.U.U.Y.Y.Y.Y.Y.Y.Y.Y.Y.Y.T.Y.c.c.T.T.Y.Y.Y.Y.Y.Y.T.k.f f f f f f b m b r.k.c.k.k.k.k.k.k.k.k.j.j.PXxXk.k.k.k.j.T.UX2Xr.j.k.k.k.zXUXh.k.Z.Z.K.F.LXHXF.T.T.h.h.T.T.T.T.lXUXsXF.xXUXC.N.M.M.M.Z.K.Z.A.F.T.N.N.F.UXsXM.T.UXF.f f f 5 f f 5 5 T F.Z.M.M.T t.T.FXUXUXUXUXK.M.M.M.M.V.zXxXi.t.LXUXUXUXUXxXC.F.FX{.t.sXUXUXUXUXUXs.s.xXPXs.i.PXHXi.s.UXxXC.F.UXUXUXUXUXUXUXUXUXUXUXUX'.,.&.,.,.,.] sX,.g 5 5 g 5 g g 5 g g g g f &.,.,.,.,.,.,.,.S.}.`.4.}.}.}.}.`.[. X X X X|.|._._._._.|.|.|.|._._._._._._._._._._._.%X%X*X*X*X%X$X%X%X-X%X%X*X=XOXOXOXOXOX{.{.{.I.I.].].].].].I.f.f.f.s.s.s.s.s.s.s.s.s.s.s.s.s.s.s.s.s.s.H.H.s.s.s.s.y.y.k.u.y.y.y.y.s.k.r.J d 5 M | ;X5.O.[ 1 % % % - - 9 1 i v D.z.O...D.....j.z.z.m.m.z.z.z.z.z.j.j.j.o.H ..D.o.o.o.o.o.o.:.D.x x H H H D Z.D.o.o.D.o.x c <.C 1 < z M M M : $ = M ",
"8.9.0.0.aXaXdXgXjXdX8.9.hXhX0.<X<XaXw.dXdX>X,X9.0.0.9.9.<X<X<XhXdX9.8.<X<X<X<X<X<X<X<X<X:X5.5.;X6.5.8.<X2X'.'.4.! ! 4.'.'.F.F.A.A.A.A.D.<.>.>.&.( Q Q Z b Z *.%.=.:.%.1 1 , < 2 p p p p p p p p p p p p 1 e 1.jX0.=.s M.4.4.d.a.p.i.p.s.H.f.].f.f.f.f.I.I.I.f.R.I.].)..XXXXXXXXXXXXX.X.X[.).).[.[.[..X.X.XXXXXXX$X$X*X*XBXBXBX*X*X*X*XBXBXJXJXJXJXBXBXBX( h h h m h h h h m m m m m m ]  XJXVX[.[.&XmX$X&XLXIXIXIXIXmX].MXUX{.{.HXJX].f.LXxXs.s.UXIXLXPXPXLXLXLXLXPXPXPXPXs.s.FXUXPXPXPXPXPXLXLXkXs.H.UXIXPXPXPXK.K f f f f f f f f g t.t.V.V.G.H.V.t.t.h.r.Y r.h.Y I M.D.K.T.T.T.T.T.T.T.T.T.T.K.M.Z.T.T.T.T.T.T.T.T.T.Z.V.M.h.V.V.T.T.T.T.T.K.h.h.V.h.y.y.Z.T.T.T.k.r.r.Z.T.T.T.T.K.y.j.T.T.T.T.T.T.T.T.T.k.k.k.k.k.k.k.k.r.f f f f %.IXLXLXLXkXc.k.2XLXLXLX2Xc.c.xXUXLXLXPXPXPXPXUXHXc.b.UXzXc.c.Y f b J v.c.v.Y.Y.v.c.v.v.v.v.T.U.c.b.T.L.c.c.c.v.v.v.v.v.v.v.v.v.v.Y.Y.c.c.T.U.c.c.c.c.c.J.T.k.f f f f f f b m g r.2XLXLXPXPXPXk.k.k.k.j.j.PXxXk.k.PXPXLXLXUX2Xj.k.Z.k.j.zXUXPXLXLXHXK.T.IXUXLXLXLXsXM.T.xXIXLXIXUXkXT.xXUXC.B.xXLXLXLXLXLXLXLXLXxXN.{.LXsXF.sXUXF.g g f 5 f f f 5 T D.D.F.F.M.h.K.sXzXsXFXUXT.K.K.K.F.T.T.T.N.t.T.sXsX{.sXsXF.T.T.I.t.C.sXsXsXFXUXi.i.xXPXs.s.LXHXs.s.UXxXC.A.sXsXsXsXaXsXsXsXdXdXdXaX,.,.&.&.&.,.] UXMX( Q 5 g 5 g g g g g g g f g ' ;.,.,.,.,.,.S.}.}.`.}.}.}.`.] ). X X X_._._._._._._.|.|.|.|._._._._.|._._._._._.%X%X*X*X*X*X*X*X$X%X%X%X%X$X&XOXOX&X&X@X@X{.{.f.f.{.{.{.{.{.I.d.f.p.s.s.s.s.s.s.s.s.s.s.s.s.s.s.s.s.s.G.H.H.G.s.y.y.s.y.y.y.s.s.i.t.U c c ....O.O.| [ v v l 1 , , , < < < > 1 v +.+.....+.o...z.1X1X1X1X1X1X1XD.D.D.D.D.j...o.D.D.D.D.D.D.D.D.D.H H H H D x Z.D.D.D.D.o.x z C 9 < < M *.*.@.0 = = M ",
",X9.0.0.0.aX0.0.gX0.$.0.0.0.$.<.<.<.0.0.9.;X9.0.w.0.8.,X<X9.9.9.9.9.8.<X<X6.6.6.6.5.5.<X;X5.;X<X;X5.5.5.6.6.<.=.=.,.'.'.2.] ] ( ( W Z Z C C >.P P P P P M Z %.p z X.X.1 1 2 , < 1 1 1 2 2 2 1 1 1 i i a , y 0.jX$.C a =.0.q.}.F.S.a.p.s.s.H.I.f.f.s.f.R.I.].R.f.I.I.I.I..X.XXX%X%XXXXXXX.X.X.X[.[.[..X.X.X.X.X.X.X.X$X$X*XBXBXBXBX*X*X*X*XBXBXJXJXJXJX'.m m m h h m h h h h m m h ( }.*X%X*X$X$X$X*XBX*X*XUXJXJXJXUX@X].VXUX}.].S.{.].f.LXxXs.s.xXxXxXxXxXxXxXxXxXxXxXJXUXs.s.kXxXxXxXxXxXxXxXUXzXs.V.xXxXxXHXUXT.s.K f f f f f f f g g t.y.y.V.P.H.V.t.I I r.r.I I I V.K.t.h.h.M.M.M.V.Z.V.M.T.K.C.C.Z.Z.h.h.h.M.Z.Z.Z.Z.V.M.h.V.V.Z.Z.Z.K.Z.V.k.j.h.h.y.y.y.h.h.h.h.r.r.h.k.k.k.U.K.y.y.k.k.k.k.k.k.k.J.T.k.k.j.j.k.k.k.k.r.f f f f Z xXxXxXUXzXc.k.T.xXxXxXT.c.c.kXHXxXxXnXnXxXxXxXzXc.b.UXzXc.c.Y f f B c.v.c.Y.Y.v.c.c.v.v.c.T.U.c.b.T.L.v.c.c.v.v.v.v.v.v.v.c.v.v.Y.Y.c.c.T.Y.c.c.c.c.c.J.T.c.f f f f f f b m g r.8XUXAXxXHXUXj.j.k.k.j.j.PXxXk.k.UXHXxXxXxXT.j.2XUXJ.j.T.xXxXxXLXLXI.T.FXFXxXxXUXxXM.Z.{.MXMXxXxXT.C.xXUXS.S.HXIXxXFXFXxXxXxXUXMXN.F.F.M.T F.UXA.f b f f f g f f L Y T t.h.V.V.V.M.Z.I T.UXM.T T T t.t.i.T.N.t.t.t.t.t.C.T.i.i.K.F.i.i.i.s.i.lXUXi.i.xXLXs.s.LXHXs.s.UXlXa.N.;.;.;.&.&.;.;.,.&.&.,.&.&.,.&.&.&.,.] UXMX] ,.&.m 5 g 5 g g g g g g g m ] ,.,.,.`.`.`.}.}.}.}.}.}.`.] ).[._._._._._.).).[.|.|.|._.|.|._.|.|.|.|.%X%X%X%X%X%X*X*X%X%X*X*X$X%X%X%X$X&X@X].oX&X&XOX].I.I.f.f.{.I.H.f.{.I.f.p.p.f.s.s.s.s.s.s.s.s.s.s.G.V.V.V.V.V.V.G.H.G.V.y.y.s.s.s.s.s.i.U J J z [ [ O.5.| [ 9 > > > 1 < , < < < < - < 9 [ ........l.z.1X1Xz.z...l.l.l.........D.z...............v ........H H D x x F H v L v v l l < < < < < < < ; ; = & & ",
",X0.0.jX9.aX1.0.0.0.$.0.4.$.+.<.<.<.0.0.9.0.w.w.dX6.;X<XhX0.9.8.8.8.8.<X<X6.6.5.6.6.6.<X,X5.5.<X5.5.5.5.:X:X5.5.5.+.2X'.2.2.2.2.! ! Q Q / %.F.X.B s s B z P :.i p X.%.p l z , 1 , , , 1 1 2 1 1 1 l i i 4 0.q.jXz c c } 0.w.jXjXgXaX`.f.s.s.!.!.H.s.f.f.f.I.I.I.].I.I.I.I.I.].]..XXX%X%X%X%X$X.X.X.X.X.X.X.X.X.X.X.XXXXXXXXX%X*XBXBXBXBX*X-X-X-XBXBXdXm m m m m m m m h h h m W [.*XmX*X%X|.|.|.|.*XBX%XBXUXBX$XBXUX@X].VXUX{.].].{.I.p.LXxXt.y.s.s.s.s.s.s.G.G.V.s.s.zXUXs.s.s.y.y.y.y.y.y.y.UXkXy.s.s.s.s.sXUXT.s.s.K f f f f f f g g n t.y.y.G.P.K.V.r.r.r.r.Y I I V.K.r.t.t.t.M.V.V.V.M.h.T.F.C.Z.C.V.h.h.h.h.V.V.Z.K.Z.V.h.V.V.Z.V.Z.Z.V.V.k.k.h.h.t.y.r.r.r.r.r.r.r.r.r.r.k.U.U.j.j.y.k.k.k.k.k.k.c.T.c.k.k.k.k.k.k.k.r.f f f f B c.k.c.UXzXc.J.T.Y.Y.Y.T.T.T.T.T.c.c.b.c.c.c.J.T.Y.Y.UXzXc.J.-.b b n U.b.c.Y.Y.v.b.b.b.b.v.T.U.c.b.Y.J.v.b.Y.Y.Y.Y.b.v.v.U.Y.Y.Y.Y.Y.c.c.T.T.Y.Y.Y.J.c.b.T.c.f f f f f f b m b y.8XUXJ.k.zXUXk.k.k.c.j.j.PXxXu.u.UXzXy.k.u.k.k.8XUXJ.j.j.j.k.Z.FXLXI.T.{.Z.Z.Z.UXxXZ.C.S.S.C.V.V.V.K.xXUXS.S.HXLXZ.K.T.Z.M.Z.UXFXN.F.F.M.T F.UXB.f b f f f g f f L I Y t.V.V.h.t.o.K.t.T.UXM.T Z.{.sX{.sXlXsX{.{.F.t.t.sXlX{.sXkXT.i.C.sXsXsXFXUXs.i.xXIXsXsXIXHXa.p.UXMXsXsXsXsXsXsXsXsXsXsX,.&.&.&.aXdXdXaXaXsXdXUXMX,.;.&.' ( m 5 g g g g g g 5 g W ,.,.,.`.}.}.}.|.}.`.`.`.`.`.[.[.).).).).).).)._.|.|.|.|.|.|._.|.|.|.%X%X%X%X%X%X%X*X*X$X$X&X*X%X%X%X$XOX@X+X].].&X&X$X[.I.f.f.f.{.{.H.I.+X].f.H.f.f.f.f.f.C.C.H.H.G.G.G.G.G.V.V.V.V.V.V.s.G.G.G.y.y.y.C.i.U s l v [ 5.5.O.[ 9 > * * , 1 < < , - ; ; 7 7 - - < l l.l.>Xl.l.l.;X,XO...1 ..l.l.g.g.g...D.z.H ..D D ......v ..H H H D D D D H D F x z l 1 1 1 9 9 < < < - - - - # # ; ",
"0.0.0.dX1.9.1.1.<.<.1.$.<.<.#.=.*.1.0.w.0.7.8.8.<XdX0.0.0.9.0.aX<X<X<X3X<X6.8.8.6.5.5.<X;X5.;X<X,X;X;X;X;X;X;X;X5.5.,X,X+.<.$.,.2.2.2.2.! ! 4.&.N Z %.%.X.%.:.p z X.:.c B C p < < < < < < < < 1 < 9 < 1 r w.w.1.i z b S J X.#.1.0.gXgXgXgXaX].H.s.y.s.f.I.I.I.I.f.f.R.I.I.I.I.I.].].[.OX$X$X%X%XXXXX.X.X.X.X.X.XXXXX.X.XXXXXXXXXXX%X*XBXBXBXBX*X*X$XW m m m m m m m m m h W }.*X*X*XmXmXmX*X*X*X*X*XBX%XmXUXBX$XBXUXmX@XJXUX{.S.I.{.S.i.LXxXy.s.s.s.s.s.s.G.G.G.G.s.s.zXUXs.s.s.y.y.y.y.y.y.y.UXzXy.y.s.s.s.sXUXT.s.s.s.K g f f f f g g g B y.y.y.s.V.K.T.K.Z.V.Z.r.r.M.K.r.y.t.M.V.Z.C.V.M.h.T.T.T.T.T.Z.h.Z.D.U.K.T.T.T.T.T.K.T.T.T.K.Z.C.K.T.K.K.K.K.Z.K.Z.h.r.k.Z.Z.Z.K.J.K.K.Y.U.k.k.k.k.k.k.K.K.K.U.T.c.k.k.k.k.k.k.k.r.f f f f B c.c.b.UXzXc.J.T.Y.Y.Y.Y.U.Y.U.U.c.c.Y.U.c.c.b.Y.U.U.UXzXc.J.M.b b b Z c.v.U.Y.c.b.Y.Y.b.v.Y.Z.h.r.r.h.j.j.Y.Y.U.Y.b.v.v.U.Y.U.U.U.U.c.c.Y.Y.Y.Y.T.J.c.J.T.b.f f b f f f b N b j.8XUXJ.c.zXUXk.k.j.k.j.j.PXxXu.u.UXzXy.y.y.k.c.kXUXJ.j.j.j.V.C.FXLXI.T.sXT.T.T.UXxXT.T.T.S.C.Z.T.T.T.xXUXC.K.FXLXT.T.T.Z.Z.F.UXFXF.T.F.M.i.F.UXA.f b g f f b b f -.Z.K.K.T.K.t.Z.sXT.T T.UXM.U lXUXUXUXUXUXUXUXUXFXZ.Z.UXUXUXUXUXlXi.sXUXUXUXUXUXs.s.xXUXUXUXUXHXH.I.UXUXUXUXUXUXUXUXUXUXUXUX'.,.( &.LXUXUXUXUXUXUXUXMX&.( ( ] ,.,.Q 5 g g g g 5 5 5 5 Q ,.] 2.`.`.`.}.}.}.`.`.`.`.).).).`.`.).).)._.|._.|.|.|.|.|._._._._._.%X%X%X%X$X$X&X&X$X$X*X-X-X-X*X&X@X+X+XI.].&X&X$XOX].].{.].{.{.f.I.+X].H.f.f.f.f.f.f.f.H.H.H.H.H.G.G.G.K.Y.T.T.Y.K.G.G.V.k.G.G.s.A s c ..O.5.5.v 9 9 - - , < 9 < < ; ; - - 1 1 , 2 1 < 9 C z.;X,Xz.....+.,X......g.l.l.........D.z.z.D.z.g.....o.o.z.o.o.o.o.o.o.o.o.o.C l 1 0 Z } } } } C C C z l C } Z C { ",
"0.0.0.1.1.0.0.0.0.0.aX0.0.9.$.#.#.1.0.0.0.$. .<.aXdX0.0.<X9.0.hXhXhX<X<X<X,X8.6.6.6.5.<X;X5.;X<X<X<X<X<X<X<X<X<X5.5.,X,X5.6.+.<.<.1.'.4.4.2.'.4.Q &.1.>.>.:.:.z c X.:.c B L n p 1 2 < 1 1 1 2 3 < 9 < 3 4.jX0.} c z b c c c z } =.1.0.0.dXgXgX}.'.S.f.f.f.f.I.I.R.I.I.I.].].].I.I.I.I.].OXOXOX$XXXXXXXXXXX X[..X.X.X.X.X.XXXXXXXXX$X%X%X*X*X*XBXBX,.m m m m m m m m m m ,.JXUXUXUXUXLXmXmXmXBXBXBXUXUXUXUXUXBX XBXJXmX&XHXUXT.C.C.UXUXUXUXxXs.y.T.UXUXUXUXUXUXUXUXK.s.zXUXUXUXUXUXUXUXUXUXUXUXUXzXy.s.s.y.s.T.HXT.s.s.s.s.U f f f f g g g g K y.y.t.V.K.T.T.T.K.K.t.y.V.T.r.y.K.T.V.Z.T.K.M.h.T.T.{.{.{.K.V.K.T.T.T.T.T.{.T.T.T.T.T.2XT.C.K.K.T.T.T.T.T.T.T.T.k.r.Z.T.U.U.K.U.K.U.Y.K.y.u.u.u.k.k.T.Y.Y.Y.Y.c.k.k.k.k.k.k.c.r.f f p f B c.c.c.UXUXUXUXUXUXUXUXUXJ.j.c.c.c.c.AXUXUXUXUXUXUXUXUXzXv.b.h.f f f b I j.U.Y.v.v.K.M.B b b f f f f f f b b b B J r.k.v.U.^.v.c.c.v.v.v.v.v.v.v.Y.L.c.b.Y.b.b f b f f f b N b j.8XUXJ.j.zXUXUXUXUXUXUXUXUXxXu.u.UXUXUXUXUXkXc.8XUXUXUXUXUXV.K.HXUXUXUXUXHXT.T.UXxX{.sXUXUXUXUXUXUXUXUXUXS.S.FXIXT.T.T.Z.Z.T.UXHX{.T.xXUXUXUXUXA.f b f f f f f f Z.T.T.T.T.T.r.K.FXsXY {.UXM.t.lXUXT.T.T.sXT.T.LXFXF.F.UXFXT.sXUXlXi.sXUXsXT.T.T.s.s.T.{.T.{.{.{.].].&X{.{.F.F.F.F.F.F.F.F.'.,.&.&.&.'.'.'.'.F.F.'.'.A.&.( ( ] ,.,.,.( m f 5 5 5 5 5 5 n ,.,.`.`.`.`.`.`.`.`.`.`.`.`.`.`.`.`.`.).)._.|._._.|.|.|.|._._. X X|.%X%X%X$X$X$X&X&X$X$X-X-X-X-X&X&X@X+X+XI.I.OX&X$X$X+X+X{.{.{.{.I.I.+XI.H.f.f.f.C.I.C.H.C.C.H.K.K.K.K.P.P.P.P.P.H.H.H.H.G.t.y.Y J F ....O.| [ [ 9 < , - > < < 9 9 < ; ; ; - < - 1 3 < < 9 %.D.,X1XD.....z.,X....D.D.g.l.z.z.l.g.D.D.D.D.D.o.x L Z.:.D.Z.Z.Z.D.D.D.D.Z.D.o.l l z } %.*.*.:.<.D.D.....z.D.:.*.:.",
"$.$.$.#.$.$.$.0.0.0.q.0.0.0.$.y #.#.#.#.#. . .$.0.9.1.<.z.0.0.w.hX9.9.9.<X<X,X;X6.6.6.<X;X5.5.5.5.5.5.5.5.5.;X<X5.5.,X<X5.5.5.5.5.6.<X9.,.4.}.4.! ,.4.Q m C C b b -.:.z C / V p 1 2 , 1 1 1 p p , 9 < w w.jX0.l F c z z c c x c c F X.$.0.0.gXgXgXdX'.S.f.f.R.I.R.].I.I.].].].I.I.I.I.I.!.!.!.[.OXXX%X%X%X$X X.X.X.X.X.X.XXXXXXX.XXXXXXXXX%X*X*X'.m m m h m m m m m m F.JXJXUXJXJXIXJX&X$X$X%X%X*XUXJXBXBXBXBX X$X&X&X[.MXUXC.C.M.xXxXlXkXT.V.s.C.lXlXzXlXlXxXFXUXK.s.T.lXxXlXzXzXzXzXzXlXlXlXzXT.s.s.s.s.s.s.s.s.s.s.s.s.s.U f f f f f g g g t.k.k.V.V.T.K.H.C.T.t.r.Z.T.t.Y Z.B.M.M.A.B.T T M.M.N.S.T.Z.M.K.{.C.k.V.Z.K.K.K.K.K.K.T.T.K.K.I.K.G.V.k.G.V.J.T.V.k.J.T.r.r.r.r.r.r.r.r.r.r.r.r.r.j.U.b.c.c.c.c.b.c.c.c.c.b.c.h.f f f f B v.v.b.AXxXzXnXAXxXzXAXUXU.c.c.v.v.v.HXIXzXzXxXxXxXxXzX8Xv.m.M.f f b b f f b C B b b b f f b b p f f f f b b b f f f f F b.7XL.b.b.v.v.v.v.v.v.m.8XU.b.L.8XL.B b b f f f b m b c.8XUXU.v.8XzXzXzXzXzXzXzXzX8Xv.c.zXzXzXxXUXkXL.T.zXzXzXHXUXJ.T.lXxXxXxXIXHXK.K.UXxXS.sXUXHXxXxXxXxXxXxXxXS.S.FXLXZ.Z.C.S.Z.T.UXMXS.Z.F.zXzXzXsX%.f b f f f 5 f g h.V.k.t.V.K.I F.FXsXY 2XUXZ.t.lXUXC.t.t.F.M.t.PXFXs.t.UXlXi.T.UXzXt.sXUXK.s.s.s.s.s.s.s.s.f.).].[.OX$X].d.' ' ' / ' ( ( ( ( &.&.&.&.&.&.&.&.( Q ( ,.,.&.( ( ,.,.,.,.,.,.m g g 5 5 5 f f m `.`.`.`.] ] ] ] `.`.`.2.2.] S.2.`.`.`._._._._._._.|.|.|. X_. X X%X%X%X%X X$X$X&X&X$X$X$X%X%X$X$XOXoX].I.I.I.[.&X$X$X@X{.I.I.I.I.I.H.{.I.H.H.C.C.C.S.K.K.Z.C.C.K.T.T.T.T.P.H.H.k.c.H.H.G.c.T J c v | O.5.| v < # > 1 1 1 < < < < < < - - - - - - < 9 & - 0 %...O.;XD.l.l.z.1Xj...D.U.g.l.1Xz.l.g.g.g...X.D.X.i C :.L L x x D ..g.g.g...z.+.D v l 9 z v [ ..l.z.1Xl.l.m.U.v v C ",
"$.$.9.0.0.0.0.0.0.0.0.w.w.jXw.0.4.$.*. . .*.*.=.$. .<.<.D.0.0.hXhX0.9.9.8.8.8.8.8.6.6.<X,X5.5.5.5.5.5.5.5.5.;X<X5.5.,X<X5.5.5.5.5.5.<X;X6.6.<X1.,.4.}.2.! E R h g %.%.c Z %.g 2 1 , - < i 1 3 3 p 1 e y jX0.#.i 3 0 0 x G G F G D x i a c v X.$.0.gXjXjXgX}.].f.R.R.I.!.!.I.I.I.].].I.I.I.I.I.!.!.I.I.OXXXXX%X%X$X$X.X.X.X.X.X.X.XXXXXXXXXXXXXXXW h m m m m m m h h Q MXJXIXUXJXBXJXLX*X*X*X%X|.*XUXBX%X%X*XBX%X%X*X&X[.MXUXC.C.M.T.Z.i.t.t.s.s.s.s.s.s.s.H.H.kXUXI.G.G.G.G.s.s.G.s.y.y.s.s.V.s.s.s.s.s.s.s.s.V.V.V.G.G.V.V.V.U g f f f g f f B y.k.V.K.T.V.s.P.T.T B B n f f g g f g n g f f f f f g n g g g n n n B V M.K.I.K.K.K.T.T.K.I.I.K.K.J.J.Y.T.T.B.T C n n n b n n n n n n n n n n n n b n n C X.-.D.8XbXbXbXbXnXkXm n n n Z bXbXnXAXnXzXnXAXAXAXHXUXZXbXbXbXbXbXPXIXbXzXAXAXAXAXAXbXnXAXF.b b b m m m m m m m m b b b b n n b n n m b b m m m m b b m @.2XZXAXAXAXAXAXAXAXAXAXAXCXAXAXAXF.m m m m m m m m zXKXUXAXAXAXAXAXZXZXnXZXZXZXZXZXZXZXZXZXAXUXHXCXzXzXzXzXHXUXkXsX{.{.{.{.LXHXK.I.UXxXS.sXUXlXS.C.C.Z.Z.C.S.S.Z.xXLXZ.C.S.S.S.T.UXMXS.Z.h.t.t.T t.V f n f f f f f B V.h.t.y.V.K.Y K.FXFXkXFXUXZ.t.lXUXxXkXlXxXM.t.LXLXlXlXUXlXi.T.UXxXa.{.UXxXlXlXK.s.p.{.xXxXMXBXMXMXMXMX{.S.N.fXfXfXfXdXfXdXdXdXfXfXfXfXfXfXfXsX( ( fXfXfXfXfXfXfXfXfX,.,.,.Q g 5 5 5 5 5 5 W `.2.2.S.] ] ] ] d.`.`.4.,.S.,.,.`.). X X|. X_._. X|._._.[. X X%X%X$X$X$X$X%XBX-X$X$X$X%X$X$X[.].].OXOX].I.{.@XOX$XOX@X!.I.I.I.f.f.{.].I.S.I.I.I.I.I.I.T.T.T.T.P.H.G.y.y.y.k.y.V.P.V.y.A 1 ..O.:XO.[ < . $ > < 1 1 1 1 , - - < < < < * 2 1 3 < - - # - 9 @.z ..:X1XO...o.U.g.g.1X1Xl.l.z.z...j.j.H a O.D.l.l.l.D...[ v l l o.z.z.l.;X1Xz.o.o.o.l.>X:X:X6X>X>X1X>Xl.z.,X....v ",
"0.0.0.w.w.w.w.0.1.$.$.$.0.0.q.q.q.w.0.0.0.1.1.1.1.9.aXaX<X0.hXhXhX9.9.9.<X<X<X<X<X<X<X<X,X5.5.5.5.5.;X;X;X,X<X<X5.5.<X<X<X<X<X<X<X<X<X,X5.6.<X6.+.8.<XF.1.1.&.b 3 Z *.C P %.3 2 1 - ; < i < < < a 2 y 0.jX0.#.-.>.=.*.L x v { :.<.<.<.<.v v D :.<.F.aX4.0.gXgXgXgX}.].I.I.I.I.I.I.I.I.I.I.{.{.+X+X+X+X+X@X@X&X&X*X*X*X*X$X$X.X.X$X$X$X$X$X$X$X].h h h h m m m m m m }.BXBXLXUXJXGXIXIXBXBXBXBXBXBXUXBX$X$X*XmX*X&XmXmX@XHXUXT.F.{.sX{.T.T.T.T.T.T.K.s.s.K.T.T.xXUXkXkXkXT.T.T.{.kXkXkXsXsXsXkXkXkXT.T.T.K.s.V.V.G.G.K.T.T.T.T.T.T g f f f f g g U y.y.V.T.V.t.T n b g n n f f g n f f n n n n n n n n n n g g n n g g n n m A.{.T.T.sXT.K.K.{.{.T.T.T.K.P n n b g n n n n n n n n n n n n n n n n n n n n n n n n -.8XcXcXbX2Xn n n n Z AXAXAXAXbXbXbXbXbXbXAXUXbXbXAXAXAXAXPXIXbXbXAXAXAXAXAXbXrXbXT.n n n n n n n b b n n n n n n n n n n n n n n b b m m n n b m b Z zXZXbXbXbXbXbXbXAXbXbXbXbXbX8Xb n n n n m m m 8XAXUXbXrXbXZXZXZXZXnXnXnXAXAXnXnXbXbX0XbXUXAXzXzXzXzXzXHXUX+X+X{.{.kXkXIXLXsXsXUXxXI.sXUXxX{.{.{.2X2XkX{.{.T.FXPXsXkXlXkXT.{.UXHXsXsXsXsXsXsXsX/ g n f f f f f T V.K.Z.Z.K.K.r.K.FXUXUXUXUXT.S.xXUXUXUXUXLXM.t.LXUXUXUXUXlXi.T.UXkXi.sXUXUXUXUX{.s.s.MXUXUXUXUXUXUXUXUXMX{.{.UXUXUXUXUXUXUXUXUXUXUXUXUXUXUXUXJXF.,.UXUXUXUXUXUXUXUXUX'.,.,.,.V 5 5 5 f g g g ,.'.'.'.'.'.'.'.'.'.'.'.'.'.,.] `.}.|.|.|.|.|.|.|.|. X[.[. X$X%X%X$X$X$X$X%X-X-X*X*X*X%X$X$X&X@X@X@X@XoXI.I.@X@X&X@X@X].I.oX+X+X{.@X].].I.I.I.I.I.I.I.I.I.T.T.T.T.K.I.I.K.T.Y.T.K.-.:.+.,X,X,X<.} 0 , 3 1 1 1 - < < < , , , < , , , : ; < & - - 1 z v [ :.....:X1X;XD.D.1Xl.l.1X1Xl...:.<.+.z.D.z.z.z.D.z.....D.v ....+.+.z.1X9X1X1X1X,Xl.:X9X3X3XyXyX5X:X:X9X;X;X;X1Xz.z.z.",
"0.0.0.w.w.jXw.0.0.0.$.y 0.0.0.q.q.w.0.0.q.0.0.4.1.9.aXaX<XhXhXhXhX9.9.9.hX<X<X<X<X<X<X<X;X5.5.5.5.5.;X<X,X;X<X<X5.5.;X<X<X<X<X<X<X<X<X;X5.5.5.5.6.6.,X,X8.<.*.0 3 Z :.C X.} , , 1 ; ; < i < ; { X.w $.jXjX1.@.:.=.*.*.o.[ {  .8.9.9.9.,X[ v D o.o.o.>.*.1.0.0.gXgX}.}.}.].].I.I.I.I.I.I.I.{.{.{.{.{.+X+X+X+X+X@X&X*X-X-X*X&X$XXX$X&X$X$X$X$X$X( h h h h h h m m m m LXUXUXUXUXJXJXIXUXUXUXUXUXUXUXUXJX%X&XBXmX&XMXUXUXUXUXUXT.F.HXUXUXUXUXUXUXUXUXxXC.K.xXkXT.lXUXUXUXUXkXT.T.HXUXUXUXUXUXUXUXUXUXUXUXUXkXs.V.V.G.G.zXUXUXUXUXPXV.K f f f f f g g y.y.y.y.y.J g g g n n n f f g f f f g n n n n n n n n g g g g g f g n n n n A.{.T.T.T.K.K.sXsXT.T.T.n g n n b g n n n n n n n n n b b b n n n n n n n n n n n n b Z (.8X8XY.n n n n %.UXUXUXUXAXwXwXwXwXwXAXUXbXwXHXUXUXUXUXIXrXrXIXUXUXUXUXAXqXwXD.b b b b n n n n n n n n n b n n b n n b b n b b b n n b b b b n b b D.wXwXwXwXwXrXbXbXwXwXwXwXwXo.n n n n n b n D.bXAXwXwXAXUXUXUXUXUXUXUXUXUXUXUXUXAX8XzXUXUXUXUXUXUXUXUXUX(.T.sX{.sXkXIXUXUXUXUXxXI.{.xXsX{.{.MXUXUXUXlX{.T.HXUXUXUXUXJXT.{.UXUXUXUXUXUXUXUXUX>.f f f f f f f t.V.T.K.Z.Z.Z.Y I M.Z.K.K.S.S.S.K.K.M.U FXLXT t.M.K.K.K.K.V.i.T.UXkXt.s.s.s.a.f.f.f.I.MXLX[.&X&X[.[.@XUXMX{.{.UXfXF.,./ &.( ,.A.A.F.'.( &.&.GXGXF.,.UXMX( ( ] ,.,.'.UX'.,.,.] ( g 5 5 f g g g m `.'.'.'.'.'.'.'.'.'.`.'.'.,.2.}.|.|.|.|.|.|.|.|.|.[.[.[. X$X%X%X$X$X$X$X$X*X*X*X*X&X$XOXOX&X@X@X@X@XoXI.I.+X@X@X@X@X].].@X@X+X{.{.{.].].I.I.I.{.kXT.C.I.T.I.I.K.K.T.I.P.Y.K.Z.B.:.<.,X,X<.*.@.@.3 , 9 9 1 - - - , < , , , , , , , ; ; ; & < l l v ........O.;X;X,XD.D.>Xl.l.l.l.....o.<.<.+.D.z.z.z.z.o.....v v v o.D.z.z.;X9X9X9X<X,X:XtXyXyX3X3XyX5X:X<X0X;Xz.6.D.D.z.z.",
"0.0.4.4.gXjXw.w.w.w.w.0.0.4.y y 0.0.0.q.q.w.0.4.$.#.1.9.9.0.0.0.9.9.9.9.<X9.9.8.8.8.6.6.6.6.5.5.5.5.;X<X5.5.5.5.5.5.5.5.6.6.6.6.6.5.5.5.5.5.5.5.5.5.5.O.5.5.| 9 9 } A.P Z b - < < 9 ; , u 1 9 } P y 0.jXaXM l c u 3 M +.8.8.7.9.7.7.0.9. .L F v v x D D D v X.1.0.q.w.jXgX}.{.I.R.I.I.S.I.{.+XI.I.].].].I.I.I.I.].oXOX$X$X-X%X%X$X&X.XXXXXXX.Xh h h h g h h h h m F.UXJXJXJXBX*X*XBXJXLXLXJXJXBXBXBXBX*XBXUX&X].lXUXlXsXsXxXT.i.HXHXsXsXsXsX{.sXUXxXC.T.UXxXH.I.kXkXkXkXI.H.H.HXIXkXkXkXsXsXkXkXxXkXkXUXkXs.V.V.s.V.zXUXkXkXHXLXV.V.B f f f f f f J y.y.k.t.f f g g g g g f f f f f g g f g g f f f f f g g g g g g n n g g g n K.K.K.K.K.K.{.T.K.K.C g g g n g g g f f f g g f f f g g g n b f g g g g g g g b b b g B L.^.b.b g g b %.HXzXzXUXnX^.^.^.^.^.zXUX8X^.nXUXzXzXnXbX^.^.IXPXzXzXUXzXv.U.Z.b f f f f f f f b b b b b f b g b b b f f f f f f f z p b b n f f b b Y ^.^.^.^.(.cX(.^.^.^.(.(.^.V g b b b b b L Y.U.L.L.nXUXkXkXkXkXkXkXkXkXkXkXUXzXL.Y.kXkXkXkXkXkXkXzXzXT.T.{.T.I.{.xXlXlXxXxX{.I.I.K.Z.K.T.sXsXkXxX{.I.S.sXsXsXlXLXHXS.S.lXxXxXsXsXsXsXxXUXm f f f f f f J r.h.K.t.r.I I t.t.U t.t.t.t.t.t.t.t.t.U FXLXt.t.t.t.t.s.i.i.i.T.UXlXV.V.s.f.s.s.f.OX$XJXLX].@X&X[.[.@XUXxXC.S.UXsX' / / / / / ( ( ,.F./ ( &.FXFX( ( UXMX,.( ( ] ,.'.UX'.,.( ( Q V 5 5 5 g n g 5 W ] ] ,.,.,.] ] ] ] ] S.'.,.`.}.|. X X X|.|.|.*X}.`.}.}.|.$X%X$X$X$X*X-X-X%X%X$XOX].I.H.P.+XT.K.].@X].].f.I.].oXoXOX[.OXmX@X[.].I.I.I.I.I.I.I.I.{.C.p.C.T.s.i.i.i.p.s.y.r.A s L ;X6.+.0 ; # < X.l 9 - - - , - - < < < , , , - - - # - 9 v ........l.l.z...l.z.l.z.+...l...H H g.g.n...o.o.v ..O.;X......l.......x o.D.H D O.;X9X3X3X3XyX3XyX3X3X3X3X:X;X,X0Xl...[ D L L [ ",
"$.0.$.0.0.0.4.0.q.q.q.w.w.w.w.0.0.0.y y 0.0.w.w.0.$.=.<.9.9.0.0.<X<XdXaXaXaXaX9.8.8.6.6.6.6.5.5.5.5.;X<X5.5.5.5.5.5.5.6.6.6.6.6.6.6.6.5.6.6.6.5.5.5.5.5.O.| [ - b ;.F.C z < < < < 9 - , 2 l l X.@.0.w.jX%.l l z 1.9.9. .8.9.7.+... .9.0.8. .v M C C C v D x x x F X.o.1.0.gXjXjXgX}.].!.!.+X+XI.I.I.I.I.I.].I.I.I.I.].].].@X$XXX%X-X%X%X$XXX).h h h h h h h h h h sXUXBXBXBXBXBX*X*X*XBXBXBXBXBX-X*XBX%XBXUX&X[.lXUXF.N.i.T.F.i.HXFXi.I.I.I.a.i.UXxXH.T.UXxXH.H.H.H.H.H.H.I.I.HXPXs.s.s.s.V.G.H.T.H.P.UXkXV.V.V.V.V.zXUXG.G.xXLXV.G.` f f f f f g b G.G.y.B f g g g g g g g f f f f g g g g g f g g g g g g g f g g n n g g g g ` I.I.K.K.K.sXT.K.M.n g g g b g f f f f f f f f f f f f f n g f f f f f f f f g g g g f t.J.h.f g g g %.nXJ.P.UXnX(.(.(.L.L.kXUXY.L.xXUXL.L.(./.L.P.IXPX8X8XUXzXL.Y.K.n n n g f f f f f g g f b f n n n b b b b n n f f b b b n n m n g b b f B (.8X8X8X8X^.Y.L.Y.8X8X8XT.B g g g g g f k.L.b.b.zXUXb.b.b.b.b.b.b.b.b.b.UXzXG.G.G.V.V.J.V.V.V.K.J.G.K.T.T.T.{.lX{.].{.sXI.I.S.S.S.C.T.T.C.I.sXT.K.K.Z.Z.S.I.JXJXC.S.I.{.{.S.M.M.M.T.MXb f f f f f g Y r.h.K.y.r.r.t.t.t.U t.t.T.xXxXxXxXxXxXxXLXPXt.t.t.t.t.i.I.xXxXFXUXzXs.T.xXxXMXMXVXOX[.JXIX[.@X@X[.OX@XUXxXC.I.UXsX' F.xXxXxXxX>.Q ,.fXxXxXxXLXFX( ( UXLXMXMXMX'.,.'.UX'.( ( ( ( ( g 5 5 g b f 5 5 ] ] ] ] ,.,.;.;.] ] S.'.S.`.}.&X X X[. X X[.}.}.`.`.}.[.[.OXOX[.[.OXOXOXOX[.].S.M.h...j.D.k.h.C.{.I.I.I.I.I.].oXOX@XOX&X@X].].I.I.I.I.f.f.a.S.T.a.i.C.T.s.s.s.i.T J s C +.;X6.[ 9 - - - - 0 *.z 1 < < < 3 < < - < 1 1 1 l l l l ......o.z.z.l.z.l.l.;Xl.z.z.z.l.O...........H ..l.l.l.g.o.......;Xl.l.O.l.l.O.+.<XCXyX3X3X3X3XtXtX3X:X3X3X3X3X3X3X3X:X>X7Xz.l.O.z.l.g...",
"$.0.$.$.0.0.$.$.0.0.0.0.w.w.w.w.w.w.0.4.0.4.0.w.w.0.aX<X0.aXaXdXfXdXdXdXaXaX<X<X8.8.6.6.6.5.5.5.5.5.;X<X5.5.5.5.5.6.<X<X<X<X<X<X<X<X<X<X<X<X,X5.5.;X,X,X8.<.X.z V >.A.z 1 9 1 < < l 1 < 3 i i X.1.w.jXfX%.l v <.dXdX<X8.<XaX0.,Xo.{ 9.hXaX<Xo.:.>.B.:.o...o.v v x D H o.=.1.0.0.gXgXdX}.{.@X+XI.I.{.+X+X+X+X{.I.I.].I.I.].{.].[.$X&X-X-X-X*X] h h h h h h h h h h mXUXBXBXBXBXBXBXBXBXBXBXBXJXBXBXBXBX%XBXUXJXMXJXUX].N.T.xXlXsXJXJXT.sXlXlX{.T.UXxXH.T.UXHXxXxXxXxXxXxXxXI.I.HXLXH.f.C.T.T.T.T.T.H.P.UXkXG.K.kXkXkXFXUXG.G.nXPXH.H.C.g f f f f g f t.V.y.f g g f f f g f f g g f g f g g g g g f g g g g g g f g g n n n n n n n T.T.{.T.{.sXT.K.B n g g g n n g g g f f f g b g g g g n n g f f f f g f f f f g g g f B G.h.f f f f %.nXG.P.UXHXzXzXxXkXkXnXUXY.L.zXUXL.L.kXzXkXkXIXHX/./.UXzXL.~.Y.n g g g g f f f f f f B Y o.h.h.j.h.Z.B.N.P Z n g b n n n n n g g f f f f P /.^.^.^.L.L.L.L.^.Y.^.(.L.T B g n n n P kXL.b.zXUXv.b.b.b.c.c.c.c.c.c.UXFXkXkXkXP.V.K.kXsXkXkXkXkXkXxXlXlXxXMXlX].{.lXlXlXxXxXxXxXxXxXI.I.lXxXkXzXxXxXxXMXLXJX{.{.sX{.{.T.sXsXsXlX=.n f f f f f T y.y.h.K.y.r.t.t.t.T.xX{.T.lXUXLXLXLXLXLXLXLXHXt.t.FXxXF.T.{.LXLXLXLXlXp.sXUXIXIXUXUX[.[.VXIX[.@XJXJX&X@XUXxXI.{.sX{.F.sXUXLXLXLXF./ ,.FXUXLXLXLXFXF.F.LXLXLXLXUXaX( '.UXF.( '.LX,.,.Q 5 5 g b f f g &.F.'.'.A.] ;.,.,.;.A.'.A.`.}.&X&X&X|.}.).`.}.{.`.`.'.'.].].].{.'.'.{.{.{.{.T.S.T.D.D.D.D.h.r.V.T.V.V.I.{.{.oXoX].].].{.{.].I.{.{.{.{.{.T.T.T.T.C.i.C.T.T.T.K.Z.Z.B.D.o.+.| [ 0 < 3 X.X.X.X.%.z , , , < , < < < 9 l l l v v v v H H H F l.l.;Xz.O.O.O.l.l.z.l.........O.l.........l.l.l.l.l.O.O.;X;X;X;X:X<X<X<X3X3XyXyX3X3XtXtXtX3X3X3X3X3X:X<X3X3X<X<X1X1X1X1X1Xl.....",
"$.4.$.$.1.0.$.$.4.0.0.0.0.0.0.w.w.w.w.0.0.$.$.0.w.q.9.1.9.<X'.aXgXgXaXaXaX<X<X<X,X6.6.6.5.5.5.5.5.5.5.5.5.5.,X<X6.6.<X<X<X<X<X<X<X,X,X,X,X,X;X5.5.;X<X,X+.*.*.C P B.:.1 1 X.} , < l 1 1 3 1 1 } 0.jXhX1.Z l { 9.hXaX8.+.9.0.0.2X*.{ <.hXdX9.o.o.o.o.:.<.+.,X{ v H D D G A c Z #.0.gXjXgXgXfXlXI.I.+X+X{.{.kX{.].].@X{.I.].{.I.I.].OX&X&X-X*X( h h h h h h h h h R BXUXUXUXUXUXUXUXUXLXBX*XBXUXUXUXJXBX%X*XUXUXUXUXUX].S.MXUXUXUXUXJXF.{.lXsX{.I.UXxXH.T.UXUXUXUXUXUXUXUXUXI.I.JXIX+XI.I.T.T.I.HXkXH.P.UXkXG.kXUXUXUXUXUXG.G.xXPXH.H.H.V f f g g g g K V.t.g g g f f B J K U t.i.T T T ` ` ` ` ` U ` ` ` / K V g g g n n n n n n g S.T.T.T.T.sXT.K.g n g f g n B J -.Z.t.y.y.V.h.h.h.h.h.h.T T Y Y Y J B f f f g g g g g b G.h.g g g g %.nXL.P.UXUXUXUXUXUXUXUXUXY.L.zXUXL.L.HXUXUXUXUXHXL.~.UXzXL.L.L.j.f f f g f f n Y k.b.L.b.L.L.L.b.L.(.kXkX8XzXsXJ.P n m m n b g f f f f f b T L.L.L.b.b.b.L.L.L.^.(.L.b.c.M.m m m m '.L.v.zXUXv.v.zXnXc.c.xXkXc.c.UXUXUXUXUXkXG.kXUXUXUXUXUXUXUXUXUXUXUXUXJX].{.lXUXUXUXUXUXUXUXUX@X].MXUXUXUXUXUXUXUXUXJX{.{.sX@X{.{.UXUXUXdXm n f f f f J t.y.t.t.r.t.t.Z.T.t.T.FXsXK.kXUXT.K.K.K.K.Z.Z.M.t.t.LXFXK.K.T.T.s.s.I.T.s.sXUXmXOXBXUX[.[.VXLX[.OXIXJX&X}.UXxXI.{.{.F.F.sXUXsXA.F./ / &.FXLX,.,.1.,.,.F.,.( ( ,.UXaX( '.UXF.( aXUX1.4.'.5 5 g b f f g Z A.A.'.A.] ,.'.A.;.A.'.,.S.`.}.}.}.}.}.`.S.sXsXF.F.F.F.T.T.T.U.F.D.F.T.T.T.U.U.2XT.D.Z.B.h.r.j.U.j.r.K.T.I.I.I.f.f.f.f.f.f.I.+X{.{.I.I.S.I.S.S.V.s.C.K.C.Z.Z.X.o.+.,X+.[ q @.b , z *.X.C C C p , 2 , - - 1 9 l l v v v v [ [ ..H D x x O.l.:Xz.......l.z.j.........;X;X:Xl.O...v ..l.:X:X;X;X;X,X<X3X3X3X3XyX3X3X3X3X3X3X3X:XtXtX3X3X3X3X3X:X;X3X:X3X3X<X1X>X7X1XO...l.",
"$.0.$.y $.4.y y 0.w.w.w.0.0.$.$.0.0.w.w.w.0.$.1.0.0.1.=.1.=.$.0.dX9.<X<X<X<X<X<X<X8.6.6.5.5.5.5.5.5.5.5.5.6.<X<X6.8.<X<X8.8.6.6.6.5.5.5.5.5.5.5.5.;X,X..l C D.o.C X.} - 1 %.@., < < i 1 7 % : y w.jX9.0 0 l #.hXw.8.[ z.9.0.hXfX9.9.8.9.9.9.[ [ ..| 8.9.9.aXM z G Y F c F F D D x o.F.1.0.jXjXgXgXmX{.I.f.+XT.I.F.sXT.I.{.@X].].].I.I.].{.&Xh h m m h h h h h h _  X$X$X$X$X$X%X%XJXLXBXBX-X-X-X*X*X*X%XXX*XmX$X[.[.`.S.MXUXS.B.Z.{.C.{.{.{.I.a.MXF.U i.I.I.T.T.T.P.I.xXUXI.I.JXIX+X].].+XI.H.UXxXG.P.UXkXG.kXUX+XI.I.I.H.H.MXPXH.H.H.` f g g g g g g s.U f g f n t.G.s.V.V.G.G.G.H.C.I.I.I.I.H.C.H.I.I.I.I.I.S./ g g g g g n n g I.I.I.K.P.T.I.C.g n g V t.G.G.G.P.T.G.c.c.c.c.c.c.c.c.c.c.c.c.c.c.c.G.c.B g f f f f f f c.k.g b f f %.xXb.L.8XY.Y.T.kXY.Y.(.kXL.L.nXUX~.~.HXPX/./././.L.Y.UXzXL.L.U.U.h.C P L Y j.b.b.m.m.m.W.P.L.L.W.Y.+XvX@X+XkX8X8XcXlX;.B b b n g g g g g n n T P.Y.Y.Y.Y.Y.J.J.P.(.Y.P.P.(.LXZ g n m B t.zXUXG.G.HXPXc.c.PXxXc.c.Y.Y.K.kXUXkXG.kXUXT.K.K.K.K.T.sXT.{.kXIXJXI.{.{.{.{.lXkXT.T.xXUX@X].MXUXT.{.lX{.{.{.{.{.S.{.lX}.{.{.UXkXZ.g g g f f f B r.t.t.t.t.y.y.t.K.T.s.T.FXsXt.sXUXK.i.i.s.t.t.t.y.y.t.LXFXV.s.K.T.s.i.S.T.].mXUXlX].MXUX[.[.VXIX X XIXJX[.].UXxXI.{.I.N.a.'.UXF.;.F./ / Q fXLXQ Q ( ( Q F.,.( Q ,.UXaXQ '.UX'.&.sXUX,.,.'.m 5 b g f f g g / ;.'.F.,.,.'.S.;.A.'.>.;.A.F.F.T.sXkX(.7X8XwX7X7X^.^.7X4X6XQ.Q.Q.Q.Q.Q.Q.Q.Q.qXU.j.o.....j.h.D.r.G j.U.r.t.i.i.i.t.t.s.s.f.{.I.f.a.p.s.i.t.t.i.i.s.s.t.I J ; ;X;X..* > 1 >.m - 9 %.z > 1 1 1 1 1 l v v v v v v H ....v v v v [ v v B ..l.>Xz.z.l.z.l.l.j.l.l.l.:XtXtXtX3XtX:Xl.z.z.1X3X3X3X3XCXyX3X3X3X3X3X3X3X3X<X3X3XCX3X3X:X3XhXdX<X3X3X<X<X3X;X5.8.<X;X>X,Xl.x.g.",
"$.4.$.y 4.0.$.$.0.0.0.0.0.0.1.$.$.y 0.w.w.4.$.4.aX0.$.=.1.>.9.dXhX<X<X<X<X<X8.8.,X6.6.6.5.5.5.5.5.5.5.5.6.6.<X<X8.8.<X<X8.8.8.8.8.6.6.6.6.5.5.5.6.+.D.v l o.F.P b Z @.9 < } } < < ; i < 7 < e $.w.0.=.z q 0 #.dX0.9.8.6.0.0.0.dX9.9.0.7.8.8.+.8.8. .<X<X<X9. .{ ..v x c x x D H H h.D.L *.F.aX0.dXjXjXgXsXlX{.I.I.{.].I.].{.].I.I.I.I.I.{.@Xh h m h h h h h h h ).XX_.XXXXXXXXXX$XJXJX*X%X%X*X*X$X$X&X[.[.OX&X[.[.].`.S.MXUXa.i.T T.S.{.{.;.W f N n f f n K H.I.H.P.P.xXUXI.I.JXIX+XI.].+X{.I.UXxXH.P.UXkXH.kXUX+XH.H.H.H.H.MXPXH.H.H.s.f f g g g g g i.K f f U V.V.V.V.V.V.V.V.V.H.K.I.I.I.I.H.C.I.I.I.I.I.I.T.T.Z.n g g g n n n S.T.I.K.K.I.K.M.g n Z.G.G.G.G.G.K.T.V.c.k.k.c.c.c.c.c.c.c.c.c.c.c.c.G.G.G.T f g g g g g t.k.g g g g %.nXJ.P.(.P.L.Y.(.L.L.Y.8XL.L.nXUX8X8XHXPXL.L.L.L.L.Y.UXzXL.^.8X8X8X8X8XL.L.L.L.L.L.L.^.W.L.b.m.W.L.+XmX@XkXzXzXxXxXzX^.^.Z.n n n n n g g n b g G.8X8X8X8X8XL.b.Y.(.(.(.(.8XUXT.L b m b f n &.B B >.>.J J F.A.L L L J J T '.-.J -.'.P L P T k.K.T.K.I.{.IXJX{.{.T.I.{.{.{.T.I.lXUXlX].MXUXK.T.sXT.{.{.{.{.F.{.lX}.{.{.UXsXg g g f f f f t.t.t.t.t.y.t.y.y.K.T.s.T.FXsXs.sXUXLXLXLXLXi.i.t.t.t.t.LXFXV.s.LXLXLXLXFX{.].lXUX@X[.MXUXLXLXIXIX X[.xXMX[.[.UXxXI.{.{.S.S.{.UXIXLXLXA./ / fXLXQ ( FXLXLXLXFX( Q ,.UXaX( '.UXIXLXIXUX1.,.'.Q 5 n g f f g f Z ;.'.F.,.A.'.S.A.F.sXT.Y.U.4X4X4XqXeX6X6XrXeX6X6X6X6X6X6XQ.Q.Q.Q.Q.Q.Q.Q.Q.Q.qXW.v.c.o.o.o.z.D.o.Y h.D.o.Y Y T T T T U U U F.C.i.i.i.i.s.s.s.i.i.i.s.M.M.T ; ;X+.v * < 9 *.Z 3 z *.z < < 9 9 l v v v v ..v v v v D D D F F L v v v c ..l.:Xz.z.l.;XO.....O.....1XpXyX3XSXCXyX3X3X3X3X3X3X3X3X3X3X3X3X3X3X3X3X3XyX3X3X3XCXhX3X3X<XhXhX<X:X3X3X3X3X:X>X:X3X:X>X1Xz.n.l.",
"#.$.$.y $.4.0.0.0.0.$.$.0.0.0.0.0.0.q.q.q.4.$.4.0.0.0.aXaX,X0.hXhXhX<X<X<X<X8.8.,X,X6.6.6.5.5.5.5.5.5.6.6.6.<X<X8.8.<X<X<X<X<X<X<X<X<X<X<X<X<X<X,X,X<.z C :.F.>.*.%.%.< < b M 1 < ; 1 - 9 0 y 0.jXaX1.:.{ 0 { 0.dXhXhX8.9.0.0.hXaXaXhX7.6.6.8.<X<X9.<X<X9.8.<. .<.X.X.} ..v v v H o.Z.h.Z.D.D.<.1.dXdXgXgXgXfX}.{.{.].I.].{.].S.`.I.I.I.{.].h h m h h h h h m m @XBXBXXXXXXX&X&X&XJXIXBXBXBXBXBXmXVXJXMXMXVXVXVXMXMXMXMXLXUXi.i.T xXxXxX/ m m m m n f f g n V {.MXnXnXJXUXI.I.HXIXMXMXMXVXMXxXUXxXH.T.UXxXT.xXUXHXxXxXI.I.I.MXLXH.H.H.H.g g g g g g g ` K f K V.kXzXzXzXlXzXzXxXT.C.K.I.lXMXxXxXxXI.I.I.xXxXMXMXkXsXB.g g g n n n F.sXI.K.K.T.K.N.g aXxXxXxXxXxXxXxXxXzXzXzXzXzXzXzXzXK.c.T.zXzXzXzXzXzXxXxXkXB f f g g g t.k.g g g g %.JXxXxXxXP.J./.nXxXxXnXAXL.L.nXUXxXxXPXPXL.L.zXnXxXxXUXzXL.^.8X^.L./.8XL.L.8XnXnXnXnXnXbXxXzXzXbXnXVXJXVXHXAXHXJXHXAX^.~.(.T.Y g n n g g n b g B (./.~.^.8XL.b.L.L.L.L.L.(.UX(.b.P m n n m m f f m m f f m m n n n n n b m b f b m g f n n n sXxXxXxXMXIXPXlXsXMXxXMXMXFXlXkXMXUXxX+XMXUXxXxXFXFXFXFXFX{.I.{.HXMXMXMXMXZ f f f f f f J y.t.t.t.t.t.t.s.s.C.K.s.s.N.T.T.kXHXHXJXLXUXT.T.HXLXK.F.LXFXV.t.UXIXJXLXVX@X].lXUX@X[.mXJXJXJXJXaXm h m m m n =.A.S.{.{.{.{.{.HXHXHXJXsXF.F.FXLXQ ( JXIXGXGXMX( ( ,.UXaX&.4.GXFXFXGXGX,.1.'.'.m n g 5 f n g Z / F.F.A.A.T.D.U.1X8X7X7X4X5X6X6XeXeX6X6XeXeX6X6X6X6X6X6XQ.Q.Q.Q.Q.Q.qXqXqXqXqX4XW.v.M.D.D.D.D.o.Y Z.D.D.D.D.D.D.A.B.J J J B.D.D.F.F.F.F.F.C.t.t.C.T.T.T.F.*.,X,X<., < 9 *.%.*.*.*.M < 9 9 l v o.D.D.B.D.D.H v v v x F D F L H v v x ..l.:Xl.l.O.l.O.O.o.;Xz.D.<XSXpXyXCXCXCX3X3X3X3X3X3X3X3XtX3X3X3XyXCXCXyXCXCXpX3X3XCXCX3X3X:XhX3X3X:XtX3X3XtXtXtXyXyX3X9X0X>X>X>X",
"y y y y y $.$.$.1.1.y #.$.1.$.$.1.4.w.0.0.4.$.$.4.1.1.1.<XaXdXhXhXhX9.9.9.<X<X,X,X,X,X;X6.6.5.5.5.5.5.6.6.6.8.8.8.8.8.8.8.<X<X<X<X,X,X,X,X;X;X;X+.o.C B X.:.%.M M M M 1 1 1 2 2 < + - < l w 0.w.jX*.} *.{ l v } 9.9.0.<.7.7.0.w.0.9.8. .6.6.8.8.8.8.<X9.9.9.$.$.1.9.9.1.+.{ M l v ..o.o.j.h.h.D D B.1.0.0.jXjXgXgX}.S.f.I.+X'.`.`.I.I.].{.S.h h h h g g h m m m IXUXUX%XXXmXJX&X$XJXUXUXUXUXJX&X@XUXUXUXUXUXUXUXUXUXUXUXUXUX` i.T UXLX&.m m m m m n f f g n n n dXUXUXUXUXI.I.HXUXUXUXUXUXUXUXUXxXI.I.kX+XT.lXUXUXUXUX+XI.I.MXLXI.I.H.H.g g g g g g g K A.V V.G.LXUXUXUXUXUXUXUXxXC.C.I.FXUXUXUXUXI.I.I.UXUXUXIX{.T.T.m g g n n n S.{.I.J.J.kXT.M.n JXUXUXUXUXUXUXUXUXUXUXUXUXUXUXUXUXT.c.zXUXUXUXUXUXUXUXUXHXt.f f g g g t.k.g g g g %.UXUXUXKXP.L.8XUXUXUXUXUXY.L.xXUXUXUXUXPXL.L.PXUXUXUXUXnXL.^.8XL.L.8XKX(.L.zXUXUXUXUXUXUXUXUXUXUXUXUXUXUXUXUXUXUXUXUX8X~.(.8XL.h.n n g g n n g g B./.L.Y.8XY.L.L.L.L.L.L.L.(.L.b.8X=.m m m m g g b g f f m m m N m m N N m b f f b f f n N / UXUXUXUXUXUXJX{.T.UXUXUXUXUXxX{.xXUXlX{.MXUXUXUXUXUXUXUXUX{.S.{.UXUXIXaXm n f f f f f g y.t.t.t.t.t.i.s.s.s.s.y.y.y.i.C.C.C.K.K.K.xXUXC.Z.HXLXV.C.LXMXV.y.UXxX{.@X@X@X].lXUX@X[.[. X$X X] h h h m m n n m m g / '.{.`.S.N.] ,.,.S.A.>.MXLX( ( GXGX,.,.&.( ] S.UXaX$.$.,.,.&.,.,.,.,.4.,.m 5 g 5 f b g Z %.F.A.B.D.U.4X4X5XeX6X6X6XeX6X6XeXiXeXeXqXqXqXqXqXqX6X6XQ.Q.Q.Q.Q.Q.qXqX6X6X6XQ.Q.m.X.Z.z.:.M.Y L o.Z.Z.h.h.M.-.-.o.J J c o.o.o.o.o.X.X.o.L I I M.K.C.K.Z.o.X.+.,X1 9 < M M M C C z 9 l z l l ..D.o.o.z.D...v v v D ..x x v v ....x H l.;Xl.O.| ..l.;X6.3X3X3X3XCXCXyXyX3X3X3X3X<X<XCX3X3XyX:X3X3X3X3XCXyXtX3X3XSX3X3X3X3X3X3X:XtXtX3XtX:XtXtXtXtXtXyXtXyXyXyX5X:X5X",
"y #.#.@.#.N N y $.1.y #.#.#.y $.4.4.0.$.0.$.$.y #.$.$.1.aXhXhXhXhXhXhXaX<X<X<X<X<X8.8.6.6.6.5.5.5.5.6.6.6.6.8.8.8.8.8.8.8.8.8.8.6.6.6.6.5.5.5.+.l l v X.C z z 1 1 1 1 2 1 1 1 2 < 7 1 1 > y w.w.1.: < *.:.z z z { 9.hX<.8.9.hX7. . . .9.9.6.+. . .9.6.+.,X0X,X6.5.|  . .<.9.9.9.+. .X.C x x i v F Z.h.D G F.F.aXgXjXjXgXdXsX`.S.S.S.d.f.+X' h h h h g g g m N W [.BXUX*X%XJXIX%X_._._. X$XIXJX[.}.UXxXS.S.S.S.S.S.S.a.' ' ` i.i.t.i.n g g g n g g f f f g n g n m i.H.H.H.I.I.].I.I.].oXI.I.H.H.I.I.oX!.+XI.H.{.+XI.I.I.I.I.VXLXI.I.I.H.g g g g g g g V F.F.H.G.LXxXV.V.V.V.s.C.H.K.C.I.I.I.I.MXUXH.H.I.I.I.{.lX].K.I.' g g g g g N.{.I.J.J.T.T.M.P JXPXV.K.T.J.G.G.G.G.G.Y.T.G.G.kXUXT.c.zXUXc.c.c.c.G.c.PXHXc.b f g g g t.k.g f f g B L.L.L.(.L.L.8XUXkXL.kXUX(.Y.(.(.L.L.L.L.L.L.IXKX/./.8X^.L.^.8XL.L.zXUX8XL.zXUXL.b.^.^.L.m.m.m.W.^.^.(.+X+XlXcX8XcXUX7XL.(.8X~.L.Y.Z g g n n g g n U.L.Y.8XL.L.L.Y.Y.Y.Y.Y.b.b.b.c.c.B f g f f f f f f f f f f f f g f f f f g g g f f n m K c.c.G.G.K.I.{.{.T.UXxXI.{.UXlXI.lXUXkXI.kX{.T.].].].I.{.sXI.C.T.UXxXV g f f f f f f f t.t.t.t.s.s.s.s.t.t.y.y.y.y.y.T y.y.s.s.s.s.zXUXt.t.FXPXt.y.PXxXt.C.UXMXOX].].[.].lXUX@X$X$X$X$X).h h h g g n n m m m g g g ' ;.' / / / / / ( %.xXLX( ( FXFX/ Q ( ( Q ,.UXdX,.4.4.2.! ! &.] ( &.&.Q 5 5 5 5 g g W S.sX7X6X6X6X6X6XeXrXuXeXeX5XuXiXAXiXeXeXeXeXqX6X6X6X6X6X6X6XQ.Q.Q.Q.qX6XQ.Q.Q.Q.Q.Q.b.o.o.r.o.o.o.Y Y Y o.H L L J F F F F c c x x x x x x a a a L M.a s c c 1 v O.O.1 > 9 3 , , 9 l l l z l l o.D...H +.<.v v v v x H ....D H ......O.O.z.6.3XyXCXCXCXSXpXyXyX3X3X3X3X3X<X,X3XSXCX3X<XCXyX:XyXyXyXyX3XCX3X3X3X:X:X:XtXtX:XtXtXtXtXtXyXtXtXtXyXtX:X:X1X;Xl.O.....O.1X",
"y $.#.#.#.#.#.y $.1.$.$.$.$.$.4.$.$.$.$.aX4.$.$.$.$.$.1.aX0.0.hXhXhXhXhX9.<X<X<X<X8.8.8.6.6.6.6.6.6.6.6.6.8.8.8.8.8.8.8.8.8.8.6.6.6.6.6.5.5.O.[ l v L X.z 0 2 , 1 1 < 2 1 1 1 1 , ; l 3 0 0.w.w.@.M M *.X.z z q  .9.0.9.<X,X9.7. . .8.9.8.8.+.8.8.9.+.;X3X0X3X<X5.:X:X<X6.6.8.+.<.<.<.<.o.o.o...C :.o.H H D.:.>.1.0.aXdXgXFX}.`.d.}.{.].{.( h h h h g g g n N ^ ).mXUX$X$XBXIX*X%X%X X X XIXJX[.}.UXxXS.S.S.`.`.S.S.S.S.S.S.N.a.N.` n n n n n n g g f f g n g n N n C.H.I.I.oXoXoXI.I.I.I.I.I.I.I.I.I.+X+XI.I.+X+XI.!.I.I.I.VXPXI.I.I.H.g g g g g g g V F.fXH.G.LXxXG.G.V.V.s.V.H.K.H.H.H.I.K.FXUXK.I.I.I.I.{.lX].I.T.S.n n n g n N.{.T.K.J.T.T.i.-.JXPXV.K.T.K.J.K.K.G.G.Y.T.G.G.kXUXT.c.zXUXc.c.c.c.G.G.PXHXb.B f g g g t.k.f f f g B L.L.L.8XL.L.8XUXkXL.kXUXkX8X8X(.L.L.L.L.L.L.IXPX8X8X8X^.L.^.8XL.L.zXUX8XL.nXUXL.L.U.Y.L.L.v.m.^.(.+X+X@X@XvXbXcXnXUX8XW.^.L.Y.L.~.L.B b n n g g n h.L.Y.8XL.L.Y.8X8X8X(.(.b.b.b.b.c.c.B f f f f f f f f f f g g g g f f f f g g g f f Z dXc.c.J.J.J.K.T.T.{.T.UXxX{.{.UXkXI.lXUX+X].kX{.T.{.{.].I.T.sXZ.C.T.aXm g g f f f f f f J t.s.s.s.V.V.V.s.t.y.y.y.y.s.T.FXUXUXUXUXK.s.zXUXt.t.xXxXy.r.LXMXC.].UXUXUXUXUXlX].lXUXUXUXUX@X].^ h g g g g n n n m m m m m N fXUXUXF.&.fXUXUXUXUXLX&.,.xXxX/ &.UXUXUXUXUXdX,.,.fXUXUXUXUXA.,.&.&.&.g 5 5 f n b o.4X0X9X6X5XeXeXeXeXiXuXuXuX5XuXiXAXiXuXuXrXeXeX6X6X6X6X6XqX6X6XQ.Q.Q.qX6XQ.Q.6XQ.Q.Q.W.Z.o.k.h.o...H o.h.j...Y H F F F F c F L L L L x x x x l l L :.i i z z 1 l ..;X[ z z z 2 < 9 l l z C v C o.D.....o.:...[ ....H ........+.;X1X1X<X3XyX3X3XyXyXCX3X3XyXyXyX3X3X3X3XCX3X<X<X3XCXhX<XyXyX3X3XyX3X3X3X3X<X:X;X;X+.:XtXtXtXtXtXtXtXtXyXyX:X:X<Xz.O.+.D.o.{ C C z v +.",
"y 4.1.1.1.1.#.y $.0.0.0.0.4.$.$.$.$.$.$.aXaX0.0.0.1.$.1.aX9.0.hXjXhXhXdX9.9.<X<X<X9.8.8.8.8.6.6.6.6.6.8.8.8.8.8.8.8.8.8.8.8.6.6.6.5.6.6.5.O.[ l z C X.C 0 1 < 1 1 1 < 1 1 1 1 1 , 7 i w e w.w.dX*.<.<.=.X.l z { <.<.9.hXdX<X8.<X9.9.<X9.<X<X9.<XdX<X,X3X3X3XCX3X:XtXyXyX:X;X6.6.8.9.9.8.+.,X,XD.D.<.o.H H D.Z.Z.D.F.1.4.dXjXsX{.I.gXlX{.].V m m m n g g g n N ' ).mXUXOX[.BXIX*X*XJXLXJXJXUXJX@XlXUXMXS.'.JXJXJXJXJXJXJXJXJX{.S.S.m n n n n g g g g f f g n g n m g n H.+X+XlXHXJXJXHXHXHXHXJXJXJXPXPXVX+XI.+XJXJXJXJXJX+XI.VXPXI.I.I.p.g g g g g g g K F.FXHXHXUXxXG.H.HXHXHXHXHXHXHXHXHXT.K.HXUXJXJXJXHXHXJXLXMXI.{.sXV n n n b N.lXkXT.T.T.T.t.M.JXLXG.K.HXHXHXJXJXkXG.K.K.G.G.kXUXT.c.zXUXHXHXHXFXG.G.PXHXb.L f f g f h.k.f f f f n L.L.L.HXHXHXPXUXkXL.kXUXY.L.kXHXHXHXHX^.L.L.IXHXL.L.HXHXHXHXPXHXHXPXUX8XL.nXUXHXHXHXHXHXHXHXb./.@X@X@X@XlXPXKXHXPXUXcX^.W.m.U.Y.L.L.J.B n b g g n J L.Y.8XL.L.Y.8XL.b.Y.(.b.b.b.b.b.b.c.B f f f f f f f f f f f g f f f f g f f f f B zXUXHXHXJXHXT.T.kXHXJXHXUXMXkXlXUXkXK.lXUXJXJXJXJXsXsXlXJXJXJXJXHXFX%.N m g g f f f f f f T s.s.s.s.V.V.V.s.s.y.y.s.s.s.T.FXxXzXFXUXK.s.zXUXt.t.t.t.t.t.LXMXI.oXMXMXmXVXUXlX).OXMXVXMXMX{.].g g g g g n n n n m m n m m n Z FXUXdXF.xXUXMXxXfXfXF.F.F.F.F.F.UXGXfXfXfX4.( ( '.fXfXFXUXA.,.,.&.&.g b n b n b o.6XeXeXeXeXiXrXeXuXiXiXiXiXuXuXiXZXZXiXiXZXrXeXeXeXeXqXqXqXqXqXQ.6X6XqXqXqXqXqXqXqXqXqX2XF.D.D.o.o.H Z.D.D.D.H H F o.o.D c L B.B.B.o.x x c L c l v C 9 9 l p 9 i X.,XD.<.%.Z 1 1 9 9 l C :.:.:.D.D.v v o.D.D.D.D.o.v ..+.+.;X,X3XyX3XyXyXSX3XyX3X3X3X3X:X3X3XyX3XCX3X3XCXhX3X;X3X3X3X3XyXyX3X3X3X3X:X;X,X;X5.;X1X<.,X9XyXtXtXyXyX3X3X<X,X+.+.D...l C *.=.*.%.%.2 2 z ",
"$.4.$.y $.1.y y 0.0.w.1.0.1.#.$.$.0.0.y $.$.$.1.aX0.$.1.0.0.0.jXjXhXhXdX0.9.9.<X<X9.9.8.<X8.8.8.8.8.8.8.8.8.8.8.8.8.8.8.8.8.6.6.6.5.5.5.+.[ l 1 L P Z l < , 1 < 1 1 1 1 1 < < 2 1 7 i N y jX0.1.} C { { C v M *.#.t  .hX9.8.6.,X6. .8. . . . .8.9.+.3X3X3X<X,X;X:XpXpXpXtXtXyXyX3X<X<X6.+.,X9.8.,X,X{ z c H ..Y Y Z.L c P 4.' ^ V gXgX}.d.g h h m m g g g n m d.).mXUX].).[.$X%X%XJXUXIXLXLXMX].].}.sXF.sXUXLXLXLXLXLXLXIXUXMX}.'.n n n g g g g g n f f f g g g g g g Z HX+XoXJXUXPXLXLXPXPXPXPXIXLXLXMXI.I.lXUXLXLXIXUX+XI.VXLXI.I.HX>.g g g g g g g T A.FXPXPXPXxXG.I.UXIXLXPXLXPXPXIXUXP.G.FXIXPXLXIXLXLXLXUXVXI.{.kXV g n n g C.kX+XK.J.zXPXt.V.JXLXG.G.LXIXPXLXUXzXG.K.PX8XG.kXUXT.c.kXPXPXPXIXPXG.G.PXHXG.L f g g f t.k.f f f f B L.L.L.UXIXPXPXLX8XL.kXUXY.L.zXUXPXPXPX^.L.L.kX8XL.L.UXIXPXPXIXPXPXPXIX8XL.zXPXPXPXPXPXPXPXPXL.+X@XIXHXkX0XUXIXIXIXIXxX/.^.W.m.m.L.L.L.J.n n g g n b L.Y.8XL.L.Y.8XL.L.Y.(.L.L.L.b.b.b.b.c.b g g f f g f f f f f g f f f g f f f b T c.kXLXLXPXIXPXJ.U.sXPXLXLXLXxX{.lXUXzXK.lXIXLXIXIXUXI.{.lXJXLXLXLXHX%.m m m g f f f f f f g s.s.s.s.s.s.V.s.s.s.y.t.s.s.s.T.FXT.s.kXUXK.s.lXUXs.t.t.t.i.f.LXVX].].].I.I.{.UXmX[.[.[.[.[.[.[.[.h g g g n n g g g g g g n g f g ,.UX'.&.fXUX,.&.( ( &.&./ / / A.UXMX;.,.&.( ^ U T ` / aXUX1.1.'.] ] m n b b b b Y 6X6X6X6X6XuXuXuXuXuXeXuXuXuXuXuXiXyXuXuXAXiXeXeXeXqXqXqXqXqXqX7X4X6X6X6X6X6X6XQ.Q.Q.6XW.U.<.D.o.Y H g.g.o.o.H H H Z.h.D x x L L L c x x C :.v l l l 9 9 9 i l i X.o.;XO.&.Z 1 l 3 l z [ <...v C z > u D v v v o.o.l [ +.<XDXyXyX3XtX3X3X3X:X3X3X5.3X3XyX3XCXCXyXhX3X:X<XyXpXtXtXtXtXtX3X:X;X+.,X;XO.O.l.z.>X9X9X+...z.1X:X;X<X,X| [ v 9 - 3 :.C 9 l v v v { X.9 < : ",
"#.1.y y $.0.0.0.w.w.0.$.1.1.#.$.0.0.0.4.$.$.#.$.0.0.0.0.aX1.0.dXgX0.dXdXaXaXaXdX<X<X9.9.9.9.8.8.8.8.8.8.8.8.8.8.8.8.8.8.8.8.6.6.6.5.5.6.[ z l C X.C p , , 1 < < 1 1 , 1 < < < 2 1 1 0 $.w.jX1.<. .q 9 9 v l v <.} { X.hX9.8.| 8.8. .+.,X8. .8.7. .| ,X<X,X,X;X9XpXpXyXtXtXyXpXpXyXyXCXyXyXyX0X;X+.+.<.<.+.+. .v D Z.r.G Y m B P &.gX}.`.S.g g g m m g g g h m d.).mXUX].).[. X X XJXJX[.[.`.`.`.`.`.}.S.{.UX{.S.S.S.S.,.FXUXlX@X,.g g g g g g g g n f f g g g g g g g m &.{.].HXIX+XI.I.I.I.I.I.kX!.I.I.I.I.vXUXkXI.MXUX+X].VXLXI.I.F.m g g g g g g g s.T H.H.H.H.H.H.P.UXxXV.G.G.G.G.kXUXP.G.{.T.C.I.+X{.].].LXMXI.{.kXP g n n g M.T.T.G.c.zXUXt.J.JXLXG.G.LXnXG.K.UXzXG.P.UXkXG.kXUXT.c.c.G.G.c.xXPXG.G.PXHXG.L f f f f t.k.g g g g B L.L.L.UXzXL.Y.8X(.(.xXUXY.L.nXUX(.(.(./.L.L.8X(.(.(.UXnX(.8X8XL.L.^.8XL.L.Y.~.~.Y.Y.~.L.L.^.(.+X+XUXHXkXcXUXVXmXMXxXkX8X(.(.(.(.T./.L.L.K.b g g n b t.Y.8XY.L.Y.(.L.L.Y.(.L.L.L.L.L.L.L.L.k.f g g f f f g g g f f f f f g f b T c.c.c.c.c.c.J.HXPXc.U.T.G.V.c.J.K.I.lXUXzXK.].OX[.@XVXUXC.I.kX{.H.K.F.n f g n g f f f f f f f K s.V.s.s.s.s.s.s.s.s.s.y.s.s.V.T.FXT.s.kXUXK.s.lXUXs.t.C.C.I.{.LXMX].I.I.I.].@XUXmX[.[.OXOX&X&X&X).h h h h m m g g g g g g n g g g N IXaX,.fXUX;./ &.>.,.,.;./ P A.UXMX( ( ,.,.;.;.B.P %.dXUX'.'.sXN.U.L n b b c b L 6XqXeXeXeXiXuXuXuXuXiXiXuXuX5XuXuXuXuXuXZXiXuXeXeXeXqXqXqXqXqX4XqXqX6X6XQ.Q.Q.Q.Q.Q.Q.Q.E.z.D.o.Y H H H H H H H H Z.h.x x x x x x x x l C :.v l l l l l l l p i X.} O.O.D.C 1 l z p p z :.v c o...O.l.;X,X1X1X0X2Xz.z.O.;X3XyX3X3XtX:X3XCXyXyXyXyXyXyXyX3X3X3XtX3X3XtXtXtXtX:X:X;Xl.O.,Xz.O.L 1X>X>Xl.l.>XO.z.1Xz...z.D...v :.o.x x x l i z *.M 9 9 9 9 9 C *.< < 3 ",
"#.4.$.y 0.w.0.w.w.0.0.$.1.1.$.0.0.w.0.0.4.1.$.4.0.w.q.0.aX1.4.0.dX0.0.dXdXdXdXdXdXdX9.9.9.9.<X<X9.9.9.8.9.8.8.8.8.8.8.8.8.6.6.6.6.6.6.| v z z X.L z , , , 1 < < 1 < , 1 < < 1 1 1 i e 0.w.0.#.*.<.{ { { { { { >.} C o.aX9.9.+.9.8.8.8.9.8. .8.6. .O.8.,X6.+.;X:XyXyXtXtXtXyXpXyXtXyXSXyXtXyXyX<X<X,X<X,X8.+. .+.o.D.j.j.o.N B / '.gX}.].S.g g g m m g g g h m d.).mXUX].).[. X$X$XJXJX].].`.{.'.`.}.}.S.{.UXsXF.F.'.F.A.FXUXlX@X' n g g n g g g g n g g g g g g g g g m Z n ` FXIX+XI.I.I.I.I.oXkX(.T.T.!.+XxXUXkXI.MXUX+X].VXLXI.) m m g g g g g g K H.T H.H.H.H.H.H.P.UXxXG.G.G.G.G.kXUXP.G.T.T.V.I.+X+X+X{.LXVX].{.kXP g n n g t.T.T.K.K.xXUXt.V.JXLXG.G.LXxXG.K.UXxXK.T.UXkXG.kXUX8XK.J.c.c.c.xXPXG.G.PXHXG.J f g g g t.k.g g f g B L.L.L.UXzXL.Y.(.(.(.xXUXY.L.nXUX(.(.8X/.L.L.(.(.8X8XUXAX8X8X8XY.L.^.8XL.L.~.Y.Y.P././.~.U.(.+X+X+XUXJX#XvXUXJXMXxXxX8X8X8X(.(.8X2X(.L.L.8Xn g g n g J Y.8XY.L.Y.(.L.L.L.L.L.L.L.L.L.L.L.L.L.T g g g f f f f f f f f f f f B k.c.c.c.c.c.c.c.J.HXLXc.U.T.k.k.b.U.Y.T.lXUXkXK.{.@X@X@XVXUXT.T.{.].C.Z.Z f f g n f f f f f f f f K V.V.s.s.s.s.s.s.s.s.s.s.s.s.s.T.FXT.s.kXUXK.s.lXUXs.s.FXUXUXUXUXMXI.I.I.].].@XUXmX[.mXUXUXUXUXUX`.h h h h m m g g g g g g n g g f n fXUXUXUXUXA.;.xXUXUXUXUXFXP A.UXMX( ,.UXUXUXUXUXF.&.dXUXUXUXUXY.W.h.n B n B b L 6XeXeXeXuXZXiXuXuXiXiXiXiXuXuXuXiXiXuXuXiXZXuXuXeXeXeXeXeXeXeX6XqXqXqX6X6X6X6XQ.Q.Q.6X6X6X1X,Xo.L r.j.j.o.h.H H H D.h.D x o.L L L L c l C :.X.C C C i l c C C C X.} v ..,XZ 1 i p v v ..D.z.z.1X>X>X9X0XyXyXyXiXiX9X9X1X1X9XyX3X3X3X3X3XCXyXyXyXpXyXyXyXyX3XtXtX3XtXtX:X:X:X;XO...L c D.+...C D.1X>Xl.l.>XO.z.,Xz...z.D.l l :.o.L L L x l l :.C 9 9 9 < < C =.M b b ",
"y $.0.0.w.w.w.0.q.aX1.1.0.4.4.w.w.q.dX0.0.aX0.0.w.w.0.4.4.$.4.0.0.0.0.dXdXdXdXdXdXdX9.<X9.9.9.9.<X<X9.9.9.9.8.8.8.8.8.8.8.6.6.6.6.6.| [ 1 b P -.z 9 < * , < 1 1 < < < < < < 1 < , u y w.jX$.M } <.8.<.<.<.<.<.<.*.C o.9.0.0.9.9.,X,X,X . .8.8.6.5.5.<X,X+.{ +.6.O.;X:XtXpXpXyXtXtXyXSXyXtXyXpXDXCXCXyX;X;X,X8.,X<XsXD.D.<.=.C ;.fXmX@X{.F.g g g m h h g g g m ].].xXUXLXLXIXJX&X&XJXUXLXLXLXIXIXIXIXMX`.{.UXIXLXIXIXdX'.FXUX{.{.( m m m n n g g g n n n n n g g n n n m m n g m 1.aXfXxXxXxXMXMXxXxXxXxXMXMXFXFXT.C.lXGXxXfX'.1.g g m m g g g g g n C.H.T PXPXPXLXxXH.T.UXIXLXLXkXV.G.kXUXLXLXIX{.V.I.+XIXIXIXUXHX].+X8XP g n n g t.T.T.T.T.xXUXfXFXIXLXG.G.PXxXG.P.UXxXT.kXLX8Xc.kXUXkXT.T.c.c.c.xXPXc.c.HXHXb.L f g g g t.k.g g g g %.PXPXPXUXzXL.L.kXPXPXIXUXY.L.nXUXPXPXLXLXPXPXHXL.L.L.UXIXPXPXPXPXPXPXnX~.~.zXPXPXPXPXIXIXPXIX+X+X@XUXIXIXIXUXVXkXkXkXL.U.zXPXPXPXPXKXL.L.8XZ.g g n b g Y.8XY.L.~.8XL.L.L.L.L.L.L.L.L.b.b.L.L.t.g f f f f f f f f f f f f Y c.c.8XPXPXLXLXY.c.c.nXUXLXPXHXb.k.Y.8X2X{.zXUXkXC.xXIXIXIXUXUX{.{.{.T.V.k.L f f g n f f f f f f f f V V.V.V.s.s.s.s.s.s.s.s.s.s.s.s.T.FXT.s.kXUXK.G.xXUXs.s.HXIXkXlXlX{.I.I.].[.[.&XUXmX[.mXUXBXmXJXUXd.h h h h m m m m F.{.'.F.,.m 5 f n &.sXsXfXfXF.F.FXIXaXfXLXFXV A.UXMXQ ,.UXxX'.fXUXF.' 4.dXsXzXbX4X6Xj.n n n n n C 6XeX9XyXyXSXSXZXZXZXiXiXiXiXSXSXSXSXiXuXiXpXiXiXiXiXiXiXeXeXeXeXqXqXqXqXqXqXqXQ.Q.6XqXqXqXqX2Xo.L j.D.D.D.D.Y H H ....x x D.Z.B.B.B.L c L :.:.:.:.:.a l X.:.:.:.*.X.2 [ :Xo.l , P ..O.l.9X0XyXpXpXpXpXSXpXpXpXpXSXpXpXpXpXyXyXyXyXyXyXyXSX3XyXyX3XtXtXtXtXtXtX:X:X:X:X;X;X;X1Xx z B 1 :.o.v P D.D.9XD.+.z.;X;X<Xl.D.D.D.l z :.D.B.:.o.l l v <.v 9 9 < 3 , M %.%.%.%.",
"0.0.0.w.w.q.0.$.1.aX4.0.0.0.q.0.q.0.4.$.$.$.w.w.0.4.4.4.4.0.4.4.0.4.0.dXdXdXdXdXdXdX9.<X9.9.9.<X<X<X<X9.9.9.9.8.8.8.6.6.6.6.6.6.6...v 9 z X.X.b - < 9 : , , , , < 1 < < 1 1 < < : e w.w.jX8 q { 8.hX<X9.9.9. .@ M M { <.9.9.w.<.+.<.9. . . .8.<X3XtXyX3X:X3X:X6.6.| | +.;X:XtXtXtXpXSXyXtX3XpX3XyXSXyXyXpXSX3Xz.+.6.0.1.} >.=.'.gX{.I.I.;.b f f n n g g f g g ).I.lXMXVXVXIXIX[.].lXMXFXMXMXHXFXFXUXMX'.lXHXGXFXGXUXaX1.FXUXsXlXW m m n n n g g g V ` K m n g g g n g g g g g n m m m m m m m m m m m m m m m m n g n m m m m m g g g g g g g g B H.H.H.i.MXMXMXIXMXH.K.xXxXxXxX{.s.G.T.xXxXxXHXT.V.H.I.VXHXHXHXlXI.T.8XP g b n g h.K.J.J.J.kXnXsXxXHXxXG.G.LXxXc.G.UXxXG.Y.T.c.c.kXUXT.J.J.c.c.c.xXPXc.c.c.c.c.J f f f f t.k.g g g f %.PXnXAXHX8XL.L.(.nXnXnXnXL.L.zXHXAXAXHXHXAXAXnXL.L.L.AXAXAXAXAXAXAXAXzXL.L.zXUXAXAXHXHXJXHXHX+X+X=XJXJXJXHXHXbX8X8XcX(.~.zXUXHXAXIXPX~.L.8XY.f g n b g V.8XL.L.Y.(.L.b.b.b.b.b.b.b.b.b.b.c.b.k.f f f f f f f f f f f f y.c.c.c.kXUXAXxXxXY.c.c.kXxXxXAXAXJ.k.U.UXxXK.T.UXkXC.xXUXJXHXMXMXK.V.xXLXh.h.J f f f n f f f f f f f f f i.V.s.s.s.s.V.V.V.s.s.s.V.s.s.T.FXT.G.kXUXI.H.xXUXs.s.HXPXi.s.C.I.I.].].[.$X@XUXBX%XBXUXOX[.MXUX`.h h m m n n / lXlX{.`.A.;.;.W g b m / ;.F.&.%./ xXLXQ ,.GXFXZ F.UXfXQ >.UXsX( '.UX'.-.M.k.W.qXrX6X6Xx.z z b n n z 6XeXeXeXeXiXiXiXiXSXuXuXiXSXZXCXCXSXpXpXpXiXuXuXiXpXiXuXeXeXeXeXeXeXqXqXqX6X6X6X6X6XqX6XQ.Q.W.m.g.j.D.......H H H H D D x D.o.D F Z.C l l x x c X.:.i i X.%.l l l f i l <.:X..z 1XtXtXtX5X5X5XtXtXuXuX5X5X5XtXpXpXuXyXyXpXpXyXyXyXyXyXyXtXyXyXtX:X:X;Xl.O.;X>X5X>X>X>X5X:X:X5X>Xg.D ..D.o.D H v v O.....c ;X;X,Xz [ +.,Xv < 0 0 9 0 z < < 9 *.z - , < 3 < < < 9 9 { ",
"w.w.0.0.0.0.$.$.0.0.0.0.0.0.0.0.0.4.$.$.4.w.w.0.4.,.$.4.4.4.4.4.0.4.0.dXdXdX0.aXdXaXaX0.<X<X9.9.<X<X9.9.9.9.8.8.8.8.6.6.6.6.6.6.O.v z z C Z C 1 , , < < 1 < < , < 1 < < < < < < w y w.q.0.7 9 [  .8.8. .8.8. .q C M { <. .9.w.dX+. .7.8. .| <X<X<XtX3X3X<X:XtXtX:X:X:X6.;X+.;X;X:X3XyXtXtXyXpX3XyXyX3XyXyXCXCX3X<X6.9.#.P >.4.}.fX{.S.`.' b 5 f n n g g g g h d.S.S.).).[.JXLX[.`.`.S.S.`.`.}.'.'.UXMX}.'.aXdXF.fXUXaXF.FXUX{.lXm m m n n n g g m S.a.N.F.>.g g g n g g g g g g n n g g n g g g g g g g g g g g g g g n n g n n g g g g b n b n H.P.H.H.i.H.H.H.PXxXH.H.H.H.H.G.G.G.G.G.G.V.G.T.I.c.H.I.OXOXoXoXI.I.T.2XP f n n g t.J.G.G.G.G.G.t.V.T.K.G.c.PXxXc.c.UXzXc.Y.T.c.c.kXUXT.c.c.c.c.c.nXPXc.c.c.c.c.J f f f f r.k.f f f f %.nXv.L.(.(././.L.b.b.Y.(.(.(.(.(.b.b.(.8X(.(.(.Y.b.U.(.(.(.(.(.(.(.8X8Xb.m.zXUX^.L.~.(.lXkX+X(.+X=X@X@X@XlXnXzXcXzXbXzX8XnXUX^.L.AXPXm.m.8X^.L g n b f T (.L.b.Y.8X(.(.(.(.b.b.b.b.b.v.b.b.b.k.f f f f f f f f f f f Y c.c.c.c.kXUXU.c.c.c.c.c.c.c.c.J.T.J.k.U.UXxXJ.K.UXkXV.xXUXlXI.I.C.J.k.xXLXj.h.t.n f f n f f f g g f f f f n i.s.s.s.s.s.s.s.s.s.s.V.V.s.T.FXT.V.kXUXP.H.xXUXT.T.HXLXt.s.f.I.I.].@X@X&XmXUXmXOXmXUX&X[.MXUX] g m m n n n A.{.T.I.S.N.;.,.;./ g m F.'.sX;./ / xXLXQ >.GXFX/ F.UXxXQ ,.UXsX( '.UXF.Z.L.8XeXrXrXeX6Xn.b b b b b z 6XrXeXeXuXuXuXuXuXiXiXuXiXSXSXSXSXSXpXpXSXpXyXyXiXiXiXiXeXeXeXeXeXeXqXqXqXqX6X6X6X6XqX6XQ.Q.Q.E.n.j.D.H H H H H H H D D x D.o.x D D.L x l l l l L :.l l X.%.9 9 9 1 l 9 o.,X..[ D.>X5XtX5X>X>X5X5X5X9X5X5XtXuXyXyXtXuXtXyXyXyXyXyXpXtXtXtXtX:Xz.l.....v ..l.n.z.>Xz.j.l.l.l.>Xl.O.v C D.o.x x l l [ ....z ..z.,X....z.;Xo.z 2 1 1 1 l , < 9 *.b , - - < ; ; - - - C ",
"0.0.0.0.0.0.$.$.w.w.w.w.0.0.0.0.0.4.y 0.0.w.q.0.4.4.4.4.0.4.4.4.aX4.0.dX0.0.0.0.aX0.0.0.<X<X9.9.9.9.9.9.9.9.8.8.8.6.6.6.6.6.6.+.| 1 z C X.C z - 1 , , < < < 1 1 1 < , < < 1 < 7 e 0.jX0.#.q q { 8.8.8.8.8. .{ { :.*.*.D.{  .w.hX9.<.8.9.+.O.3X<X<X3X<X<X,X:XtXtXtXtX3X3X:X6.6.6.;X;X<X9XyXyXyXyXyXyX3XyXyXCXDXyX3X<X9.<.-.F.dXdX{.{.S.`.] b 5 5 n n g g f f n N.S.d.d.).].MXIX}.}.'.'.'.'.}.}.'.'.UXMX'.`.'.dXaXxXUXsXF.FXUXsXlXn m n n n n g g ' ].S.F.T.{.` g g n g g g g g g n n g g n n g g g g g n n n n n n g g n n g g n g g g g b n n C.I.I.P.H.i.H.H.H.PXxXH.H.H.H.H.H.G.G.H.H.G.G.H.T.T.T.T.{.oXoX+X+X{.T.T.2XP g n n g h.T.T.T.T.T.K.t.J.(.Y.G.G.PXFXY.Y.UXxXJ.Y.(.J.G.zXUXkXY.Y.P.J.J.nXPXL.J.J.J.b.Y g g g g h.k.g g g b %.AXL.Y.8X8X8X8X^.^.^.^.8X8X8X8X8X^.^.8X8X8X8X8X8XY.^.8X8X8X8X8X8X8X8X8X^.^.zXUX^.L.^.(.kXlXkX(.(.lX@X@X+XcXnXcXkXkXzXnX8XFXUX^.^.HXPX^.^.8X8XZ.b n n g B 8X^.^.^.8X8X8X8X8X^.^.U.U.U.U.U.U.U.k.f b b f f f g g g g L b.c.c.c.c.kXUXU.c.b.J.b.J.Y.Y.Y.Y.T.J.G.Y.UXzXJ.T.UXzXT.xXUXlXI.T.T.Y.K.FXPXD.K.K.K.-.g n f f f f f f f f f f g i.s.s.V.s.s.s.s.s.s.V.V.G.T.FXT.G.kXUXI.H.xXUXUXUXUXLXt.s.f.I.I.].UXUXUXUXUXmX[.mXUX&XOXVXUX` n n m n m n {.{.{.I.H.S.F.F.F.A.Q / UXUXUXaXA.A.dXdXQ =.dXdXA.F.UXxXW A.UXsX^ F.UXT.m.rXUXUXUXUXUXqXm.b b z b n z 6XrXeXeXuXiXiXuXuXiXiXuXiXDXSXSXSXSXpXpXSXSXyXyXiXiXiXiXiXiXiXuXuXeXrXrXrXeXqXqXqXqXqX4XQ.Q.Q.Q.n.z.D.h.j.o.o.H H o.o.o.o.D.o.x F B...x x v o.X.o.:.l l X.*.9 1 1 l z 1 X.D...O.:.z.;X:X>X>X>X>X9X9X1X9XyXtXtXyXyX5X9X5X5XuXyX5X5XuX:X:X:Xn...F G x l l H l.n.l.l.l.j.l.l.l.l.l.O...z :.X.X.o.o.v v ..+.X.z.D.,XO.l.z.;Xo.c C C C } } z < 9 *.b , - 0 M M M M = # M ",
"0.0.0.4.0.0.0.w.w.w.0.$.4.0.q.0.0.4.y w.w.gXaXaX'.aX0.4.'.'.'.4.aX4.4.0.4.4.0.aX<XaX0.<X<X<X<X9.9.9.9.9.9.9.9.8.8.6.6.6.6.5.+.{ < z C X.C 2 , < < , - < ; ; 1 i i < ; < 2 1 9 w y w.hX1.8 v C D.D.,X,X<X<X{ { =.*.*.:.D.{  .hXhX9.<.<.,X6.;X3X3X3X<X,X,X6.;X3X3X3X5.:X3XtX3X3X3X:X,X<X<X,X,Xl.;X:XyXpXyXyXCXSXtX;X<XF.>.>.dXgX}.i.S.`.`.] n 5 5 n b g g f n 1.UXUXUXUX`.d.MXUXUXUXUXJX{.{.}.}.}.gXUXUXUXUXUXfXaXFXUXdXF.FXUXlXMXm m n n n n g g ^ ].{.{.{.{.S.K n n g g g g g h n n g g n n g g n g f n n n n n n g g n n g g g g h g g n b i.P.I.P.P.I.sXUXUXUXUXMXH.H.{.I.H.T.UXUXUXUXUXUXUXUXUXUXUXUXUXUXUXUXHX8X2XT.P g b b g M.kXkXsXsXkXkXM.K.PXUXUXUXUXHXkX8XUXUXUXUXUXkXL.zXUXUXUXUXkXP.P.FXUXUXUXUXHX/.T n n n n T.T.n n n n %.UXUXUXUXUXUXUXUXUXUXUXUXbXbXbXPXUXUXUXbXbXbXAXAXbXbXHXUXUXUXKXbXbX0XnXzXcXzXHXU.U.^.^.Y.vXPXUXUXUXUXHX8XkXnXzXkXzXUXUXUXUXUXzXzXPXUXUXUXUXPX0Xn m n n n zXZXbXbXbXbXbXZXAXbXbXbXbXrXrXrXrXrXU.n n n b b b b b b m FXUXUXUXkXb.2XHXJ.J.nXUXUXUXUXLX2X2XIXUXUXUXUXxXJ.8XUXxXkXxXUXUXUXUXUXT.T.xXFXT.T.T.T.T.K./ f f f f f f f f f f g g T V.V.V.s.s.s.s.V.G.G.G.T.FXT.G.kXUXP.H.T.T.T.T.T.I.i.f.I.I.I.].UXVXlX@XmX&X$XmXUX*X&XBXUX^ f f n n n n T.lXlX{.S.S.'.F.F.F.A.m sX'.sX'.F.F.F.&./ ,.A.F.F.F.UXxX( N.UXaXQ F.UXqXQ.rXUXrXrXKXUXeXU.B B b n n z 6XrXeXeXuXpXiXiXiXiXuXuXyXSXSXSXZXSXpXyXpXSXyXyXpXpXpXiXiXiXiXiXiXrXrXrXrXrXrXrXeXeXqX6XQ.Q.Q.Q.E.z.D.D.D.D.D.H H z.D.D.D.D.o.x C :.L x l X.:.:.:.:.l l X.o.1 1 1 2 p 1 X.o...z.:.o.O.>X>Xm.m.1X9X9X1X0X9X5X:X9XyX9X>X:X5XyX>Xl...z.......l l x x x x x ......z.g.l.l.l.l.l.l.l.;Xz.x :.:.:.:.:.L v o.D.D.,X,XD.....o.o.l 9 X.*.*.*.*.M ; 9 *.b < , M @.@.@.@.- % M ",
"$.4.$.$.0.0.0.0.0.0.$.y 0.0.0.$.$.4.w.w.gX4.4.4.4.4.4.! ,.,.,.$.4.4.4.4.4.0.aX<X<X<X9.9.9.9.9.9.9.9.9.9.9.9.8.8.8.8.6.6.6.+.[ l l X.L C 1 1 , < < < < < < < < 1 1 < ; ; < p 3 y 0.jX1.{ 0 v [ <.<X7.9.0.9.{  .aX9.$. . .t  . .t t t +.<X6.6.8.8.,X3X;X6.5.5.5.6.6.6.6.;X5.:X:X:XtX3X3X:X3X<X,X5.5.:X;X:X:XyXpX:X6.9.P m &.gX'.S.a.N.S.S.( n f f n n g g f n 1.MXmXJXUX].S.{.MXxXfXLXJXS.,.] }.}.}.fXxXxXFXUXaX1.fXUXsXF.FXUXlX@Xm m n g n m g g V ].d.a.N.S.I.I.;.n g g g g g g n n g g m n g g n n g n n n b n n g g n n g g h n n h h n a.oX!.I.I.I.I.sXPXxXxXxXkXH.T.UXxXH.T.UXnXxXxXxXxXxXxXxXxXxXFXMXxXxXIXnXJ.J.J.P g n n f M.kXkX{.{.FXUXM.G.PXIXxXxXxXkXJ.T.nXxXxXnXUXkXJ.kXxXzXxXnXT.J.J.kXxXxXxXIXHXY.T g g n n K.Y.n n n n P AXAXAXAXAXAXAXAXAXAXKXUXzX8XwXAXAXAXAXcXwX8XIXPX0XbXnXHXAXAXnXkX8XAXUXbX(.~.^.^.8X8X(.^.vXPXIXHXAXUXHX8XwXnXkX8XzXUXHXHXHXAXwX7XnXHXAXAXIXKXwXL n n n n T.0X8X8X8X8X8XzXbX8X8X8X8X8X8X8X8X8XJ.b b b b b b b b b &.HXzXnXUX8Xc.k.k.k.k.zXUXzXxXLXLXG.G.PXPXzXxXxXT.J.2XUXkXK.T.xXxXxXPXUXM.k.k.V.k.h.h.t.t.y.s.i.K f f g f f f f f f f f U s.V.k.k.V.V.V.H.G.s.T.FXT.G.kXUXP.H.H.H.H.G.G.y.s.s.S.].].].UXVX$X$X$XOXI.lXUXI.S.xXUX,.g f f n n g I.S.{.F.-.-.F.;.' ' F.=.>.P / ] ;.F.F./ / V Z / &.&.UXxX&.F.UXsXr.7XUXqX6XrXUX6XQ.AXUX6Xn.z b b n n z 6XrXeXeXuXSXiXeXuXiXtXiXSXDXSXZXSXSXpXSXDXDXSXSXSXSXSXpXiXpXpXyXZXiXZXrXqXqXqX6X6XqX6XQ.Q.Q.Q.Q.Q.n.g...H j.D.H H D.o.D D D D x v B.L x l l l l l l l l X.*.i l l 1 1 1 *.{ v ..<XB i H 1Xg.g.>X0X>Xz.>X9X:X>X9X9X5X5X5X9XuXl.H l H x x x l x x x x x x x x v ..l.l.l.l.O...........l l i i v :.M p C :.z z l z l i } X.< < X.} < < *.M - < @.0 - - - - - M @.& & N ",
"$.0.4.0.0.0.0.0.0.0.$.$.0.0.4.$.4.0.w.0.gX4.$.$.4.4.! ! ! ] ,.4.4.4.4.4.0.aX<X<X9.9.9.9.9.9.9.9.9.9.9.9.9.9.,X8.8.8.6.6.6.{ v z c X.C l 1 < 1 < , < < < - < : 1 1 - 7 ; < p w 4.w.jX#.w 9 [  .9.9.9.9.9.9. .<.aX0.9. . . .t | { { { +.,X6.6.6.6.6.<X,X<X<X5.5.6.6.,X;X5.6.;X:X:X3X3X:X:X<X<X<X;X:X3X;X;X;X3X3X6.+.1.Z Q 4.fX`.S.a.a.C.S.W n f f b n g g g n F.{.].MXUX`.d.a.F.S.,.GXJX`.,.4.}.}.S.N.A.`.dXUXdXF.fXUXsXA.FXUXsX{.m m g g g m g g m ].d.a.M.S.I.I.{.A.g g g f f f n n g g m n g g n g g g n g g n n g g n n g g h n n n n K oXoXoX!.!.I.I.sXHXP.H.I.I.H.T.UXxXH.T.UXT.H.H.H.H.H.P.P.I.T.kX{.I.T.LXFXJ.J.J.P b n b b M.sXsX{.{.FXUXM.C.JXPXP.P.H.J.J.Y.(.J.J.T.UXkXJ.T.T.G.G.(.Y.G.G.G.J.J.J.PXHXL.T g g g g V.K.b n b b B ^.^./.8X/.^.8XkXkXkXnXUX8X^.8XkXkXcXkX8X(.(.IXKX(.8X8X8X(.8XcXcXkXAXUXcX^.^.^.^.8X8X8XkXlXPXPXkXkXUXHXkXkXnXlX8XzXUXnXcXbX0XwX7X8XkXkXkXPXHX^.h.n n b n :.kXkXkX8X^.^.8XkX^.^.^.^.^.Y.Y.Y.^.k.f g g b b g b g b aXzXJ.T.UX8Xc.c.k.k.k.zXUXk.G.FXLXk.c.PXHXG.T.T.G.G.T.UXkXG.C.C.I.I.MXUXV.V.k.k.k.k.h.t.t.t.y.V.s.U n f f f f f f f f f f K V.V.V.V.V.V.V.G.H.{.FXT.H.kXUXxXxXxXI.H.H.kXzXzXxXxXlX].[.UXJXBXBXVXVXxXHXUXI.S.xXUX` f f 5 f n m I.S.'.A.X.%.F.;.' / F.aXaXdXdXfXfXxXxXdXdXdXdXaX( ,.UXMX,.'.UXsXE.qXUXqXQ.rXUX6XQ.AXUX6XE.z z z n b z 6XrXeX5XuXpXiX5XuXiXiXSXSXSXSXSXSXDXSXSXDXDXSXSXSXSXSXSXSXSXSXiXSXZXZXrXeXeXeXqXqX4X6X6XQ.Q.E.Q.Q.E.x.g.H h.Z.H H Z.h.D D D x x c :.L x l l l l l l l l X.%.i l l 1 1 < *.} l v <Xo.l b D.....z.1Xz.g.>X9X:X>X1X9X>X>X5X5X5X..v l x l l l l x x x x x v l l l v ..........v v v v v l i 1 l v *.C 9 C :.z 9 9 9 1 2 Z %.1 1 X.} < < %.M - < @.0 - - ; # = M @.= $ N ",
"$.0.0.0.0.0.0.0.0.4.#.$.0.0.y 4.0.0.w.4.0.4.4.4.4.4.! ] 4.4.4.4.4.2.4.4.aX<X<X8.8.8.8.9.9.9.9.9.9.9.9.9.9.9.,X8.8.8.8.6.+.z z c L C z , - 1 < , , 1 < 1 , < ; , > - 7 9 < 2 N 0.w.w.e 9 9 { 7.hX9.8.8.<X9. .+.<X0.9.9.9. .| | 8.8.<.<.<. .8.8.<X<X<X<X<X3X6.6.6.6.3X<X5.3X5.5.5.3X<X<X3X3X3X3X<X3XyX<X,X;X1X;X6. .,.Z &.aXfX{.I.I.F.T.T./ n g f b b g g f n '.}.].MXUXS.a.N.'.'.'.JXLX}.'.dXgXfX{.{.sXsXfXUXfXF.dXUXsXF.FXUX{.{.n m m n n m g g g ' d.a.a.S.S.S.T.{.S.V n n g n n n g g m n n n n g g g n g g g n n n n n g g h n n V N.oXoXoXoXoXoX!.I.F.PXT.T.T.T.T.(.UXxXH.T.UXT.H.K.T.T.T.T.P.P.T.kX{.K.T.LXxXJ.J.J.P b b b b N.sXsX{.{.HXUXN.K.PXLXkXkXkXY.J.Y.(.J.J.T.UXxX8X8X8Xc.J.8X(.Y.Y.8X(.Y.T.LXHXL.L g g g g h.V.g g g g B Y.Y./.8XY.L./.kX8X8XxXUXY.L.8XkX8X8XkX(.L.L.LXHX~.~./././.8XkX8X/.zXUXkX(.wXwX^.7X8XkXnXlXPXPXlXlXUXHXlXlXxX@X+XzXUXnXvXvXcXcX8XkX8XY.^.KXHX~.V.n b g g Z ^.^.(.8XL.L./.8XL.L.L.L.L.L.L.L.L.T f f f g g g g g g MXxXG.T.UXkXU.U.J.k.k.zXUXk.J.HXLXk.c.LXPX2XsXT.J.V.T.UXkXV.V.V.K.P.FXUXT.T.T.Z.k.Z.T.T.T.T.K.V.V.s.i.n f f f f f f f f f f K C.C.C.V.V.V.H.H.+XFXT.H.kXUXUXUXUX(.H.H.HXUXUXUXUXVX].[.UXUXUXUXUXUXUXUXUX{.I.xXUXJ f f 5 f g m S.N.F.>.P / F.F.A.>.aXfXFXUXUXUXUXUXUXUXUXUXUXGX1.'.UXMX,.aXUX8XQ.eXUXqXQ.rXUX6X6XrXZXeX4Xb b z n b b 6XrXeX5XuXiXuX5XuXpXDXDXDXCXSXDXDXDXSXpXDXSXpXpXiXiXZXDXDXSXSXZXSXZXZXZXiXrXrXrXrXqXqXqXqXqX4X4XqXqX7Xg...j.z.H H D.h.D D o.o.o.o.:.L x l l l l l l l l X.%.2 1 } } } X.>.Z 2 z ,X,X:.Q D.....z.1X....>X1X1X1X1X1X>X>X>X>X:XH x x l l l l l v v l l v v l l i i C v c z z z 1 9 1 1 l 1 0 0 v *.C 9 v *.9 9 9 9 < < } %.< < %.} , - %.M - < %.{ { { N < # w @.# # M ",
"0.w.0.0.4.4.4.4.1.$.r y 4.4.y 0.q.0.4.$.4.4.4.4.4.! ! ] 4.4.4.4.! ! 4.4.<X<X,X8.8.8.8.8.8.8.9.9.9.9.9.9.9.8.,X8.8.8.8. .v 2 C P P 1 - - < 9 9 - > 1 < 1 < - + ; 1 1 < l 2 $ 4.w.w.#.w 8 @ 9.7.0.<X[ |  .9. . .9.7.8.8.<X,X+.t 8.<X,X .X.[ | <X<X,X<X<X6.5.:X;X<X3X8.<X3X<X5.;X3X6.3X3X3X3X3X3X;X;X<X<X<X<X0X|  .{ s Q 4.gX}.{.I.S.I.I.I.Z n g 5 g g g g f g A.}.].MXUXS.' xXUXUXUXUXJX}.}.IXUXUXUXUXUXUXUXUXfX'.dXFX'.F.FXUXT.F.n n n n n n g g g V N.N.M.N.N.M.M.S.S.K.T.N.' W V n g g m n n g n n g n n g g n n n n n n g V V ' S.+X+XoXoXoXoX+X+X+XoXF.UXUXUXUXUXUXUXUXxXH.(.UXT.H.kXUXUXUXUXkXP.T.lXkXJ.U.LXAXJ.U.8XP b b b n M.K.T.{.{.HXUXA.F.JXUXUXUXUXnXH.J.kXT.J.T.UXUXUXUXUXT.L.nXUXUXUXUXPXY.T.PXHXL.T f g g g h.k.g b b g / UXUXUXPX^.~.kXUXUXUXUXUX(.~.nXUXUXUXUX8X~.~.HXnX~.~.UXUXUXUXUXcX~.cXUXUXUXUXUX^.^.HXUXUXUXUXPXkXkXUXJXlXlXHXcX@XnXUXUXUXUXUXUXUXUXmXkX^.HXHX~.P.n b g g n ~.~./.8X~.~.(.8XL.~.~.L.L.L.P.P.P.t.g g g g g g g g g FXzXJ.T.UXUXUXUXkXc.k.zXUXc.J.HXPXc.c.LXUXUXUXHXJ.J.2XUXsXZ.T.K.V.K.xXUXUXUXUXLXV.K.2XUXUXUXPXV.V.V.V.V.U g g g g g f f f g f K V.V.H.H.I.I.I.+XFX(.H.P.T././.T.P.L.H.HXPXI.].LXJX$X].T.T.+XmXMXmXmXlXlX{.I.xXUXP f f f 5 g n J T / K ( ' A.A.A.A.F.&./ ;.F.F.F.F.F.;.>.'.LXGX'.F.UXxX/ A.UX2XE.qXUXqXQ.rXUX6X6XqXqXqX7Xn b B n B B 6XiXrXeXuXiXZXiXiXDXSXSXSXDXKXDXpXtXtXtXtXtXtXtXtXtXtXtXuXpXSXCXSXiXSXZXiXiXrXrXrXeXqXqXqXqX6X6XqXqXqXE.g.H D H H H H D D D.z.o.o.o.v x x l l l l l l i i p 1 1 } *.%.%.%.Z 5 b } ;X;Xo.M l v o.D.z.z.l.;X1X9X1X1X>X>X9X9X>Xx x x i l l i l l l l l l l l v v l 9 1 < 9 1 3 2 l 1 1 z =.C 0 9 < < < M *.9 < M %., , M } - % % % % - %.M , 3 Z Z Z } @.9 - - ; ; - b ",
"$.0.$.y y y y y Q N e y 1.1.y $.0.0.! ! ! ! ! ! ! ! ! ! 4.! ! ! ! ! 4.4.<X,X,X6.8.8.8.8.8.8.8.8.8.8.9.8.8.8.8.8.8.8. .[ l L P C z < , < < < < , 1 < < , < < - , 1 1 1 i p e w.w.0.e q t t 0.8.8.,X[  .8.9.9.9.9.8.8.8.8. .| t 9.8. .q } { [ +.<.{ | +.+.6.6.:X<X,X5.,X3X6.<X<X<X,X<X3X5.3X3X3X;X;X3X<X<X6.,X<.{ M 2 4.aXdXS.S.S.i.i.p.p.b g g 5 g g g g f f ^ ].S.xXUXS.' xXIXsXsXsX'.`.}.IXFXsXsXsXfXfXfXMXfX}.'.'.'.F.FXUXF.F.g n g g g g f g g g ` M.M.M.M.i.a.`.I.I.{.T.S.`.].I.I.].}.{.oXH.H.H.H.T.kXI.P.K.H.I.I.!.+X+X+XlX@X+X+X+X+X+X+X+XoX+X+X+XS.vXlXlXkXkXkXlXlXT.H.T.UXT.H.kXUXlXlXxX+XP.I.HXHXJ.U.LXAXU.1X8XP b n b g M.T.{.{.{.FXUXA.F.sXkXkXzXIXnXK.J.UXxXJ.P.kXkXkXnXUX(.b.nXUXkXkXKXPXb.L.PXHXL.L f g g g h.V.g g g g Z kXkXzXnX~.~.kXUXHXzXzXzX/.~.nXUXzXzXnX8X~.^.8X(.~.~.UXHXzXnXUXbX^.8XAXbXbXHXUX^.Y.HXIXxXMXMXnXkXlXUXJXlXxXUXnXkXvXHXxXMXHXAXVXMXMXMXmXlXJXHX^.^.Z b g b b ~.~./.8X^.~.(.8XL.L.L.L.L.L.L.L.L.t.g g g g g g g g g FXzXJ.J.kXkXkXkXY.G.c.zXUXc.J.HXLXc.c.2XkXkXkX2XJ.J.2XUXsXK.T.T.Z.J.T.sXsXsXHXLXZ.K.T.kXsXsXT.s.t.s.V.s.s.K g g g g f f g g g f K H.I.I.I.I.I.+XFX(.H.H.P.P.P.P.H.H.H.HXPXG.I.LXHX!.!.+X+XlXlXkX+XI.I.K.H.C.xXUXK f f f 5 g n ;.N.N.,.;.&.%./ ( ;.F./ m Z / / ( / W Z Z >.GXFX;./ UXxXL >.UXsXj.7XUXqXQ.rXUX6X6XeX6X6XW.B B B n n n eXiXrXeXuXuXiXiXpXyXiXSXSXDXDXSXuXuXiXpXpXSXSXpXpXpXuXuXuXuXuXpXSXSXiXZXiXrXeXeXeXqX6X6X6X6X6XQ.Q.6XqXQ.n...H H H H H D D D.o.x x x x x x l l l l l l i l l 1 1 X.%.b b f b b b 2 [ ..O.* 3 z C >.C v ..l.l.>X:X>X>X>X1X>Xl.x x x l l z z l l l z l l l l l l l l l 9 l 1 1 l z 9 1 l *.C 1 1 , * , b *.3 < M %., , M } - - - - , , %.b & % % - - z %.0 & & = = & ; ",
"$.4.$.y #.#.y y r e N e 1.1.#.$.4.4.! ! ! y Q ! ! ! ! $.4.! ! ! ! ! ,.1.,X,X6.6.6.6.6.8.8.8.8.8.8.8.8.8.8.8.8.8.8.6.[ v p T L z , < < < < , , , < 1 , , < 1 < , 1 1 1 i w y w.w.1.8 8 t  .hX8.D.D.[  .9.9.9.7.7.8.8.8.8.| t 5.9.6.| q } { [ +.*.v [ [ { +.6.6.6.6.5.;X:X6.<X<X<X<X<X<X6.3X3X3X;X<X3X3X6.+.8.<.{ b 6 aXdX}.N.S.S.i.i.p.a.g f g f f g g g f g ^ `.N.fXUXA.' MXLXA.,.,.] `.}.LXMX;.A.N.F.'.'.}.dX}.'.'.'.'.FXUXF.F.g n g f f f f g f f V M.M.V.i.a.a.`.].I.{.F.S.S.].I.I.].}.{.oXH.H.H.G.T.kXI.K.K.H.I.I.!.oX+X+XlXlX+X+X+X+X+X+X+XoXoXoX+XN.oX!.I.I.H.H.I.H.P.H.T.UXT.H.kXUXT.P.kX(.P.I.HXHXJ.U.LXFXU.1X8XP b b n g N.T.{.{.{.FXUXA.F.T.K.K.T.IXFXK.P.UXzXJ.J.J.J.J.kXUXT.b.xXUXJ.L.HXPXJ.L.PXHXJ.L f g g g h.G.g g g g B L.L.~.(.~.~.kXUXnX8X8X8X~.~.nXUX~.~.8X8X8X8X8X(.~.~.UXAX8XcXUXbX^.8XwX^.^.nXUX^.(.HXIXkXkXkXkXkXvXUXJXkXzXUXnX8XvXVXzXxXnXbXxXlXlXVXVXMXLXHX^.^.M.n n n b L.~./.8X8X8X8X8XL.L.L.L.L.L.L.L.L.k.g g g g g g g g g LXzXb.b.b.J.J.G.G.G.G.xXUXG.J.HXLXc.c.c.c.G.J.J.J.J.2XUXkXK.T.T.k.J.V.k.V.V.xXLXZ.K.T.K.V.V.s.s.M.V.V.V.V.V.T g g g f f g g g g g i.I.I.!.I.I.+XFXHXnXnX+XP.!.kXVXVXnXPXPXG.I.LXPXHXHXHXVXlXxXHXHXxXxXxXxXxXHXUXK f f f f g V S.S.S.S.;.&.%./ / &.aXsXF.xXxXxXxXxXfXfXZ >.HXFX;./ UXxXL :.UXsXj.^.UXeX6XrXUXAXAXDXAX6X4Xn B b n b c eXiXrXeXuXuXiXpXpXyXpXSXDXDXDXSXpXpXSXDXDXDXDXDXSXSXSXpXpXiXiXiXSXSXSXZXiXrXeXeXeXqX6X6X6X6XQ.Q.Q.6XqXQ.E.g...H H H H H D D...x x x x x x l l l l l l i l l 1 p %.&.n b f b b b 5 z [ 5.0 0 3 C :.z l ....l.l.l.;X>Xl.;Xz...x x l l l l z l l l z l l l i i l l l l l 9 1 1 l l 9 1 9 *.C 1 1 , * , b %.3 , M *., , C } - - - , , , %.b % - - - - 0 @.3 % $ $ $ $ = ",
"Q 1.$.1.1.1.1.$.$.$.1.=.1.$.N Q 4.'.4.4.4.1.1.1.,.! ! $.4.4.4.4.4.! ,.1.,X6.6.6.5.6.6.6.6.6.8.8.8.8.8.8.8.8.8.8.8.| l l P o.c < # < 1 < - - , < < , - 1 1 < 1 1 < 1 u , Q 0.jX0.N 0 9 {  .w.9.D.<. .8.<X0.0.9. .9.8.8.8.t 5.3X9.8. .<.<.| | 8.<.+.*.@.N 3 q v [ +.5.5.5.6.<X8.6.3X<X<X3X<X<X,X<X3XhX3X+.| 8.9.*.=.'.MXfX{.F.A.;.A.I.].'.m n f f f g g g f g &.lXsXFXUX>.( MXLX' ;.sXfXMXMXUXFX'.'.fXxXxXMXMXMXMXMXxXxXMXLXUXsX'.n n n f f f f f f f f P i.f.d.d.F.{.{.{.{.F.N.S.@X{.+XlXlXlX+XT.(.T.T.{.+XI.K.P.I.I.I.+XlXlXlXvXlX+X+X+X+X+X+X+XoXoXoX+XA.vXvXvXlX+XI.I.kXkXkXxXUXT.H.kXUXlXlXxXxXP.P.HXLXkXzXIXFXU.1X8XP b b n n F.kXkXlXlXFXUX'.sXxXT.T.T.IXFXK.T.UXnXT.(.zXkXkXFXUXkXT.xXUXJ.L.HXPXL.L.IXKXT.X.g g g g h.V.g g g g Z kXkXkXkXkXkXxXUXzX/.(.8X^.^.nXUXcXcXzXzX/./.zXzXzXzXUXnX^.8XUXnX(.8XT.M.-.F.xXY.kXHXIX+XwX(.(.(.wXUXHX(.wXUXxXvXvXNXkX8XkXzXnXnXnXnXlXmXLXPX(.L.V.g g b b L.~.~./././././.L.L.L.L.L.L.L.L.L.L.b g g g f f f f f GXHXkXkXkXY.J.Y.kXkXkXFXUXG.J.HXLXT.T.zXzXzXzXzXkXT.sXUXsXZ.T.sXzXzXzXzXT.T.FXLXM.D.xXxXxXlXlXT.C.C.K.K.C.C.V.V g g g g g g g g g n I.I.P.P.!.+XMXPXPXPXkX!.!.xXUXPXPXPXHXI.H.HXLXPXIXUXHX(.kXUXIXLXIXIXIXIXLXLX/ f f f f g V `.S.'.F.F.F.F.;.Z / sXFXfXLXLXLXLXLXIXLXC -.HXHXA.A.UXfXZ M.UX2Xz.U.UXqX6XeXPXPXPXIXUX6XW.B B b n n c eXiXiXiXZXZXDXDXDXDXDXDXDXDXDXDXKXKXDXDXDXDXDXDXKXKXKXDXDXDXSXuXSXSXSXZXZXZXZXbXrXrXrXrXeXeX6XQ.Q.6XqXqXqX1XU.z.z.Z.D.D.z.D...x x x x x x x l l l l l i C X.*.:.>.;.n b %.*.%.%.=.%.*.;X,X*.@.X.*.z 1 i v v H z.D.z.+.+.o.L v x l l 1 1 z 9 1 1 1 l l 1 1 1 1 2 2 3 p 3 l l l 9 < 1 < X.M 1 1 < < - z X.< - M %.- - M @.} } } } @.@.%.b ; ; 0 ; & 0 @.: . 5 Q Q Q N ",
"N $.$.$.$.#.#.#.$.$.#.=.#.#.e Q ,.,.$.,.,.,.,.,.! ! ! &.,.,.,.4.4.&.<.8.6.6.6.5.5.6.6.6.6.6.6.8.8.8.8.6.6.6.6.+. .9 l C X.z 1 , < - - < - , < < < - - < < < 1 1 < 2 2 e 4.jX0.#.q C c M t w.9.<.t [ +.dXhXhX<X,X8. . .8.8.8.8. .8.8.3XyX3X3X<X<X<X<X<X<.{ } b b 5 8 q t +.+.O.5.5.:X3X3X:X:X:X3X<X<X,X[ [ 8.1.#.1.dXMX}.F.T.' ` S.'.`.].V n g f f g 5 g g n 1.UXUXUXUXA.;.MXLX,.' HXUXUXUXUXFXF.'.UXUXUXUXUXUXUXUXUXUXUXUXUX{.'.m n n f f f g g f f f g a.d.d.S.T.{.F.I.T.S.a.S.}.{.{.{.}.{.F.T.T.T.T.T.{.I.H.T.+XI.I.@XlX#X@XlX@X@X@X@X@X@X+X+X+X+XoXoXF.UXUXUXUXHX!.!.UXUXUXUXUXT.H.kXUXUXUXUXUXI.T.PXUXUXUXUXFXU.1X8Xo.b b b n B.sXsXsXsXMXUXfXLXUX{.T.{.IXFXK.T.UXxXT.kXUXUXUXUXUXkXY.8XkXJ.J.nXPXL.Y.LXHX/.X.g g g g V.V.g g g g %.UXUXUXUXUXUXUXUXzX~.(.8X~.Y.nXUXUXUXUXPX~.~.PXUXUXUXUXnX~.(.UXbX~.P m m Z Z Z C K.HXIX+XcX+X+X(.7XUXHX+XkXUXnXvXnXJXvX(.nXUXUXUXUXPXY.8XPXIX@X+XV.b b g f G.~.~.L.Y.L.L.L.L.L.L.L.L.L.L.L.L.L.J g g g g f g g g MXUXUXUXUXkXJ.kXUXUXUXUXUXG.K.FXPXY.Y.PXUXUXUXUXxXT.2XUXsXV.T.xXUXUXUXUXT.T.FXLXZ.F.JXUXUXUXUXFXI.I.T.I.I.K.H.C.f g g g g g g g g g a.I.I.I.I.P.V.H.H.H.P.!.!.nXUX!.!.P.H.H.I.@XlXvXcXUXHXmXMXUXBX[.[.{.I.C.C.N.P g g g f g m d.;.F.F.A.A.A.&./ ;.sXFX( ,.F.A.A.F.FXLXB P FXHXF.F.UXxXJ o.UXaX>.2XUX^.6X6X6XQ.6XAXUX6XE.b b b n b L eXuXiXiXiXiXSXpXpXSXDXSXSXpXpXSXDXKXDXDXKXDXDXDXDXSXSXSXSXSXSXDXpXpXZXSXpXpXAXZXrXrXrXrXeXqX4XQ.Q.6X4X4X4X4Xm.z.j.h.o.o.o.o...D x x x x x x x l l l l i X.*.%.%.%.P z l :.*.X.X.X.X.X.} ;X+.} { { 1 1 Z %.2 2 X.:.X.X.X.C z c l 1 1 1 1 0 9 9 1 < < < < 1 1 9 9 1 9 9 l 9 9 < < < - < < , , z *.z - z %.< , M *., < b N N N M M M M e : X + @.: X 0 *.q q { <.<.<.,X",
"e e e e N N e e N M e N e e N Q Q Q Q Q Q Q Q Q r Q ( ! ! ! ! ,.4.=.+.6.6.6.6.6.6.6.6.6.6.6.6.6.6.6.6.6.6.6.6.| [ z C C C < , , < , , < , , , , < < < , < < 1 9 1 2 * y 0.jX1.N 8 C C M q w.0.9.[ [  .<XhX9.8.9.8. . .8.8.6. .8.6.3X3XyX3X3X3X3X3X6.<X,X+.+.+.{ { M M v [ [ [ | | 6.<X;X5.5.5.3X6.,X+.[ <.9.{ Q ,.dX}.`.S.T.-.` S.}.d.`.m g g f 5 5 5 f f n 1.sXF.F.F./ / xXLXA.,.JXLXsXsXsX'.,.F.UXFXlX}.sX{.{.sXsXsXdXfXfX'.S.g g g f f f g g V K f f ^ d.d.S.'.{.a.a.a.i.^ W / V g g g g g f g g g g g g g n n g V V ' d.].@X@X@X@X@X@X@X@X+X+X+XoXoXF.PXlXlXIXHX!.+XUXMX+X+X(.P.H.T.+X+XkXHXUXI.T.zXkXkXkXzXU.U.1X8XP b g g g M.T.T.{.{.{.lXF.sXxX{.T.{.IXFXK.T.UXxXJ.(.UXxX8XkXkXP.G.J.J.L.J.nXPXL.Y.IXHXL.T g g g g V.G.g g g g %.HX8XkXkXkXkXkXkX(./.(.kX~.~.kXzXkXkXHXIX/./.IXPXcXcXcX(.~.(.UXzXP n n n n n n n n sXIXkXkX+X+X+X(.UXHX+XlXUXnXkXnXUXVX8XnXUXbXcXHXIX8X8XPXLXlXlXT.b b n g J.~.~.^././././.L.L.L.L.L.L.L.L.L.L.J.g g g g f g g g F.8X8XzXUXkXJ.kXUXkX8XT.T.J.J.nXLXJ.c.PXHXT.T.UXzXV.K.UXkXV.Z.T.T.T.xXUXZ.Z.FXLXM.Z.HXJX{.kXUXFXS.S.C.S.C.K.C.C.K f g g g g g h g g K I.I.I.I.P.V.H.H.H.~.!.!.nXUX!.!.~.P.I.{.lXlXxXxXUXJX&XmXUXmX].].I.H.C.C.M.K g g g f f m ' ' F.B.P P A.;./ ,.sXfX( ,.F.&./ >.FXLXC B FXFX;.F.UXxXL -.UXsXA.2XUX^.Q.6X6XQ.6XAXUX6XE.b B B B b L eXeXeXuXuXuXiXuXuXSXSXyXyXpXuXiXDXKXDXDXDXDXDXSXSXSXSXpXpXpXSXSXuXuXiXiXiXiXSXZXrXrXeXqXqXqX4X6XQ.6X6XQ.E.Q.E.g.H D D H D D D x x x x x x x x l l l l i X.=.B B p i l l :.X.z b z z l 1 O...[ - 1 1 < Z X.1 1 } X.z 1 l l l l l i 1 1 1 < < 1 1 < < < < < 1 1 < < < 9 9 9 < - , , - < - - , 0 *.z - z *.9 , M %.& % $ $ = = = # ; ; ; 7 9 q <.{ q { <.{ [  .8.[ [ +.",
"e M e e #.y N e M b b e w e r r r r W r r W Q r r Q ( ! Q Q ! ,.4.<.6.5.5.5.6.6.6.6.5.5.6.6.6.6.6.6.6.6.6.6.O.v < B P C 0 - - - 1 < < < < , - - < < < - < , - 9 9 3 4 4.w.jXN w q v C M z 0.0.9.o. . .9.0.8.8.9.8.|  .9.8.+. .<X3X3X3X3X3XCX3X3X3X8.,X,X6.5.6.6.+.+.o.[ q q v v q { <.| O.| t ;XO.<.+. .9.<Xv &.'.gX`.S.S.T.M.' S.}.`.`.m g f f 5 f g f g n &.F.` ` -./ / xXLX'.`.JXJX'.S.`.,.,.F.UXMX}.`.S.S.S.S.F.F.'.'.{.{.S.g g f f f f g g S.a.T f f ' d.N.'.{.d.) V f f f n n g g g g g f f g g g g g f n n g g n n h h V oX@X@X@X@X@X@X@X+X(.(.+XF.JXoX!.IXHX!.+XUXxXI.H.H.H.H.H.H.H.I.HXUXI.T.kXY.K.T.2Xm.U.1X2XP b b g b M.T.T.F.{.{.{.A.T.sXT.I.T.IXFXK.T.UXxXK.(.UXkXL.T.T.J.G.J.L.L.J.nXPXP.Y.IXHXL.P g g g g V.G.b g g g %.AX~./.kXkXkXkXkXkXkXkXkX~.~.(.kXkXkXHXIXkX8XIXPXkX8X8X^.~.8XUX'.n n n b n n n n n Z LX8X+X+X+X+X+XUXHXvXvXUXnX8XnXUXxXkXAXUXcXkXHXIXwXwXPXPXnXnXxXZ n n n V.~./.8X8X8X8X8X~.~.L.L.L.L.~.L.P.Y.Y.t.g g g g g g g T P.P.8XUXkXK.kXUXT.K.J.J.J.K.nXLXJ.G.PXHXV.G.UXzXV.K.UXkXV.Z.Z.Z.Z.xXUXZ.Z.FXLXM.Z.HXHXC.T.UXFXS.N.N.N.C.C.C.C.a.g g g n g g g g g g I.I.I.I.I.V.H.H.+XHXHXJXPXUX!.(.nXHXJXPXPXJXMXBXUXJX$XmXUXmX].{.HXFXHXHXHXK f f f f 5 n ` ' F.B.L P A.;.;.,.dXdX&.,.F.&./ ;.FXLXL L FXIXFXGXUXxXI ;.UXlXS.'.UXHXKXKXKX6X6XAXUX6XE.b b b n n L eXeXeXeXuXuXiXuXuXpXiXuXyXpXyXyXSXDXDXDXSXSXSXSXpXpXpXpXpXpXiXuXuXtXuXuXuXuXSXiXiXiXeXeXqXqXqX6X6X6X6XQ.E.Q.E.n...H H H D D D x x x x x x x x l l l l l X.>.V n p i l l :.X.B C z p 2 1 C ..O.< : < < { } < 9 } } 1 1 l l 9 i i i 1 < < < < < < < ; - < < , , , < < < , < < % ; ; - < - - , 0 %.0 - 0 *.< ; M #.= $ # # # ; ; ; 7 q q [ {  .8.+.| +.,X+.|  .<.q q { ",
"{ #.#.#.$.<.<.<.1.{ w e $.1.4.4.1.1.1.1.1.4.4.1.1.#.#.$.=.@.#.1.<X5.5.5.5.5.5.5.5.5.5.5.O.5.5.5.5.5.+.+.O.5.1 l z X.z *.%.*.*.*.%.*.*.M - < z %.%.%.%.*.*.*.9 1 i f r w.w.0.< v v q q v Y { 9.w.hXaXaXdX0.9.8.9.,X8.8.9.{ | 5.SX3X3X,X<X<X<XCX3X3X<.<.X.C [ o.+.+.6.6.;X,X5.|  .z X.<.D.D.<.8.D.<.<.+.<X<X9.3 '.dX'.`.d.S.F.F.F.T.{.d.d.m g b b b b 5 g g n &.F.P P '.dXdXGXLXF.'.LXJX}.}.}.}.dXjXUXJXMXMXlX{.{.fXFXFXfXMXfXsX{.m n g f f g g m S.a.T B f g ( d.`.,.h f g g g g n g g g h m n n n g g g n n n n n n g n n h n n V ].@X@X@X@X#X#X#X(././.F.JXoXoXIXHXoX+XUXHXxXxXxXT.H.H.kXxXnXPXUX(.+XxXxXxXxXnX2X8X8X8XP b b g n M.T.kXsXsXxXFXsXxXFXxXI.T.IXHXsXsXUXxXK.8XUXkXL.(.xXnXnXAXAXAXAXLXPXP.Y.IXPX8X-.n g g g M.J.b g g g %.PXnXnXHXnXnXnXnXnXnXnXnXnXnXnXnX/./.HXIX/./.PXKX(.(.HXnXnXAXUX>.b n b b n n g g n m aX(.(.nXnXnXVXUXHXkXzXUXKXAXHXUXnXcXHXUXkX/.AXIXAXAXIXHX^.(.cXT g b b V.~.(.kX/./.(.kX~.~.~.L.L.~.~.Y.Y.Y.Y.Y.h.g g b g g g K Y.Y.kXUXkXK.kXUXT.K.K.J.K.P.FXPXJ.T.LXHXT.T.UXxXJ.2XUXHXxXFXFXsXT.xXUX2XT.HXIXxXxXLXHXN.F.UXxXV.K.xXxXxXxX{.I.I.V h g n g g g g g g t.G.H.P.kXFXlX(.nXUXPXPXPXPXvX#XJXUXLXIXUXPXJXNXUXVX[.[.].I.C.sXUXJXHXLXUX/ f f f f g Z F.F.F.:.L L A.'.'.'.dX1.( ,.fXUX,.A.F.A.A.F.fXFXFXFXFXsXc >.UXsXS.F.HXHXHXKXUX6X6XKXUXeX^.n n n n n o.eXeXeXeXeXuXuXuXyXyXyXyXyXyXtXuXSXDXSXSXSXSXpXpXuXuXuXuXtXtXtXtXtXuXSXZXiXiXSXZXZXZXZXZXbXrXqX6X6XqXrXqXqXqXqXQ.l.D.D.Z.D.D.o.x x x x x x x x l l l l l X.>.m M Z C c c B.o.c c v *.=.>.%.O.O.O.@.*.*.*.X.< 1 C } l z z z 1 1 1 1 1 1 < < , 1 1 , 1 1 1 1 , , , , , , 1 < < < < < 1 < , , - < N : O 5 @.@.#.*.*.0 v [ | | | O.,X,X,X,X8.8.<.<.M 7 M @.@.@.@.%.% & M ",
"{ <.{ q { *.{ { X.{ [ q *.=.#.&.&.&.&.#.#.#.<.<.8.+.+.8.,X{  .8.,X5.O.O.O.O.O.O.O.O.O.O.O.O.O.5.O.O.O.+.| [ i z C z 1 M M M M M b M *.M < < 0 M M M M M M M 9 < 2 5 0.w.w.$.7 t  .9. .t q {  .9.hX0.0.9.0.9.8.9.+.8.8.6.| 5.3X3X3X<X,X3X<X6.3X3X3X6.[ [ [ [ [ [ [ [ [ | O.| 6.<X6.+.+.*.,X8.<.+.+.+.<.9.<.1.,.dXaX' d.d.N.S.S.`.S.S.' ` n f g g b b f f f n &.F./ / xXUXUXUXLXA.4.JXJX'.4.GXMXaXjXUXUXUXUXMX{.F.xXUXUXUXUXxXsX{.n n g f f f g m S.N.T K f f f f g n g g g g f f n g g g g g g g n g g g n n g n n n n m n n h m n V oX@X+X@X@X@X+XoX!.(.F.JXoXoXlX+XoX+XUXUXUXUXUX+XH.H.nXUXUXUXUX(.T.JXUXUXUXPXY.2X1X1XP b b b n M.T.{.{.{.FXUXfXLXUXLXT.T.IXHXT.T.UXxXY.(.zXY.L.Y.HXUXUXUXUXUXUXUXPXP.Y.kXkX(.-.n g g g V.J.b g g g %.UXUXUXUXUXUXUXUXUXUXUXUXUXUXUXUX~.~.8X8X~.~.kX8X/.(.UXUXUXUXLXn g b n n g n g n n n V (.(.PXUXUXUXUXHXkXzXUXUXUXUXUXzXcXHXUX(.^.HXUXUXUXUXHX~./.HXF.g n b h.Y./.kX^.Y.(.kXY.Y.~.~.~.~.~.~.~.Y.Y.Y.L.h.B b b g g m K.Y.T.kXY.K.zXUXT.P.kXHXK.Y.HXPXK.T.zX2XT.T.UXxXK.sXUXUXUXUXUXsXT.T.sXT.T.HXUXUXUXUXHXC.T.UXxXC.T.UXUXUXUXxX].].a.g g g h g g g f f K s.H.I.kXFXkXT.zXUXkX#XvXvXvXvXPXIXNXBXUXJX&X&XUXVX].I.I.C.Z.kXUXF.S.xXUX/ f f f 5 g V A.B.B./ J P ;.A.A.A.sX/ ,.&.fXUXA.;.>.;.>.>.P P P -.P L L A.UXsXN.N.S.A.b.8XUX6X6XAXUX6Xc.b b b b b o.eXiXeXeXeXeXuXuXuXpXuXuXuXuXuXpXpXpXpXpXpXpXuXtXuXtXtXtXtXtXtXuXuXuXiXuX5X5XuXiXZXZXrXiXbXrXrXeXeXqXrXqX4XqXqXQ.n.U.D.o.o.D.o.x x x x x x x x l l l l l X.>.C C >.:.c c B.o.c z v C Z %.:.v [ ;X:.C b C M , - 1 9 9 9 X.Z 2 < - - - - - < < < 1 1 - - - < < < < , , - - & $ # # X # # # - < < 9 q v [ +.+.+.+.+.| | [ [ [ [ [ { { { M M M M M 9 ; 7 M b b b b - - M ",
"{ <.{ q { <.[ [ [ [ [ [ *.*.e N N Q N N N {  .+.,X6.+.6.,X| | 8.,XO.O.O.O.O.O.O.O.O.O.O.O.O.O.O.O.O.O.O.[ 9 z C C 1 1 < 1 , < < - - %.M < < < < , , , < - - < , 5 e w.w.0.N 7  .7.7. . .t q { 1.0.9.9.9.9.7.8.8.[  .8.| O.;X3X3X<X8.6.3X:X5.3X3X3XO.| [ ....[ [ v [ [ [ [ O.,X3X:X;XO.M 6.6.8.| [ { $.9.<.>.aXaX'.U d.d.' ' S.S.d.' ' ' n 5 5 5 b b f f f n m F.P / P Z / ;.F.A.,.GXGX4.4.LXFX4.q.q.aX'.`.'.{.A.fXUXfXF.F.sXsX'.g n g f f f g m N.N.T T f f f f g g g g g g f f n g g g g g f f n g g g n g g g h n n m m m m m n h ( #X#X#X@X+X+X+X+X+XF.JXoX].oXoXoXoXoXoXoXkXUX+XP.P.P.P./.(.+X+X+XJXHXK.K.U.J.U.U.U.P b b f g M.Y.T.T.T.MXUXN.K.HXLXT.T.LXFXT.T.UXxXY.T.(.L.L.P.P.P.P.P.P.Y.T.kXT.Y.Y.Y.L.P.T n b g g V.J.g g g g B ~.~./.kX(.(.(.(.(.(.(.(.(.(.nXUX/././.(.(.(.(.(./.(.UXnX(.8XT.n g g n n g n g n n n n /.(.PXPX(.(.+XkXkXcXnX8X7X8XbXcXnXHXUX8X(.^.^.^.^.8X8X8X8XIXdXg n b h.Y./.kX/.Y.(.kXY.Y.~.~.~.~.~.~.~.Y.Y.Y.Y.L.J.C b g g m V K.Y.Y.Y.Y.zXUXT.Y.xXUXK.Y.HXPXK.T.2XK.J.K.UXxXK.T.T.J.V.sXUX2XK.K.Z.Z.K.T.K.K.T.sXZ.Z.T.UXxXC.T.UXkXK.K.I.].oX].g g g h g g g f f K H.I.I.kXFX+XH.kXUX+X+X#XVXNXNXPXIX=XBXIXJX[.OXUXMX`.I.C.C.Z.kXUXS.S.xXUX/ f f f 5 g n ` ` / K K V V %.;.,.,.m ,.,.fXUXA.` / / %.%.V J P ` P P T F.UXsXa.N.B.;.Z.8XUX4XQ.AXUX6XY z z z b b j.6XrXeXeXeXeX5XuXuXuXuXuXuXuXuXuXuXtXtXtXuXuXtXtXtXtXtXtXuXtXtXuXuXuXuXuXtXtX5XuXiXiXiXrXrXrXrXeXeXeXeX6X6X4XqXQ.E.1XD.H D D.o.x x x x x x x x l l l l l X.>.M b *.:.c c B.X.z l l p p Z :.z 9 z.D.v % 1 1 , - < < 9 1 X.Z < < - - - - < < < < < < - = ; = # = = & - = = ; < < < 7 7 9 q v [ [ [ [ [ | | | | [ [ [ [ v 0 q 9 9 < - - # # # # - % % % - , , , - - - M ",
"{ <.[ [ <.<X,X+.[ [ q v *.<.{ N M 0 M M { +.+.6.,X+.+.8.<XO.O.;X,XO.O.O.O.O.O.O.O.O.O.O.O.O.O.O.O.O.O.| v z X.C C 0 z z z 9 0 0 < , %.M 0 0 z 0 < < < < 1 1 - 3 e y jXw.1.B { 7.7.7.7.7.7.q v :.<.X.9.7.7.7.7. .|  .8.[ ;X3X3X3X<X6.6.,X;X6.3X3X<XO.| [ ......[ v ....[ q +.<XCXtX9X;Xq ;X<X<X+.o.+.0.9. .>.gX'.N.t.`.S.A.S.`.`.`.d.S.S.m f f 5 b b f f g b N F.P P P Z / ;.F.,.( GXGX'.'.IXMX4.q.gXdX'.'.'.aXA.fXUXfXF.A.sXlX{.g n g f f f f f ` a.U K f f f f g g g f g g f f n g g g g f f g n g g g n n g g g g n m m m m m m h h S.#X@X@X@X+X+X+X+X'.HX!.!.(.+X+XoXoXoXoXlXUX+XP.P.P.P./.(.+X+X+XPXHXP.K.U.U.U.U.m.o.b b b f o.U.T.T.T.xXUXM.K.JXLXT.T.IXFXT.T.UXxXY.(.(.L.P.P.Y.T.Y.T.Y.Y.Y.kX(././.Y.Y./.T n b g g V.J.b b g g B ~.~./.kXkXkXkXkXkXkXkXkXkXkXHXUX~.~./.kXkXkXkX(.~./.UXAXkXkXB.n g n n n n n n n n n n T.(.PXHX(.(.+XkXcXcXnXwX7XwXbXbXnXHXUXbX8X8X8X^.^.kXzXzXzXIXxXg b n M.~././.~.~.(.8X~.~.~.~.~.~.~.~.~.~.~.^.^.Y.Y.Y.M.g g m b n M.Y.Y.Y.zXUX(.Y.xXUXK.Y.HXPXK.T.8XT.Y.Y.UXxXJ.T.T.K.Z.kXUXsXD.T.K.K.K.T.F.F.T.sXZ.Z.T.UXFXK.T.UXkXI.I.].].{.oXV h g h h g h h g V I.I.I.+XFXkXP.lXUXPXIXIXIXVXNXPXIX@X&XIXIXLXLXUXMXI.I.kXLXLXIXUXF.S.xXUXK f f f f g g ;.` / K K V / -.A.S.Q N '.,.MXUXLXLXLXLXLXLXLXLXLXLXFX/ ` F.UXIXLXLXsX/ Z.kXUXPXPXIXUX6XB b b b B B j.6XrXeX6X6XeXeXuXuXuXpXuXuXuX5X5XtXtXtXtXuXuXtXtX6XtXtX5XuXuXuXuXuXuXuXyXyXuXuXuXuXiXZXiXeX9XrXrX0XeXeX4XqXqXqXQ.Q.7XU...c B.o.x D x x x x x x x l l l l X.>.B z %.%.c c B.X.B b b z z C :.3 1 o.,X..3 9 z b b w 5 3 3 @.M - < < < < 9 9 7 < - - - = = # O X . X O = = ; 9 q v [ [ | O.O.O.O.O.O.O.| [ [ q 7 - # = $ & $ $ & % , - - - - - % < < < 9 0 < , , - - - M ",
" .8.+. .8.,X,X,X,X8.[ [ *.<.<.<.+.[ | O.,X,X,X,X,X6.O.6.<X+.O.6.,XO.O.O.O.O.O.O.O.O.O.O.O.O.O.| O.O.o.*.:.D.B.*.%.*.*.*.%.%.%.Z 0 3 =.*.%.%.%.b , 9 M 9 1 l 0 5 $.w.jX0.<.<.:.{  .7.7.9.9.q { D.:.*.9.hX9.8.8.9.8.8.8.<.<X3X3XCX3X<X3X3X3X3X3X9. .[ +...[ ..............;XyXtX;X3X3X<X8.<X<X,XhX,X<.<.v %.aXgX' ` T.}.{.'.'.{.{.'.'.}.}.( g f 5 b b 5 f g n N xXxXxXxXxXxXxXFXFXMXLXLXdXdXIXIXGXGXGXGXGXFXfXdXF.fXUXHXMXMXHX@X{.m n g f f f f f n ` U B f f f f g g f f g g f g n n n n n g f g g g g g n n n n n n m m m m m m m m m m `.#X#X#X#X@X@X@X'.JX+XoXVXHXMXnXMXkX!.kXUX+XH.+XVXHXHXHXHXlXlXPXIXFXFXFXzXY.U.U.P b b b b T Y.T.T.T.xXUX` K.LXIXkXkXIXFXT.T.UXPXFXHXHXAXFXFXHXkXkXxXHXHXHXHXHXkXkXkX/./.T n g g g V.J.g g g g B Y.Y.~.AXAXAXAXAXAXHXAX8X~.~.nXUXAXAXHXHXHXHXHXHXHXHXUXnX/./.M.n n n n n n n n n n n m sXHXIXJX(.(.HXHXHXHXHXHXHXHXHXHXHXPXUX(.^.8X8X~.~.AXHXHXHXIXxXf f n T L.L.L.~.~.(.8X~.~.L.L.L.L.L.L.L.L.L.Y.L.^.^.Y./.C.n m n b b B T C.sXUX(.T.xXUXP.P.HXIXFXHXHXHXHXHXUXzXG.T.2X2X2XxXUXsXD.xXFXFXFXHXFXF.T.FXFXxXFXUXFXI.{.UXlX].@XHXHXHXHXF.h h h h h h n n n +X+X+X{.T.+X+XlXHXJXJXPXUXVXNXPXIXoXoXVXJXVXMXHXlXK.C.sXHXHXFXHX@X].MXUXV f f f f g b / P -.P P P F.F.'.F.n / fX'.fXMXMXFXFXMXMXFXxXxXxXFXMX] N.N.MXMXxXxXT.K -.T.xXxXAXAXDXqXn n n n n B v.6XeXqX6X6XiXuXuXuXuX9XyXyXyXuXuXuXuX5X5XuXuXtXtX6X5XuXiXiXiXuXuXuXuXiXyXuXuXSXyXuXiXZXiXiXiXrXZXZXzXrX6XQ.qXqXQ.Q.Q.W.l.L B.o.v D D x x x x x x l l l l X.:.l l C C c c B.:.:.=.=.C z n C z 1 m ,X,XD.%.*.*.*.*.{ - < M M < ; , & # # # # $ $ $ * 7 9 9 [ [ [ | O.O.O.O.O.O.O.| [ [ v 9 7 - # $ $ * * * * * & & % - - - - - - - - - , > > < %.%.*.*.%.0 - - - - - C ",
" .| | |  .+.+.+.8.,X| [ | | |  .+.| | O.,X6.+.6.6.+.| +.,XO.O.6.,XO.O.O.O.O.O.O.O.| | | O.O.O.O.| [ { :.X.o.M M z M z z z z @.Z 0 0 M M z M *.b < b *.9 1 C %.r 0.jXhX=.{ *.B.C { { { { { e M >.<.9.9.hX8.8.8.0.8.6.+.[ 8.<X3XCX3X3XhX3X<X3X<X8.| { <.+.[ [ [ [ [ [ ..O.3XtXtX:X3X,X,X+.,X8.+.hX9.,X+.v ,.fX}.i.i.T.].S.N.N.S.S.N.;.A.S.W g 5 5 b b f f f g m FXLXLXLXLXLXLXLXLXLXLXJXdX}.GXIXIXIXIXIXLXLXMXaXF.dXLXIXLXIXUX{.].m n g 5 f f f f f f f f f f g g g n f f f f f f g g g g n g f f f f f g g g g g g g n n m m m m m m m m V @XlX@X@X#X#X@XS.#XoX+XIXIXPXPXUXxXI.kXUX+XH.kXUXPXIXIXUXvXvXJXIXPXPXUXHXT.U.U.L b b b g B U.T.T.T.xXUXP K.kXkXT.+XIXFXT.T.LXLXPXPXIXPXIXIXUXkX/.nXUXIXPXIXIX(.8XkX/./.T n g g g V.J.g b g n %.nX~.~.UXIXIXIXIXPXPXIXcX/./.nXIXPXPXPXIXPXPXIXIXIXPXIXnX(.(.-.n g n n n n n n n n m N fXIXIXHX(.(.UXIXIXIXIXIXIXIXIXIXIXIXIX8X^.HXKX(.(.PXIXIXIXIXAXb b n o././.^.^.^.8XcX^.^.^.^.^.^.^.^.^.^.^.^.^.^.^.~././.-.n n n n m n g n N n V Z &.g g m m m =.1.dXFXPXLXzXJ.T.LXsXD.zXUXsXZ.FXUXLXLXIXLXF.T.LXIXLXLXIXMXF.I.T.I.I.{.UXLXLXIX}.h h h h h h n g g ].{.{.+XK././.I.kXlX#XVXUXmX@XJXIX+XoX!.+XI.H.T.T.V.V.T.{.S.F.{.{.S.xXUXP f f f 5 g g V P B.:.P X.F.A.;.m n =.sX'.'.,.;.A.'.,.;.>.:.L P F.'.S.A.' N.C.a.a.i.` ` C.K.J.m.7X6XW.b b b B n B n.6XeXeX6X6XeXeXeXeXeXuXtXtXtX5X5XuXiX5X5XuXuX5XtXtXtXuXpXuXuXyXtXyXuXiXiX5X5XiXyXuXeXiXiXiXiXiXrXrXzXeX6X6XqXqXQ.Q.Q.E.n...D.o.x D x v x x x x l l l l l X.:.l l z c c c P C C C >.C p f < 9 3 z { o.+.M b 0 z X.} - # # - # % & , < 9 l l v [ [ [ | | [ | | [ [ [ [ [ [ v v q 9 9 9 < < < < ; & % % $ $ = # - - - , - - - - - - - - , , , 3 *.C z C *.0 - < - - - C ",
"| | | | | | | | 6.,XO.| [ [ [ | | O.O.O.,X+.O.O.O.O.| +.,XO.O.6.,XO.O.O.| | O.O.| | | | O.O.| O.[ v M >.C C , 1 1 1 - - , 1 } M 0 0 3 3 < < *.z < b *.9 1 C =.y w.jXaXN 0 #.Z.z w M q q q M w =.9.w.9.9.8. .<.aX8.+...q +.6.<XCX3X3XhX3X<X,X<X8.[ { <.+.[ [ [ [ [ [ ..z.yXtXtXtX3X,X,X6.8.+.| 3X8.,Xo.C '.MXF.i.i.F.`.d.` ` ' ' ` P ` ` V g 5 5 g b f f f 5 5 V / / / / / %.F.,.&.4.dX}.'.4.gXgXjXgXfX'.'.'.'.F.F.F.'.a.MXUX].`.V n g 5 f f f f f f f f f g g g g m f f f f f f f f n n / V V V B B V V B V V V V K ^ ' V V h m m m m m m m `.&X@X#X#X@X].@X@X+XIXVXP./.UXxXP.kXUX+XP.kXUX(.(.HXUXvXvXlX+XT.T.PXHXT.U.U.L b b b b n Y.Y.T.T.xXUXV K.kX{.T.{.IXHXT.T.T.T.T.T.(.P./.zXUXkXT.xXUXT.Y.HXPX/.(.kX(./.T b g g n V.K.b b b b %.HX/./.UXnX/.(.8X8X8X8X8X(.(.cXcX8X8X8X8X8X8XcX8X(.(.kXkXkXcXM.n g n n n n n n n n m m K.+X(.(.(.+XUXHXcXcXnXkXkXcXcXcXkXcXcX^.(.HXIX8X8XPXPXkXkX8X8XC b n :.8X8X8X8X8XkXcX(.(.(.8X8X(.(.(.(.^.^.^.^./././././.K.n n n n m n g n N n g m m g g g b b g g g g C -.J.J.T.UXsXZ.sXUXsXZ.xXUXZ.K.FXLXF.T.LXHXZ.T.sXI.I.I.S.I.I.{.UX@X[.OX[.h h h h h h n g g d.].oX+XK.(././.lXvXvXHXUX#X@XJXIX@X+X+XkXT.Y.T.sXK.K.{.sXC.I.sXlXF.xXUXP f f f 5 g g f P A.>.P %.F.;.V f n F.'.F.'.,.;.A.{.F.A.F.F.-.-.sX}.'.'.A.S.F.S.S.S.N.` S.T.T.Y.wXqXg.b z z B B B Q.6XeXeX6X6XeXeX6X6XeXuX5XtXtX5X5XuXiXeX5XuXuX5X6XtXtXtXSXuXuXyXtXyXyXSXpX5X5XyXyXuX5XiXiXiXiXiXeXeXzXeXqXqXqXqX6X6XQ.Q.n...D.o.F x x x x x x x l l l l l X.o.l l z c c c c z z z >.Z p p 9 3 p 0 2 v O.z < # - } } - # - - - , < 9 z v [ [ | O.O.O.O.O.O.O...[ [ v l 9 9 < , - % # # # - - , < , , - - % - % - - - , , - - - - - - - , , 3 3 *.b < z *.0 < < < < < C ",
"| +.+.+.+.+.O.O.+.8.| | | O.O.O.+.+.+.+.,X6.O.O.O.| [ +.,X6.6.;X,XO.O.| | | | | | | | | | O.O.[ l 1 C <.X.C 0 z 1 % z b M z %.Z , 3 , , < < *.b , b *.0 , M ;.w.jXjX=.M q #.:.b M Z Z N M C { 9.hX7.7.9.8. . .9. .[ ..v [ +.<XCX3X3X3X<X .[ <.z.O.+.<.+.[ [ [ [ [ [ +.,X:X3X3X:XO.D.2X3X6.6.8.6.+.<.{ 1.dXMXi.i.C.F.].S.B.M.` U ` N.;.;./ f 5 5 g b 5 f f f 5 V / W W / / -.F.;.( ] }.}.'.4.aXdXgXgXdX'.'.`.F.F.A.F.{.S.FXUX{.]./ n f 5 5 5 f f f f f 5 5 g g g g m g f f g g K ) ` i.a.{.I.S.Z.Z.Z.K.K.K.K.T.I.I.I.I.+X@X@X&X[.S.n m m m m m F.VXmXlXlX{.@X@X#XIXHX/.(.UXxXP.kXUX+XP.kXUX+X+XHXUXvXvXlX+X+X+XIXHXT.U.U.P b b b b b Z.Y.Y.T.xXfXn T.kX+X{.+XIXHX+XT.+XT.T.(.kXY./.nXUXkX(.xXUX(.(.HXIX(.(.kXkX(.-.n n b b V.K.n b b g %.HX/.(.UXnX/.(.cXkXkXkXkX/./.8XkXkXkXkXkXcXcXcX8X(.(.cXcXcXkXM.g n n n n n g g n n m m K.+X(.(.(.+XUXHXcXcXcXcX+XcXnXcXkXkXkX8X(.HXPX(.(.PXPXcXcXcXwXT b n M.cXcXcXcXcXcXcX(.(.(.(.(.(.(.(.(.(.(.(.(././././.(.T.n g g n N n g n m n b m m g g b b n b g g g b n C J.T.UXkXZ.kXUXsXF.xXUXK.K.FXLXF.T.PXHXF.T.sXS.S.I.].T.T.kXUXlXOXOXOX^ n h h h h n g g }.NXNXNXFXUXUXUXUXUXUXUXUX+XoXJXUXUXUXUXUXUXUXUXUXUXUXUXxXC.kXUXUXUXUXUXP f f 5 5 f f f V F.A./ / >.Z 5 5 b dX'.A.sXsX,.A.FXUXUXUXUXUXUXUXUXUXUXUXUXUXUXUXUX{.a.sXUXUXUXUXUXY b z z b b c Q.6XeXqX6X6XeXeXeXeXeXeXuXuXiXyXuXuXuX5X5XiXuX5X6X5X6X6XuXuXuXuXtX5XuXSXCXiXuXeXuXuX9XuXeXeXCXiXeXqXeX0XwXqXqXeX6X6X6XQ.Q.m.1XM.D x x v x x x x x l l l l X.:.C C C Z B B c p l z >.%.C M M m M C z M [ +.[ 9 - } *.C X.+.+.o.O.O.O.O.O.O.O.+...[ [ 9 < , < 0 0 0 0 % & , , , , , b z z z z z 0 z z z z 9 < - , , , , & : , , < < < < - - - < *.b 1 M *.C M M M < < C ",
"| +.,X8.8.+.| | | | | | | | | | 8.,X,X,X,X+.| | | O.O.+.,X,X,X,X,XO.| | | | | | | | | | [ [ [ l l z X.:.*.*.*.*.% # } *.*.@.*.Z - , M 0 - 9 *.b , < z 9 : N 1.jXjXdX%.w q q { M M b q 8 8 #.9.hXhX7. .8.8.9.8.8.8.| ..+.[ ..+.<X8.6.6. .| | D.,XD.,XD.+.[ [ [ [ [ [ +.;X:X:X:X;X[ +.<X3X<X<X8.<X<.D.*.dX}.'.s.i.i.F.'.'.F.F.` / N.{.{.'.,.f 5 5 5 5 5 5 f f 5 V / sXLXLXLXLX1./ ( FXIXIXLXLXIXIXIXIXIXLXLXLX'.S.,.F.{.{.HXUX{.{.;.g f 5 f 5 f f f f f 5 5 f g g g m n n n ( d.d.HXLXLXLXIXLXIXLXxXT.T.lXLXLXIXLXIXPXLXlXlXlXlXmXlX@XW m m m m m / MXJXVXJXIXIXIXUXHXkXlXUXIXLXPXUXkXP.kXUXkXkXJXUXIXIXIXlXlXkXIXHXT.Y.U.X.g g n g g B T.T.T.xX&.m HXIXIXLXIXUXHXkXkXkXT.T.(.kXT./.nXUXIXIXIXUXkXkXHXUXIXLXIXHXkX;.n n b n C.P.n n n g %.HX/.(.UXIXPXIXIXPXPXIXnX^.^.nXIXPXPXPXHX/.^.HXIXPXPXIXnX(.(.` g h n n n g n n n n m m K.+X(.(.(.+XUXHX+X8XnXIXIXIXIXkX8XAXIXIXPXIXPX^.^.HXHX^.(.kX8XT b b T ^.^.^.^.^.^.^.^.^././.(.(.(.(.(.(.(.(.(.(././.(.C.n n g g n N n n n m m m m m g g b n n n n m m m m m aXLXUXkXJ.xXUXIXLXIXUXZ.K.FXLXK.T.PXUXIXIXIXLXLXLXLXlX].lXUXIXIXIXIXS.h h h g h m m m lXBXNXmXFXHXHXFXVXVXnXnXHX+X!.vXVXxXzXzXzXzXzXxXxXMXHXUXxXC.sXUXxXxXxXxX/ f 5 5 5 g b f f m m V n b f 5 5 n FXF.;.xXUXA.,.FXIXdXxXxXxXxXMXxXfXxXxXzXsXsXxXUXT.N.sXUXMXMXLXUXb b z z z b c 6X6X6X6X6X6XeXeXeXeXeX5XeXuXiXiXiXiXiXtXtXuXuX5X5X5X6X6XuXiXiXuXuX5X5XuXyXiXuXuXeX5XuXuXuXiXZXZXeXeXqXqX9XeXqXeXeXqXqXqXqX7X1XD.H x x x x x x x x l l l l X.:.:.:.>.-.B B X.C l z >.>.:.*.&.*.*.&.*.*.*.,XD.[ [ +.,X,X,X,X+.[ [ [ v v l l v *.*.*.*.0 > > C %.*.%.%., > M M - , 2 %.%.*.*.*.%.%.*.*.*.*.b , & ; , < < < < < < < < < < 1 < < 0 *.M < M *.*.*.*.*., , C ",
"[ | | | | [ [ [ [ [ [ [ [ [ | | 8.+.| | O.| | | | | O.O.O.O.O.| O.| | | | | | | | | | | [ [ v i z z C 0 < < M %.- - } @.3 < < < , , %.M , < *.b , , < < : e $.jX0.y b 0 q q y #.#.t t { t 9.9.hX9. . . . .9.8.8.9. .+.<...[ O.,X+.{ [ [ [ | ......[ ..[ [ [ [ [ [ [ O.;X:X;X;Xz.[ O.6.6.8.8. .hX<.D.F.gX'.a.s.U U i.d.a.N.F.' ` A.{.S.S.^ f 5 5 5 5 5 5 f n N V ( dXUXJXFXFX@./ ( JXUXJXGXGXGXGXGXLXGXGXJXUXsXS.sXUX`.S.MXUXS.S.` f f 5 f f f f 5 f f f 5 f g g g g g f A.].d.d.HXHXFXFXHXHXFXUXxXC.C.sXHXHXHXHXPXHXHX+XoXoXoXlX@X@XOXV m m m m m / MXBXIXUXIXLXJXVX+XlXPXJXJXJXJX(.P.P././.+XVXPXPXPXPX{.T.T.T.T.T.Y.U.-.b n n g g g V N.N.;.m m JXPXLXJXJXJXxXT.kXUXnXT.kXkX/.(.xXPXJXPXJXHXT./.nXJXJXJXIXJX/.-.n n n b C.P.g n g g %.HX/.(.PXPXHXHXPXHXHXPXnX/./.nXUXHXHXPXPX/./.PXIXHXPXUXnX(.+Xi.g g n n n n n n n n m m K.+XPXPX(.kXUXHX+X(.nXHXHXPXUXzX8XHXUXPXHXPXHX^.^.^.^.^.^.IXHXh.b b B h.T P P P T L P P P P P P P P P P P U T i.` P P n n n g g g n n n n m m m m m b g b g g g n m m m m m m HXHX2XJ.zXJXHXHXHXHXZ.Z.FXLXK.K.xXHXHXHXHXHXHXHXUXlX].@XJXJXJXLXUX`.h h h h m m m m }.BX=XmXFXvX!.P./.!.!.!.kX+X!.!.+XP.b.c.c.L.c.c.Z.I.sXUXsXM.sXUXB.N.C.S.( f 5 5 f g b f f 5 5 5 5 f f 5 5 / UXF.;.xXUXA.;.MXLX/ ` ` ` ` N.N.] ] a.t.T K F.UX{.a.sXUX}.`.FXFXf b b b z b Y 6X6X6X6X6X6X6X6X6XeXeX5X5XuXiX9XyXyXuXuXuX5XuX9X5X6X5X5X6XiXiXuXpX5X5X5XeXuXuXuX5X5X5X5X5X5XeXiXeXeXqXeXeX9XqX6X6X6XQ.Q.Q.E.m.z...F c x v x x x x l l l l l x z z %.-.B B >.X.z l b z z z p z z 3 z 3 3 +.<.[ [ [ [ [ ..<.o.v l l l i i 1 1 3 , b %.0 - , 1 < < C *., - } X.- - - < < < 3 3 0 3 0 9 9 9 < , , , < < < < < < < < < < 1 < < < 0 *.M < < 9 9 9 C *., < C ",
"[ [ [ | | [ [ [ [ [ [ [ [ | | | <.+.| | O.| | | | | | | | | | | | | | | [ [ | | | | | | [ v 1 i c C p , - - M %., < Z } , 3 - - < , *.M < 9 *.b , , < 9 5 #.0.jXy @ w z M M 0.0.7.7.9.9.9.7.7.9.<.8.8.8. .8.8.8.9. . .<.....o.D.[ v [ [ [ [ [ [ [ [ ..[ [ [ [ [ [ | O.:X;XO.O.o.z.;X6.| +.+.8.0. .<.sXfX`.i.s.U U i.d.' ;.F.] ] S.'.' ` P f 5 5 5 5 5 5 f n N V ( fXUXA.` / N / ' FXLXdX4.4.0.0.q.gX'.4.sXUXsXS.sXUX`.S.MXUX,.a.i.g f 5 f f f f 5 f f f f g g h m g f ( ].].d._ T.B.` ` k.h.t.UXlXs.s.C.C.H.H.T.+XI.H.I.I.I.!.kX+XoXOXd.m m m m m m / BXIXIXVXlX@X@XoX#XvX+XoX+X+XP.P.P.P.!.+X+XkXvX+X+X{.I.I.T.T.T.Y.U.M.b g g g g g n b n n n n T.kX{.{.{.{.T.T.kXUXxXT.kXkX(./.kXkX(.(.T.T.T./.(.(.(.(.IXJX/.` n n n n C.P.n n g g %.HX(.(.cX(./.(.cX/.~.(.cX~.~.nXUX8X8XHXPX(.(.IXHX(.(.UXHXcXcXN.n n n n n n n n n n m m I.+XPXPXcXvXUXHX(.(.(.^.(.bXUXzX8XHXUXcX(.8X8X^.^.(.~.~.(.IXHXV.b n n n n n b b b b b b n b b b n n n n n g g g b n g n n n n b n n n n n b g b n n b b b g g g g b b f g g f M.J.J.J.T.T.D.Z.Z.K.Z.Z.FXLXJ.Z.Z.Z.F.F.K.K.K.T.UXxX{.OXoXOXOXNXUX[.h h h m m m m m }.BX&XNXFXnXkXkXkXkXkXkXvXcX+X+XkXL.v.v.(.(.Y.T.Y.T.sXUXxXT.xXUXZ.N.S.S.] f f f f g b 5 5 5 5 5 f f f 5 5 '.UXA./ xXUX'.'.FXLXP ` U ` ' N.'.'.'.F.Z.Y K T.UX{.` sXUX}.,.MXdXp f B B z b e.6X6X6X6X6X6X6X6X6XeXeX5X5XuXyXyXyXuXeXeXeX5XyXyXyX6X5X5X6XyXyXiXSXuX5X6X6X5XtXyX5X6X5X9X5X5X6XeXeXeX6XeXeX9XqX4X6X6XQ.Q.Q.Q.E.x.o.F c x x x x x x l l l l l l l p %.&.B B >.X.z z p 1 1 l 3 3 3 9 5 3 3 M *.0 < , , 3 1 } C 1 2 , 2 p p p p 1 > 0 %.0 - - - - - M *.- - } } < < < < < < < < < - 1 3 < < < < < < < 1 < < 3 3 3 < < < < < 1 1 0 *.M < < < < < M *.< < C ",
"[ [ [ [ [ +.+.+.+.+.[ [ +.+.+.+.8.+.| [ +.+.+.+.+.+.+.+.+.....O.+.+.+.+.[ [ [ | | [ [ +.{ M C X.X.Z b M M M } %., , } X.M M M 0 , , %.M 1 0 %.b < 8 q L #.0.jX1.e @ e 0 { <.9.9.9.7.9.7. ...[ <.,X<.9.9.9.{ { 9.9. .8.<.{ v ..<.<.8.<.+.+.+.+.+. .| ..+.+.+.+.+.[ O.O.O...| [ [ 8.8.9.2X8.9.hX{ N '.GXF.H.H.N.N.N.C.d.' -.F.a.' N.F.L L -.f f 5 f 5 5 f 5 b N m ,.fXUX>./ Z &.;.,.GXJX'.`.,.'.aXdXdX0.4.fXUXsXS.sXUX}.`.FXUXF.F.N.P f f f 5 f 5 5 f f f f f g h h g ] `.{.S.p.p.T.Z.Y t.Z.Z.Z.UXxXK.T.T.H.s.s.T.T.G.s.I.T.{.+X+X+X!.oXI.h h h m m m m }.IXLXVXJXVXVXmXlXlX+X+X+X+XoX+X(.(.+XcXkXlXkX+X(.T.T.T.{.T.2X8X8XD.n n n n n n n n n n b Z 8XkX8X/.(.8X8XkXkXUXxXT.8XkX/.(.kXkX!.+X+X(.(.+X+X+XI.(.PXJX(.` n g g g K.I.n g g g %.HX(.(.(.(./.(.cX(./.(.cX/./.nXUX8XkXHXIX(.(.PXHX(.+XUXHXcXcXN.n g n n n n n n n n m m P.(.PXPXcXcXUXHX(.^.^.(.^.zXUXbXwXHXUX0X7X0XkX/./.(.^.^.^.PXHXV.b n n n n n n g n n n b n n n n n n n n g b b b b n n n n n b b b g n n n g g n n n b n b g g g g b b b b g g -.Y.T.K.T.T.K.Z.T.K.U.U.FXLXT.T.T.F.T.{.{.{.{.sXUXmXOXOXOXOXOXBXUXmXm m m m m m m m }.BX$X&XFXUXUXUXUXUXUXUXUXUXUXUXIX^.G.Y.UXUXUXUXxXC.T.UXUXUXUXUXA.S.{.xXa.f 5 5 g g g f f f f 5 5 g f f Z sXUXF.;.xXUXUXUXUXLXB.B.sX{.' ' UXUXUXUXxXT T T.UX{.` F.xX'.N.xX1.g g b c c n j.6X6X6X6XqXqXqX6X6XeXrX6XeXyXuX6X5XeX9XyXiXuX5XuXuX5X5X6X6X6X6X5XtX5X5X5X9X5X5XiXuX5X5XiXuXuXrXeXuXiXeXeX5X0XrXeX6X6X6X6X6XQ.W.W.m.Z.o.D x x x x x x x l z C C C C X.X.l z :.X.p z Z Z Z C C C C C z < 2 Z %.1 1 b C C C %.C , - 1 l x l l M M M Z *.0 , 0 M M M } *.- 1 } %.M M M M C C C z 1 1 1 1 1 z C C M M C M M C M C C C C C C C C M C *.b , 3 C M M } *.9 9 { ",
"9 9 9 9 v X.<.<.<.<.[ [ <.D.D.D.,X+.[ | ,X,X,X,X,X,X,X,X,X| [ +.,X,X,X,X[ [ [ [ [ [ [ <.*.*.:.>.:.*.%.*.*.%.%.%.- , } %.*.*.*.C , ; 0 1 < < z 2 < M *.%.0.gXjXN w 8 w z { $.8.9.9.9.9.7.8. . .9.dX9.9.9.9.{ { 8.8. .8...[ v o.<.D.,X,X,X,X8.,X8. .| | D.<.<.,X+.| ......[ ....O.8.8.<XdXhXdXaXq #.aXMX{.T.T.F.F.F.T.S.' T ' ' _ N.F.L L B.n g g b 5 5 f f g m n ,.fXUXUXUXUXLXF.F.JXUXUXUXLX}.aXdXUXUXUXUXUXsX' sXUX}.}.FXUX{.{.F.S.n g g g f f f f f f f f g m m F.UXUXUXUXUXUXUXUXUXUXFXT.T.UXUXUXUXUXsXs.H.{.K.s.I.lX+X+XHXUXUXUXUXJXV h h n m m m `.IXLXBXBXJXJXJXVXUXUXUXUXUXUXUXUXUXvXcXnXnXkX+XkXkX(.+XxXxXkXkXkXkXb n n n n n n n n b N 1.UXUXUXUXUXUXHXkXkXUXxXY.8XUXUXUXUXUXUXUXUXUXUXUXUXIX(.(.IXJX(.` n g g h K.I.g g g g %.HX(.(.UXUXUXUXUXnX/.nXUXUXUXUXUX~./.HXIX^.^.HXHX+X+XUXnX(.8XT.n n n n n n b b b b m m L.^.HXAX^.(.UXUXUXUXUXbX^.cXPXcX8XAXUXUXUXUXUXUXUXUXHX^.^.HXnXB n b b n n n n n n n n b n n n V V K V V V V V V V V V K K V V b b n g g n g g n g b b b b g g g n n n n n g g 2XUXUXUXUXUXsXZ.2X2X2X2XHXLXsXsXsXUXUXUXIXkXsXlXUXUXUXUXUXmXOXMXLXBXW m m m m m m m }.mXOXoX{.xXxXxXvXcXkX+X+X+X(.PXPXv.c.Y.kXkXzXUXxXV.G.T.T.T.T.{.d.S.xXUXa.V 5 g g g n b b g f 5 5 g f n / F.UXF.-.F.sXsXfXsXsXF.F.JXFX_ ' UXHXsXsXB.L T T.UX{.' N.S.`.S.FXQ n n b z c b ^.qXqXqXqXqXqXqXqX6X6XqX6XeXyXiX5X5XeXuXyXyXiX5X5XuX5X6X6X6X6X6X6X5X6X6X5X9X9XuXiXiXuXuXSXSXZXZXiXiXiXrXrX6X7XrXrXeXeXqXqXqX7X7X7X7XT.Z.D x x x x x x x l l X.:.:.:.:.X.l l b z p z *.=.=.=.=.*.*.*.M 1 1 z 0 1 1 } *.*.*.*.C , - 1 l x x l *.*.*.*.*.0 < M *.*.*.*.*.< 2 } *.*.*.*.*.*.*.*.C < 1 < < < M *.*.*.*.*.*.*.*.*.*.*.*.*.*.*.*.*.*.*.*.M 7 M *.*.*.*.@.= = < ",
"3 : : ; < p z z } *.v v *.<.[ [ [ [ [ ..D.+.[ [ | | | +.,X| [ +.,X[ [ [ [ [ [ [ [ [ [ *.{ l z z 1 1 , , , - - - - - - , , , } C , ; - - - , , 1 1 b *.e 0.w.jXp w w 0 C { 7.<. .$.9.7.7.8. .9.9.0.7.7.9.8.{ { <. . .7...v v v v [ [ |  . . .9.8. . .| [ [ [ ,X+.| [ ....[ ....+.8.8.<X8.<X<X,X0 1.aX'.i.t.t.t.T t.T.S.' L ` _ _ N.A.L L >.V 5 5 5 5 5 5 f 5 5 f ,.}.fXdXdXGXLX,.( sXMXfXfXfX}.`.'.UXGXMXMXMX{.` sXUX}.`.MXUXa.a.' ' K f 5 5 f f f f 5 f 5 f g m 1.MXxXlXlXfXfXsXsXsXsXIXFXN.i.lXlXlXxXUXsXs.kXUXT.s.xXUX{.I.MXIXxXxXLXHXV g h n m h h ] JXJXNXBXIXLXVXJXUXIXJXVXMXxXnXHXUX+X(.JXUX+X(.JXJX(.+XIXHXY.Y.T.T.P b b g g b b b b b N D.nXnXnXnXAXIXAXU.^.UXnXY.(.UXHXnXnXnXnXnXHXVXnXVXLXIX(.(.IXJX(.-.n n g n S.I.n g g g %.HX(.(.UXHXnXHXUXzX/.nXUXAXnXAXAX/./.HXPX^.^.(.(.+X(.UXnX^.8XT.n n n n n n n b b b m Z ^.^.wX(.^.^.nXnXnXAXUXbX^.8XcX8X8XbXHXAXAXHXHXnXnXPXHX(.(.(.J.b n b n n n n n n n n n C.(./.+X+X+X+X+X+X+X+X+X+X+X+X+X+X(.(.(.(./.I.I.C.` n n n g b g g b g g b b g g b n g B 2XUXFXxXFXUXsXD.2XT.K.K.FXLXK.T.sXxXxXxXnXT.T.{.xXMXMXHXUXlXOXmXmXNX' m m m m h m h d.oXoX!.H.!.P.P.+X(.!.P.P.P.L.HXPXv.v.m.^.b.J.UXxXh.k.V.h.M.M.a.d.S.xXUXa.` f f f g f f f g f f f g Z / ` F.UXF.P P ' ;.;.P P L B.HXFX) ` UXxXI F.M.L Y F.UX{.' N.S.`.S.sXm f b b p f F Q.Q.Q.Q.Q.Q.6XqX6X6X6X6X6XeXyXiXeX5X9XuX5X5X5X5X5XuX5X6X6X6X6X6X6X6X6X6XuX9X5X5XuXiXiXiXDXSXiXiX5X5XeXrXrX5XqXrXrX6XQ.Q.Q.Q.Q.Q.E.x.j.o.H x l l l l x x l l X.o.l l l l l l i i 1 z *.C 2 2 < 2 2 1 1 < 1 1 1 1 1 } X.1 < 1 < < , 1 l c x l *.M < < 1 < < v *.9 1 < 3 3 3 3 < < 2 < 2 3 < =.C < < 8 : : M *.0 < < < < 1 < < < < < < < < < : < < < < ; w *.0 ; ; : : : < ",
"m m 6 5 f d p 2 Z @.$ % Z } < 9 9 l v [ D.+.[ [ [ [ [ +.,X| [ +.,X| | | [ [ [ [ [ v l X.} v z 1 > > , - - - - - - - - , , - } C , ; , > ; , 1 1 i B &.y w.w.0.2 0 w 0 t y 7. .t t 0.7.7. .9.9.9.9.{ 7.0.8.{ t <. . .7.| [ v v v v [ | 8. . .,X8.+. .| [ [ { ,X<.{ [ [ [ | ....+. .8.<X .{ o.o.@.aXgX_ t.t.U y.Y T F.S.( L ^ ' _ N.A.J J ;.&.5 5 5 5 f 5 f 5 5 f ] ,.( W Z xXLX,.( ] `.,.,.4.dX}.`.UXMX`.`.'.'.' sXUX}.`.MXUX' ' ` ` ` V 5 f f f f f f f 5 f g A.UX{.d.d._ a.` ` ) ) T LXFXC.i.i.i.i.K.UXsXC.kXUXT.C.xXUX{.I.MXLXI.I.HXHXn g g n n h g ( JXJX$X&XIXJXBXJXUXJXVXlX+XT./.xXUXkX(.HXUX(.!.HXHX!.+XIXHXY.Y.Y.Y.Z.g b b b n b b b b &.U.^.^.^.^.7XIXAX^.^.UXnXY.8XUXxX(././.(.(.cXkX+X+XJXIX(.(.IXJX(.M.n n n n S.T.n n n g %.HX(.(.UXnX(.cXUXbX/.bXUXcXcXcXkX/./.HXIX(.(.cXcXcXcXUXnX~.(.wXB b n n n n n n n n m F.cXcXcXkX(.(.8XcXcXbXUXbX^.8XwX^.^.8XzXwXwXbXcX(.(.PXPXcXcXcXA.n n n n n n n n n n C.+X+X+X+X+X+X+X+X+X+X+X+X+X+X+X+X+X+X+X(.(.(.(.(.+X+X+XT.C.V n g g g g g g b b g g b n B Z.sXUXkXJ.kXUX2XZ.2XT.K.K.FXLXK.T.sXZ.K.T.kXT.T.T.T.{.{.lXUXlXOXmXmXmX' m h h h h h h I.!.!.P.H./.P./.xXnXcXkXkXP.L.HXIXkX8XkXzXkXkXUXxXk.K.sX2XsXsXF.a.S.xXUXd.a.P h f f g f f g g f m A.sXsXsXfXUXF.T T ' ' ' K J L B.HXFXU ` UXFXT.fXsXM.T F.UXxXsXsXsXlXsXF.m f b b f b g.Q.Q.Q.Q.Q.Q.6XqX6X6X6X6X4XeXiXiX5X5XyXiX5X6X6X6X6X5X5X6X6X6X6X6X6X6X6X6XuXyXuXuXiXSXSXSXDXSXZXZXeX5X5XrXrX4X7XeXrX6XQ.Q.Q.Q.Q.Q.E.n.x.j.o.C v l l v l l l l X.X.l l l 9 1 1 1 2 1 l *.M 1 1 < 1 1 1 1 1 1 < < < 1 X.X.2 < 1 < < - 1 i x i l X.M - - 1 1 < M *.< , < < < < < 9 9 9 < < ; : *.M 8 9 9 < < M *.0 3 9 9 0 0 0 i p p p 0 9 < ; X . + = $ $ 5 @.b 0 M [ [ ..z.",
"N Q Q Q &.>.>.>.,.>.m n &.=.@.@.@.C 2 z *.C l l l l v X.<.[ [ +.D.+.+.+.+.[ [ +.o.o.X.:.} z z Z Z } } } } } } } - , , , , , } C , - } Z } } } } o.%.$.q.w.0.=.*.*.*.} t  .7.{ [ [  .9.9. .8.<.9.<X8.9.hX8.{  .9.+.<.9.9.{ v v [ [ v o.D.D.D.,X8. .+.[ <.<.<.D.+.[ [ +.<.+.,X,X,X[ 8.<X8.v o.B.fXfXsXN.Z.Z.N.I Y T F.`.A.B.A.A.A.A.A.J B ;.>.f f f f 5 5 f f f f ( ,.&./ / xXLXF.] ] `.,.' ,.}.}.sXUXMXS.,.`.'.'.fXUXlX`.MXUXS.F.A.A.N.) _ / g f f f f 5 f V S.xXUXsX`.`.S.F.A.F.F.N.Z.LXFXK.K.K.K.I.T.UXlXT.lXUXkXf.lXUX{.{.HXLXI.I.HXHXg n g n n n m ;.JXJX&X&XIXJX&XBXUXLXJXJXVXlXkXnXUXkX+XHXUX(.(.PXLXlXlXIXHX^.Y.1X7X^.P n n n n n b b m fX8X8X8X8X8X8XIXAX^.W.UXAX8XzXUXnXkXkXkXkXlXlXlX@X@XJXIXkXkXIXPXcXN.n n n n S.T.n n n n %.HX(.(.UXnX(.cXUXnX(.nXUXcX8X8X8X(.(.HXPXcXcXbXcXcXcXUXnX^.(.wXo.b n n b n n n n b m HXcXcXcXwX(.(.(.8X8XcXUXnX8X8X8X8X8XcXzX8X0XbXbX8X8XPXPXcXcXcXK.n n n n n n n n n Z cXcX+X+X+X+XcXcXvXvX#X#X#X#X#X+X+X#X+X+XkX+XkXkXkX+X@X+X+X+X+XI.P g g g b b b n n n n P Z.U.kXUXzX2XxXUXsXT.sXsXK.K.FXLXZ.D.sXT.T.sXkXkXkXkXkX{.{.lXUXVXNXBXBX-X] m m m m m n n T.+X!.+XsX(.P.kXUXUXUXUXUX(./.HXUXUXUXUXUXUXUXUXxXT.kXUXUXUXUXsXM.S.xXUX' ' a.a.^ / / W ( &.] ] ' F.UXUXUXUXUXA.J F.xX` N.sXxXB.D.HXFXK T UXUXUXUXUXsXT {.UXUXUXUXUXUXUX>.m f g g g f W.6X6X6X6X6XQ.6XeXqXqXqXqXeXeXrX0X9X9XeXiXZXiXuXeX5X5X5X5X5X5X6X5X5X5X5X5XiXSXpXpXSXDXDXSXDXDXDXDXiXeX5XrXiXrXwXeXeX4XQ.6X6X4X4XQ.Q.E.x.U.U.D.o.o.v l L o.X.o.:.*.l l i X.X.X.C 1 1 l *.X.X.X.} } } } } } } } } < 1 } X.< 1 < , , , 1 i i i p %.@.} } } } } @.*.9 < 9 { } } } } } } } 9 9 9 *.Z 3 n X.X.X.*.*.z 3 ; & $ O w } } } @.@.%.*.:.o.o.o.,X,X1X1X0X4X4X4X5X9X7X1X",
"m N Z Z &.A.,.1.1.=.Z m &.>.=.=.>.%.f n >.Z p B %.z p C :.z z X.*.*.*.<.+.v [ <.:.X.*.:.C 1 0 %.X.} } } } } } %.- - C } , , } C - - *.%.%.} } } -.=.1.w.0.1.@.=.*.*.<. . . .{ { { t 9.9.8.9.8.<X<X9.9.aX9. . .9.<.<.9.9.{ [ ..D.[ [ +.D.D.D.<.<.| o...D.D.<.D.+.[ | +.<.8.,X8.8.+.9.<X+.v o.<.FXdX'.C.Z.K.Z.I I T S.`.A.B.A.A.A.B.A.J C -.B.b f b f 5 5 5 f n m aXUXaX/ ( sXMX`.] ,.`.S.] LXUXUXUXUXMXS.] `.'.'.fXUXUXUXUXUX`.F.F.F.N.) ' F.S./ Z Z B B -.F.'.xXUXUXUXUXUXF.F.JXUXUXUXUXFXK.K.xXsXT.{.UXxXT.sXFXkXf.lXUXUXUXUXLXI.I.lXfXg g g n n n n A.LXJX@X@XJXNX&X=XUXJXBXJXJXvXkXnXUX+X+XVXHX(.(.PXUXUXUXUXHXY.8X0X7X^.1XZ n n n n n n >.UXUXUXUXzX8X8XIXAX^.W.AXzX8XzXUXUXUXUXUXxXlXHXUXUXUXUXIX8XkXHXHXcXN.n n n n I.T.n n n n / nX(.(.UXnX(.cXUXUXUXUXUX(.~.~.(.^.^.HXUXUXUXUXUXUXUXUXnX^.8XcX~.B b n g b n n b b F.UXUXUXUXKX(.(.nXcX(.8XUXUXUXUXUXUXUXUXUXUXUXUXPX8X8XPXUXUXUXUXxXn n n n n n n n m LXUXUXvX+X+XHXUXUXUXUX#X#XvXvX#X#XvXUXUXUXUXUXUXUXUXUXUXUXnX+X(.(./.K.h.J C B b m B -.T.2XU.U.2XUXxX2XxXUXUXUXUXUXK.K.FXLXZ.T.LXUXUXUXUXUXUXUXHXT.{.xXUXUXUXUXUX-X] m m m n n n n +X+XP.kXFXzXP.kXUXkX/.nXUX(.(.(.8X8X8X8X8XT.K.Y.T.T.kXUXxXS.I.S.C.S.xXUXi.a.a.a.a.F.'.F.F.F.S.d.' F.UXxX{.{.N.` ` xXUX;.B.FXLXZ.Z.HXFXJ T F.F.F.sXUX2XT A.{.sX{.F.S.I.Z.n g f g g g P ^.qX6X6X6XQ.Q.6XqXqXqXqXqXeXrXrX0XqXeXrXuXiXiXiXiXuXuX9XuXuXuXuXuXuXuXuXuXSXSXSXSXSXDXSXSXDXKXDXDXiXeX6XeXrXrXrXeXqX4XQ.qX4X4X4X4XQ.Q.E.^.U.D.D.B.v l X.:.o.:.:.X.l l 1 X.*.X.X.1 1 l X.X.X.X.X.X.X.X.X.X.X.%.} < < 9 z < 1 < , , , 1 1 l i i %.@.%.%.%.} @.@.X.9 < < Z %.%.%.%.%.X.} 1 < 1 *.C 2 b *.*.%.*.*.v z } :.v [ +.D.D.D.D.,X1X1X1X>Xm.m.1X1X1X1X1Xm.z.l.D.U.D.D.",
"z b b M %.1.Z Z N N Z Z Z V V Z ,.&.V V ,./ g V >.m f m &.3 3 3 2 < < } } l l o.} l l b 1 1 < %.z , - - - - M %.- , } } , , } C , - *.M u - = - u N $.jX$.e , e 8 { 1.$.$.{  . .{ t 7.9.9.9.9.9.9.8.8.<.7. .<.8.+.{ { 0.<.[ ..D...[ +.D.[ [ v [ [ ..[ ..........[ | [ [ 8.8.6.+.8.9.<Xo.v { =.gXS.) U U I U I U U ) ' / L K P P L K J C C V b 5 f f 5 5 5 5 f n @.aX;./ ( ( '.`.] ,.S.`.`.LXJXgXfXmXlX`.] ] ] ' S.sX}.sXsXfXS._ _ F.;.^ _ F.N.K ` A.` U M.D.) S.{.sXsXFXUX' ' FXIX{.sXsXT.t.t.UXlXi.C.UXsXs.s.I.T.s.I.kXkXlXlXkXI.I.I.' g g g g g g n N.JXJXoXoXOXOXOX&XUXBX*XBXUXkX/.nXUXkX+XlXkX(.(.xXxXlXlXlXkXT.8XzX8X7X8X8XM.n n b b Z.xXnXzXzXAX8X^.^.PXAX^.W.^.^.^.kXnXnXxXHXUXkX+XVXUXVXNXvXvX^.^.(.(.+XM.n n n n I.T.n n n n V +X(.(.UXnX(.kXnXnXbXbXnX(.(.(.(.^./.nXnXbXbXnXnXbXnXnXcX(.8XcX(.Y.B n n n n n b P kXnXnXnXPXHX(.(.UXHX(.8XnXnXbXbXbXbXbXnXnXbXnXKXPX8X8XnXnXnXnXIXFXb n n n n n n n Z nXHXUXvX+X+XvXnXnXHXUX#X#XPXIX#X#X#XnXnXnXnXnXnXnXnXnXnXnX+X(.(././.Y.L.L.U.U.T.8XU.U.U.U.Y.U.T.UXzXJ.2XzXkXkXHXUXK.K.HXLXK.T.LXLXzXzXkXkXkXxXlXT.T.lXMXmXNXJXUX&Xd.m h g g g g n T.+XP.kXFXlXP.kXUX+XP.xXUXY.b.c.v.v.v.b.J.K.c.c.c.H.T.UXlXd.C.C.I.S.xXUXi.N.S.S.S.F.S.) ^ ` ` ' ` M.UXsXS.'.` K ` xXUX-.N.FXLXJ L FXFXJ J J L L M.UX2XT i.N.S.a.a.a.V.P f f f f g g y.v.Q.Q.Q.Q.Q.Q.Q.Q.Q.Q.Q.6XQ.6XqX4X7XqXrX5X5X5XiXiXuXeXuXuXiXiXiXiXiXiXiXpXSXDXSXSXDXDXSXSXDXDXDXDXiXeX6X6XqXeXqX6X4X4XQ.qX4XQ.Q.4XQ.Q.Q.7Xm.g.j.D.c l X.:.l l l l i 1 1 1 l 9 l 9 9 1 1 1 1 1 < 1 1 < < < < C } < < 9 1 1 1 < < < 1 1 9 9 1 < , < < < < < < < < < < , , 3 2 3 3 9 9 0 3 3 2 *.C l v :.M z v v [ ..z.,Xz.z.1X1X>X>X>X>X>X>X9X5X>X>X9Xm.l.g...C c b 5 6 6 Q ",
"i 1 1 2 C :.b b 0 b C C C m m m ,.>.W / A.&.Q Q 1.Q Q &.1.Q Q m g f 5 @.} 3 1 X.C z z z > % 9 *.z - - < < - M %.- , } } , , } C , 1 *.M u , ; < 4 $.w.w.e 3 w N w } 9.$.$.y 9.$.y 7. .{ t 8.7.9.9.8. . .7.9.8. .8. .t 9.9. .[ +.[ [ +.8.| | [ ....[ v [ ..[ ....| +. . .9.9.8.| 7.8.D.c q $.fX4.) I i.U I I T U U ) ' P L K K L B P K C C C B 5 f f 5 5 5 5 f 5 5 C Z / ( ] '.`.] ] ,.2.`.LXMX4.2.4.}.2.4.] ] ] d.d.] ] ] `.S._ ' F.;.^ ) F.-.K ` A.` K M.F.K ) ` a.a.lXUX' d.JXLX` ` t.t.t.i.UXlXi.B.UXsXV.s.I.T.s.f.H.H.H.I.I.I.I.I.K g g g g g g n K.HXJX!.!.!.oXoX+XUXVX+XlXUXkX/.nXUXcXkXxXkX8X8XkX+XT.I.I.T.T.8XzX2X2XkXkX2X2XT.U.U.U.zX8XT.T.8X7X^.^.PXAX^.^.^.^.^.8XkX/./.nXUXkX/.nXUX+X+X(.(.W.W.^.~.+XM.n n n n I.T.n n n n V +X(.(.UXHXcXcXcX(.(.(.8XcXcXcX^.^.~.8XcXkXcXcX8X^.8XcX8X(.kXcXcXcXkXB.V n n V K.+X+XvXvXvXPXPX+XkXUXHXzXzXcX8X(.(.8X(.(.wXcXcXcXHXPX8X8XbXcXcXcXIXFXb n n n n n n n n (.cXUXcX(.(.(.+X+XVXUX+X+XPXIX+X+X+X+X(.(.(.(.(.(./.(.(.+X+X(./.Y.U.L.L.Y.Y.U.T.8XU.U.U.U.U.U.T.UXkXJ.2XT.J.J.xXUXK.K.HXLXK.T.LXHXK.K.K.K.K.T.T.K.K.kX+X].].mXUX@X' m n g g g g K (.kXP.(.FXzXP.kXUX(.P.xXUXY.v.zXnXnXnXAXkXP.U.U.U.H.T.UXHXxXMXMXI.C.xXUXMXMXMXMXMXFXFXsX` ` xXxXxXMXUXsX] '.' ) ' xXUX-.;.FXLXI I FXFXJ J J J T N.UXT.Y T {.xXxXxXxXh.B f f f f g j H.c.v.Q.Q.Q.Q.Q.Q.Q.Q.Q.Q.Q.Q.6X6XqXqXqXrX0X9X5X0XyX9X9X9X9X9XuXiXpXSXSXSXSXDXDXCXCXDXSXZXZXZXSXZXiXrX6X6X6X6X6X4X6X4XQ.Q.qX4XQ.E.4XQ.Q.E.^.m.v.b.D.F l X.:.l i i l i 1 1 1 l 9 l 9 1 1 1 < 1 1 1 < 1 1 1 1 1 C } 1 < 9 1 1 1 < 1 1 9 9 9 9 < < 1 , 1 1 < 2 2 2 1 < 1 - > , 2 p l l l v C L o.2X1X>X1X0X9X4X4X5X5X4X9X9Xn.n.>X1Xo.o.L B b 5 &.Q 6 6 ,.r 6 6 6 6 6 6 6 6 4 #.",
"o.o.L L o.Z.M.B.:.:.:.:.:.>.=.=.>.&.V Z 1.&.Q %.F.1.1.1.1.Q Q Q =.,.>.>.&.b z %.%.:.>.Z > - 0 *.} } } X.< - M %.- , } *.} } *.C , < *.@.X.} } b e 0.w.$.e : #.&.=.=.$.{ { t #.#.{ { q t { 9. .9.hX9.9.9.0.9.9.9.aX9.9.<.7.7.8.9.8.<.<.<.[ [ +.<.<.D.<.<.<.<.<.+.| 8.9.<X<X<X<X8.7.8.D.l { aXFX'.S.C.K.S.Z.Z.M.Y U a.F.A.B.A.B.B.B.A.K K -.>.>.b b f 5 f 5 5 5 5 5 C >.F.'.'.dX}.}.sXfXfXfXUXFX`.4.}.fXdXlXsXsX}.}.sX}.`.'.sX'.F.F.F.'.S.A.F.` K F.sXF.F.T.sX{.{.sXsXsXMXUXF.{.JXIX{.F.F.{.F.F.UXxXT.sXUXxXK.K.kXlXkXkXlXH.H.I.I.I.I.H.f f g g g g g n I.HXPXkXcXvXlXkXlXUXFXkXzXUXzXkXnXUXnXxXFXnXzXzXxXnXkXkXkXxXxXxXxXkX8XkXzXzXzXzX8XU.U.zXzXkXkXzXzXU.^.IXHXzXzXbX8X8XzXzX(./.nXUXkX/.HXUXcXcXcXbXzXbXcX^.(.-.n n n n I.T.n n n n V cXcXcXUXAX8X8XcXcXcXcXcXcXcXcXcX^.^.8XbXbXbXbXbXcXcXnXbXcXvXcXkXkXkXkX(.(.(.(.(.(.cXnXnXnXPXPX(.kXUXHXcXcXnXcXcXbXnXcXcXbXcX8X8XHXPX8X8XbXzXbXbXIXxXb b n n b b b n Z cXnXUXcX(.8XcXcXvXHXUX+X+XJXIXvXvXvXcXcXcXcX8X/./././.(.kXcXkXkXkX8X8X8XkXkXkXkXzXzXzXzXzXzXzXxXUXxXT.2XkX2X2XHXUXK.K.HXLX2XsXLXHXK.K.kXzXzXzXkXT.J.2XkXkXlXMXUX+X^ n n n n n g ` T.+XP.Y.{.kX+XxXUX(.L.zXUX(.Y.HXUXUXUXUXAXL.2X2XsX(.kXUXUXUXUXUXS.M.lXUXUXUXUXUXUXUXUXJX'.'.UXUXUXUXUXfXF.F.a._ a.xXUXF.A.FXLXJ M.HXHXB.B.B.B.F.F.{.h.Y N.xXUXUXUXUXM.f g f f g g N.T.T.Y.^.7X7XQ.Q.Q.Q.qXqXqXqXqXqXqXrX7X4XqXbX0X0XbXyX5X5X5X5X4X5X5XeXuXiXZXSXDXDXDXDXDXSXSXZXZXiXuXeXeXeXqXqXqXQ.E.qXqXqXqXqX4XQ.E.7X7X7X^.^.m.x.j.D.c l X.:.o.:.*.X.X.X.X.X.X.X.X.C < l X.X.X.X.X.X.X.X.X.0 1 C *.X.*.*.1 1 1 1 1 l , 2 2 2 2 2 2 p i l l v v } :.<.D.D.D.D.,X2X1X1X1X1X1X>X>X1X>X>X>X1X1X1X1X1XF.F.F.F.P Z ;.,.>.>.>.%.5 5 ,.Q 6 5 &.m 4 M @.@.@.#.*.7 : { ",
"z.z.z.j.j.j.j.j.h.o.X.o.-.-.%.%.%.Z M C >.%.C Z =.=.;.;.;.Q V Z &.>.=.&.&.V n Z Z %.:.M , - < C M M } *.< - M %.- , M C C C C z , < N N C { *.n y 0.jX$.w 8 #./ &.@.{ w e e e N N M 8 t  .9.y 7.0.9.9.9.9.<.<.<.9.9.9.X. .$.9.9.9.8.<.<.| [ <.<.<.<.+.+.+.+.<.+. .9.9.hX9.<X<X9.7.8.D.z $.dXfXA.N.N.C.N.N.S.M.Y I ' S.B.:.;.;.-.>.F.K P -.B.-.Z f f 5 5 5 5 5 5 5 m xXUXUXUXLX'.'.JXUXUXUXUXFXS.`.UXUXUXUXUXUXUXUXUX}.S.MXUXUXUXUXS.`.S.N.N.` U UXUXUXUXUXUXUXUXUXUXUXUXUXS.F.JXUXUXUXUXFXF.K.xXzX2X0XHXzXK.kXUXUXUXUXUXH.f.I.I.I.I.K f f f g g g g ` T.PXUXUXUXUXHX(.kXUXxXY.T.xXkX(.xXUXUXUXUXUXUXUXUXPXkXkXkXUXUXUXUXFXkXkXkXkXkXkX8XY.Y.HXUXUXUXUXPX^.7XIXUXUXUXUXUXUXUXUXzX/.cXVX(./.HXUX8X+XHXUXUXUXUX/.(.-.n n n n K.T.n n n n %.UXUXUXUXnX(.cXUXUXUXUXUXUXUXUXUX^.^.HXUXUXUXUXUXUXUXUXUXUXUXHX(.(.(.(.(.(.(.(.(.(.HXUXUXUXUXPX(.cXHXnX(.cXUXUXUXUXUXUXUXUXbX7X7XbXnX8X8XKXUXUXUXUXsXb n n n b b n m m IXUXUXcX(.nXUXUXUXUXUX+X+XPXUXUXUXUXUXUXUXUXnX(./.^././.nXUXUXUXUXUXUXUXUXUXUXUXUXUXUXUXUXUXUXUXUXzXY.zXUXUXUXUXUXK.K.kXzXT.T.zXkXK.K.UXUXUXUXUXkXJ.T.T.+X+XxXUX{.g n n n g n g V.T.+XP.P.K.(.(.xXUX(.L.zXUXY.Y.HXPXL.b.PXHXL.sXdXfX8X2XT.T.C.sXUXS.M.C.S.S.S.S.S.S.S.LXJX`.`.UXMXS.S.N.N.N.N.' _ ' fXUXF.N.MXLXJ M.HXFXM.-.M.N.B.F.N.T Y i.Z.Z.Z.zXUX-.f g f f g n K.T.K.U.^.^.7XQ.Q.Q.Q.6X6X6X6X6X6XqXrX7X4X6XrX0X0XrX9X5X5X5X4X4X6X6X6X5XeXuXiXiXiXpXSXpXiXiXiXiXeX5X5XqX4X4XqXqXE.E.qXqX4X4X6XQ.Q.E.W.W.W.^.^.m.v.j.D.x l C o.o.o.o.X.X.X.X.X.X.X.:.} 1 l *.X.C } C Z C X.*.0 1 M C { } } 1 1 1 1 l z 2 p l z z c v L H o.D.o...z.,X,X1X1X1X1X1X1X1X1X1X9X1X:X>Xl.l.z.z.D.>.:.=.*.&.&.Q Q 6 6 Q Q Q Q &.&.5 5 =.Q 5 w =.M 9 M *.} { X.*.9 9 { ",
"m.m.m.m.x.g.g.g.g.g.Y h.M.M.-.P L C c c :.L s p s s j j j B B n b m Z W Q Q m 2 , z B 1 < , - - - - z *.2 > M %.- , - - , , , , , = ; , < 9 *.j y q.jXC w w w m e e e e e e r e 4 b } 9.0.7.7.$. .t t t C M e t M e e L C { y $.7.7.9.9.8.8.<X9. .| | | | +.<X8.9.9.9.9.8.+.8.7.9.<.:.M dXfXaXp.) ) r.I U F.M.H I U ( ^ J K K J o.F.^ K ;.>.B C 5 5 5 5 5 5 5 5 5 n >.F.F.FXLX] 2.JXLXgXgXaXsXF.`.UXMX}.'.}.sX'.fXUX'.^ xXUXA.F.F.] )._ ) K T T UXFXF.A.A.A.A.F.F.F.'.'.F.U ) S.sX{.F.LXHXT.U.U.1X1X9XbX8XJ.kXUXlX{.MXUXI.f.I.I.I.I.B f g g g g g n H./.lXkXkXkXIXnXJ.Y.UXxXH.V.K.Y./.xXHXJXFXFXxXzXzXLXKX8XT.T.kXkXkXUXnX/./.!././.kXkX(.(.HXUXkXcXIXIX(.8XnXcXkXkXzXkXkXzXUXzX/.kXkX/./.HXUX(./.HXIXzXzXzX(.8X-.n n n n K.T.b n n n %.PXzXnXnXbX8XbXUXHXbXcXcXcXcXHXUX(.(.HXIXcXcXcXcXcXcXnXzXzXbXcX(.(.(.8X8X8X8X8X(.(.HXIXnXnXvXcXkXkXbXkX8XkXUXHXcXzXnXbXbXbX7X^.^.7X8XwX8XKXPXbXbXbX-.n n n n b b n m m 8XbXbXwX8XnXUXnXcXbXbXcXcXcXcXcXcXcXcXcXcXUXnX^.^.^.^.^.nXUXzXkXkXkX8X8X8X8XkXkXkX8X8X8X8X8X8X8X2XU.b.kXUXzX2XzXkXY.K.K.P.J.J.J.J.U.U.UXHX2XkXUXxXT.Y.K.K.I.lXUXA.g g g f g n B P./.kXP.H.H.P.P.kXUXY.L.xXUXc.v.HXPXL.J.PXHXL.fXgXjXrX0X2X2XT.xXUXS.S.S.S.a.S.S.S.d.d.LXFX' ' UXlXa.p.U K J J ^ ^ ^ sXUXN.` xXLXK N.HXFXI J J J L F.M.Y r.t.t.i.M.zXUX/ f g f f f M.G.i.M.h.c.v.7XQ.Q.Q.Q.Q.Q.Q.Q.Q.Q.Q.qXQ.Q.qX4XQ.Q.Q.7X7X7X7X4X4X6X6X6X6X6X6X6X5X6X5X5X6X6X6X5XeX5X6X6X6X6XE.6XqXQ.E.Q.qXQ.Q.Q.Q.E.E.E.E.Q.W.W.W.m.b.D.v l v x x x x l l l l l l l :.X.i z *.v 1 1 1 1 1 C *.0 1 1 1 1 1 1 1 1 i i z z v ......+.z.z.>X>X1X0X9X5X9X0X5X>X>X>X>Xl.l...{ M >./ 4 6 6 6 r r 6 6 6 6 6 6 w w w w 0 0 0 0 9 *.} 9 9 *.C 9 9 *.M 9 M =.b 3 N =.0 0 Z ",
"2Xz.g.g.x.x.x.x.g.g.o.2XF.1.A.k.j.j./ 4.'.&.V Q #.N M M M B J B 7 a a l 3 3 0 d i c C p > % - - - - z %.1 - M %.- , - - - - , , , 1 , < , < *.b N 0.jX1.e w b w e e r e e e r e e e b e e e N e e N N e N N N e e e e N Q N N { { { { { #. .9.9. . .8.8. . .aX<X9.9.8.8.;X9.dX9.{ { <.1.gXdXB.^ ^ ^ U U U A.M.I U U ` ^ K K K V -.F.' ' ,.>.C C b 5 5 5 5 f f 5 5 5 W / / xXLX/ ' HXGX4.4.`.}.'.'.UXfX2.] S.'._ {.UXF.` xXUXK K K _ ] _ ^ ^ K ^ UXxX` I L L J U ) U T ` ) ) ) U F.F.A.LXHX1X>X1X0XhXfXxXzX7X8XUX+XI.lXUXI.f.I.I.I.a.f f g g g g g V T.T.kXP.J.K.LXnXH.Y.UXxXH.G.P.(.{.MXFXFXjXjXfX1X1XHXHXzXfXfX8X/./.UXxX/./.(.2XT.kXlX(.(.HXUX{.{.PXIX(.kXzX(.T.kXkX(.(.kXUXxX/.kXkX(.(.HXUX(.(.HXPX^.^.^.^.^.T b b b b b.L.b b b b %.HX^.8XcXcXcXnXUXAXcXcXcXcXbXHXUXzXcXHXPX^.^.^.^.^.8XcXcXcXcXcX8X(.kXcXcXcXcXcX(.(.HXIXcXcXcXcXcXcXbXkX8XcXUXnX7XwXbXbXbXbX7X^.^.wXbXbXbXPXHX^.7XcXV n n n b b b n m n M.wXwX8X8XnXUXcXcXcXcXcXcXcXcXcXcX+XkX(.(.UXnX(.(.^.^.^.nXUX(./.Y.Y.U.Y.Y.Y.Y.Y.Y.Y.Y.Y.Y.Y.U.K.J.J.J.kXUX8XK.2XT.K.K.K.J.K.K.K.K.K.K.UXAXJ.T.UXzXP.P.K.I.T.xXLXn g g f g g n J.P./.(.P.P.V.H.J.kXUXY.L.zXUXHXHXIXPXL.U.PXJX{.gXLXLXLXLXLXxX1XzXUX2X{.xXHXHXHXHXFXa.' LXIXFXFXUXlX) ) F.FXFXFXFXN.K sXUX-.J xXLX` M.HXFXF T FXFXFXHXHXFXFXFXFXZ.T sXLXg f g f f Z T.V.M.h.h.;.c.^.Q.Q.Q.Q.Q.Q.Q.Q.Q.Q.Q.qXQ.Q.6X6XQ.Q.Q.Q.Q.4X4X4X4XE.E.E.E.E.E.E.6X6X6X6X6X6X4X4XeX6X6X6X6XQ.E.4XqXQ.Q.4XqXW.W.W.W.7X^.^.7X^.U.U.^.m.h.:.c l l l l l l l l l l 9 i i :.} 1 l *.v 1 1 1 1 1 C *.0 < < 1 2 p l x H 1X>X>Xm.>X>X>X>Xm.m.z.z.l.z.1Xo.L o.B.C n g h h 6 6 r r 6 ,.( 6 5 5 5 3 3 0 9 1 0 9 < < 9 9 < < < < 0 3 %.} < < *.C 9 0 *.M 7 M *.z < M *.7 7 { ",
"2Xm.v.x.x.x.x.g.x.2XzXfXdXF.F.h.k.h./ 4.}.1.W &.4.1.F.'.'.B Z >.1.B.B.:.%.=.*.:.:.:.>.%.1 > 0 @.@.%.*.%.< - M %.%.*.%.} - - } *.%.%.*.*.%.*.*.B w 1.jX0.N w e 0 e N $.y y y y y y y N N e e e e e e e $.1.1.1.#.N N @.1.1.1.1.1.1.1.1.1.1.1.1.1.{ #.<.<X<X<.9.9.9.8.8.8.6.9.0.$.v X.1.dX'.'.Z.A.F.F.N.U U A.A.A.F.F.N.^ K >.A.A.A.F./ / ;.>.B B Z b 5 5 5 5 f 5 5 b &.dXdXGXLXF.F.JXLXMXfXMXMXdXdXUXMX2.] S.'.) {.UXF.K xXUXxXxXxXfX`.'.xXxXfXsXUXxXA.F.xXxXxXxXxXxXxXxXxXp.a.a.2X2XY.PXHX1X1XCXAXHXGXFXHXAXHXUXlXI.xXUXxXxXxXlXI.B g g g g g g g M.K.K.xXxXzXxXIXnXG.(.UXJXnXxXxX+X@XFXFXFXGXGXLXFXFXIXKXxXCXFXHXHXHXUXHXkXkXnXFXFXHXlX(.(.HXUXkXkXPXIXnXHXHXMXnXFXFXkXkXzXUXHXnXHXHXHXHXPXUX~.~.AXIXnXnXnXbX^.h.b b b b U.U.b b g b 1.HX^.^.(.(.(.cXUXKXAXAXAX8X(.nXUXHXAXPXPX^.^.nXnXnXAXAXbX7XwXHXAXnXHXHXcX8XnXHXnXnXPXIX8X8X8XHXHXHXnX8X8XcXUXHXAXAXAXAXAXAXnXnXnXAXAXwX8XKXHX^.7X8Xn b n b b b b n N m C nXAXnXnXHXUXvXcXcXnXHXHXHXHXHXHXnXcX8X(.UXnX(.8XnXnXnXHXUX(./.^.Y.Y.Y.kXxXxXxXxXxXxXxXAXzX8XkXxXxXxXHXUX8XK.2XxXxXxXxXxX8X8XxXxXxXxXUXHX2XkXUXHXFXFXFXFXFXPX'.n g n n n n K.P.P.T.(.(.8XK.T.c.kXUX8XT.zXKXKXKXHXHXU.U.PXJXlXgXUXUXLXIXUXFX0XCXUX2XT.xXUXHXHXLXLXa.a.MXFXHXHXHXlXF.N.'.FXFXLXUXsXA.B.B.B.B.FXLXF.B.HXFXF T UXIXHXHXHXFXFXLXUXD.h.sXdXf g g f f B.T.T.T.T.K.M.c.^.^.qXqXqXQ.Q.Q.6XqXqXqXqXQ.Q.6X6XQ.Q.Q.Q.Q.Q.4XW.Q.E.E.Q.E.E.E.E.qXqXqXqXeXqX6X6XeX4X6X6X4X4X4X7XwX4XW.qXwX^.W.8X8XwX8X8X8X8X7X8XU.j.o.:.:.:.:.:.:.:.:.*.:.:.*.1 9 1 *.} 1 l *.M 1 9 z 9 1 C *.*.*.*.X.1 i i H j.1Xz.j.j.g.j.g.o.o.Y L L B P ;.V g V ;.g 5 Q &.&.&.,.5 5 5 %.Z 3 3 =.=.*.*.} 9 < M *.*.*.*.*.*.*.*.%.9 9 *.@.0 9 *.*.*.*.*.M 9 M *.z 1 C *.*.*.*.",
"U.m.m.x.n.x.x.g.m.2XxXdXaXaXaXM.F.M.W 4.aX4.( ,.4.4.4.'.dXN #.4.4.,.;./ Z C C M C C P P p 1 0 @.N M M M 1 , 0 M M M } } - - } } M M M M M M C z : $.aXw.#.e e 8 e y 0.4.4.y 3.y y y y y y y y y y e e $.$.#.#.#.{ { @.1.*.#.#.#.#.#.*.*.*.*.*.#.N Z %.>.=.{ {  .<.8.9.8.8.9.9.#.v X.B.gXN.M.h.-.;.A.N.) ^ N.;.;.N.F.N./ ^ -.-.-.-.;./ ^ ;.>.C B >./ 5 5 5 5 f f 5 n m FXUXUXLXA.;.HXUXUXUXUXGXgXgXUXMX2.'.MX'.) sXUXF.K xXUXUXUXUXHXN.S.LXUXUXUXUXfXT F.UXUXUXUXUXUXUXUXUXa.C.xXFX8X7XPXKX0X<XUXUXUXUXUXUXUXUXUXlXI.xXUXUXUXUXPX` g g g g g g g B V.G.V.HXUXUXUXUXxXG.T.UXUXUXUXUXlXlXJXIXMXGXIXUXUXUXUXPXFXFXGXUXUXUXUXAX8XkXHXUXUXUXxX/./.nXUX8X8XKXUXUXUXUXUXUXUXPXkXkX8XUXUXUXUXUXUXUXUXUX^.~.AXUXUXUXUXPX8X-.n n n n T.U.b n b b 1.HX(.(.(.(.^.cXUXUXUXUXUX8X^.nXUXUXUXUXPX^.^.PXUXUXUXUXnX^.wXUXUXUXUXUXcX(.AXUXUXUXUXIXwXwXwXUXUXUXKX8X8XwXUXUXUXUXUXUXUXUXUXUXUXUXPX7X7XcXbX^.8XD.n b b b P n n n N N m dXUXUXUXUXUXvXcXcXPXUXUXUXUXUXUXIX8X8X8XUXnX(.cXUXUXUXUXUX(./.zXHX^.^.HXUXUXUXUXUXUXUXUXxXT.8XUXUXUXUXUXkXK.8XPXUXUXUXPXT.T.PXUXUXUXUXFXY.2XUXUXUXUXUXUXUXLXN b g n b b T Y.L.L.P.T.Y.T.Z.Y.c.8XUXT.J.J.Y.^.~.L.U.U.U.PXLXgXgXUXJXMXFXUXGXfXFXUX8XU.xXUXI.C.MXLXN.a.i.a.i.S.S.N.N.a.) ) ' sXUXF.-.o.T T T xXLX-.` FXFXF J UXxXM.o.Y Y o.2XUXD.h.zX&.f f f f B M.C.S.S.{.T.t.V.K.b.Q.Q.qXQ.Q.Q.Q.Q.Q.Q.Q.Q.Q.Q.4XQ.Q.4XQ.Q.Q.Q.Q.Q.Q.Q.Q.Q.Q.Q.Q.qXqX4X4XqXqX6X6XeX4X4X4XrX4X4XqX0X7X7X8X8X^.W.7X7X^.W.W.W.W.W.7Xm.g.H L X.X.X.X.C C C C C C C 1 9 9 *.} 1 l *.M 9 z *.z 1 z C C C } } 1 1 i o.U.J.o.L J g f d d 5 6 6 6 6 6 6 d d m &.5 3 Z =.N N Z < 1 9 X.} 9 1 *.X.C C M 8 ; e *.N M Z C M M %.%.9 9 *.%.0 0 C C { { C z 9 M *.z z C C C M M ",
"H g.g.g.g.g.j...z.D.sX1.F.aXsXA.F.A.&.,.aX0.4.2.2.}.! ,.aX1.$.4.gX1.=.#.i i 9 - 2 2 2 B c p 0 %.0 < < , 1 1 - - - , } } - - } C , - , , ; 1 i 3 * m 1.w.0.y w q #.y y y y y 3.3.3.3.0.0.3.q.3.3.3.3.3.0.3.y y y y N #.1.} { t t e e e e e N { { { } e N { } { { {  .9.<.#. .<.Z H D.aX0.H F J J J A.N.^ ^ ^ ^ ^ ` F.;.^ ^ K V V V P V V ;.>.B C >.>.g 5 5 5 5 f 5 n m b %.>.F.>.P ;.aXF.<.LXGXjXjXUXFX}.}.UXsX` sXUX'.( ' '.'.,.JXFX_ _ LXHXS.N.M.T J B.UXsXM.M.M.-.` fXUXK.U.HXIXm.l.PXKXCXCXUXGXhXhXhXCXzXU.2X{.I.I.I.I.I.HXHXn g g g g g g g T G.G.G.HXHXY.T.sXK.G.T.kXY.T.lXUXlXFXLXUXJXMXLXUX8X2XsXCXLXGXGXLXAXCX7X8X8XcXcX(.8XcX8XY.Y.nXUX^.^.^.8X8X8XzX8X8X8X(././.^.8XkX(.^.^.(.7X8X8X^.8X8XzXbXnXIXPXzX>.n n n n sXkXn n n m 1.KXbXcXbXcXcX8X8X8X8XnXUX8X^.8X8XkX8XrXcX^.^.PXKXwXwXUXnX^.wXUXAXrXAXUXwX7XAXUXwXwXbXbXwXwXwXwXwXbXbX7X7X7XbXwX8XwXcXcX0XcXwXwXwXHXPX^.^.wX8XwXwXZ n b b b Y.-.n n n n n V kXcXcXcXcXwX8X8XcXcXcXcXcXcXcXcX8X(.8XUXnX(.cXUXnX8X8X8X/.~.nXUX/.Y.HXLX8X(.(.(.(.(.UXxXY.T.UXxXT.kXsXT.Y.kX(.T.T.HXPXJ.U.PXHXY.8XkXU.U.U.U.Y.Y.T.(.T.T./ n g g b g T G.J.J.L.L.G.J.J.J./.c.8XUXT.b.L.v.u.v.v.v.m.b.LXLXgXBXUXJXmXFXUXJXfXFXUXAX7XAXUX,Xz.xXLXY Y Y i.) S.S.p.p.p.p.) ` sXUXB.J J F F F xXLXc J FXFXI J UXxXU I I Y Y 2XUXK.h.B.m f 5 f f Y r.y.i.C.{.F.Y o.o.J.v.Q.qXQ.Q.Q.Q.Q.Q.Q.Q.Q.Q.Q.4XQ.Q.4X4XQ.E.E.E.E.Q.Q.Q.Q.Q.Q.E.qXqX4X4X0X8X7X8XzX8X8X8X0X7XW.7X7XE.E.4X7XE.E.7X7XE.E.E.E.E.E.7XU...x l l l l l l l l l l l l l 9 9 *.} 1 z *.v 1 z *.z 1 1 1 1 1 { X.l l x j.U.x u d h 6 6 6 4 4 4 : : : 8 7 1 1 M *.l 9 C *.9 < < < < 9 *.} 3 < =.Z z p 0 8 7 M *.0 0 l l i l X.X.9 9 X.} 9 9 l l l 9 9 9 9 v *.z 9 9 < ; = * ",
"X.o.o.L Y o.Y L L X.} } X.X.%.Z B.:.X.-.F.1.4.4.4.4.4.4.'.4.$.4.gX$.$.4.} v i l l 3 : B B c z %.z < < < 1 1 - - - , } } - - } Z < < 3 2 8 0 p < 3 B >.0.w.0.w w e N 4.$.$.y y y y y $.y y 4.3.3.3.3.3.q.0.3.3.3.3.3.3.q.3.y y y y y y y #.#.#.#.N { e N { @.@.} e { 1.#.e *.D.o.o.,XaX&.F F U J J B.N.^ ^ ( ` ` ' F.;.^ ^ / P P P P B B ;.>.Z Z B.>.V 5 5 5 5 5 5 n m f 5 n >.>.Z P F.F.1.LXGXw.jXUXMX`.{.UXsX` '.UX'.' ' F.S.^ FXFX_ ) LXFX-.U U K L B.UXT.J F c c c sXUXU.m.HXPXU.z.LXKXhX<XUXGXhXdXdXdX0X1X(.kXI.H.H.H.f.xX'.g g g g g g g n V.c.c.c.HXHXG.P.T.J.V.Y.T.J.P.kXUXMXGXLXUXJXxXPXUXU.2XzXKXLXLXLXHX0X8XqX2X^.8X0XzX0XzXzX(./.nXUX^.^.^.(.(.(.kX/.^.^./././.^.(.(.~.^.^.^.^.^.^.8X8XkXcXbXnXIXPXzXB.n n n n kXkXn n n m 1.KXbXnXnXbXbXcXcX8X^.nXUXbXwX8X(.(.(.wX8X^.^.PXPX0X0XUXnX^.wXUXAXrXAXUXwX7XAXUX^.^.wXwXrXwXwXwXbXbXbXwX7X7XwX7X7X8XcXcXcXbXwX7X7XHXIX^.7XcXcXcX2Xn n b n n 8X8XP n n n n n P cXwX8X8X8X8X0X0X8X8X8X8XkXkXkXkX8X8XUXAX8XzXUXzX(.(.(././.nXUX/.Y.HXLX/.^.Y.Y.Y.Y.UXxXY.(.UXkXK.kXT.Y.T.kX/.Y.Y.AXPXb.U.HXHXb.U.2XJ.L.L.b.b.b.J.P.Y.M.g b g b n B L.J.J.J.L.G.J.J.(.xXIXPXIXUXT.b.L.HXPXPXPXb.b.Z.LXUXIXIXUXGXmXMXUXFXfXFXUXIXPXIXUXD.Z.xXFXD D F LXLXLXxXU U N.LXLXLXLXUXZ.I Y T F J xXUXLXLXIXFXU J UXIXLXLXzXG Y sXUXT.i.Z m g f f B r.r.r.t.s.T.Z.G Y t.V.v.v.W.Q.Q.Q.Q.Q.Q.Q.Q.Q.Q.Q.6XQ.Q.4XQ.Q.Q.Q.Q.Q.W.4X4X4X4X7X7XwXwX7X7X0X7XW.7X8X7XW.W.7XW.E.W.7XE.Q.4X7XE.E.7X7XE.E.E.E.E.E.7XU...F x l l l v l z z l l l l l l i *.} 1 z *.C z v *.z 1 9 0 0 0 } X.l i F h.Z.a i 2 3 3 3 < < < 9 < 9 < 9 9 < 3 b *.0 3 C *.< 2 0 z z z *.} 1 1 *.} l l z z z C :.z 9 9 9 9 9 { #.0 0 %.} 9 9 0 9 0 0 0 0 0 M *.M 9 q v q q v ",
"{ C C C C C C L c c z ..C v B C >.o.o.o.D.F.'.'.aX0.aXaX'.3.,.4.dXaXaXaX0.X.D c :.%.#.-.B C B %.%.@.@.*.< 1 , - - , } } , , } *.%.*.*.*.*.*.*.0 3 b P y w.0.#.w e e 4.$.$.$.$.y y Q #.y r y 4.3.3.3.3.0.0.3.3.3.3.3.3.q.3.3.3.0.0.0.0.0.0.0.4.4.4.4.4.4.1.1.1.$.N @.1.} e %.D.D.2XdXdXZ B J U J J -.` K K F.F.F.F.F.;.^ ' A.A.A.A.A.B B -.A.A.A.F.>.V n 5 5 5 5 5 n N m n b m >.sXxXFXFXFXIXGXjXjXUXMX`.}.UXJXFXHXUX'.' ' xXMXxXLXFX) U LXLXFXFXfX-.J B.UXHXFXFXxX:.c sXUXY.v.HXIXAXFXIXKXhXhXUXIXKXFXGXCXCXzXkXkXI.C.lXxXMXaXm g g g f f f f M.J.J.J.c.HXIXnXFXHXFXxXFXHXnXFXHXUXJXGXLXUXIXHXIXUX2XxXLXIXIXIXIXLXHXHXHXzX^.wXAXPXKXHXKX8X(.HXUXkXkXAXHXHXHXHXHXHXAXHXxXkX8XcXHXAXHXHXHXHXHXHXbXnXHXHXHXPXIXPXbX:.n n n n cXkXn n n n 1.IXPXPXPXKXHXKXKXbX8XnXUXHXHXHXHX(.(.nXHXAXAXIXKX7X7XUXPXAXHXUXbX7XbXUXcX7XAXUXAXAXHXHXHXHXHXHXHXHXHXbX7XwXAXHXAXHXHXHXHXHXHX8X7XHXIXHXHXHXwX7Xh.n b b b P 8XwX8XP b n n n n Z.wXbXHXHXHXHXHXHXHXHXHXHXHXHXAXkXkXUXAX8XzXUXKXHXHXHXHXHXPXUX/.Y.HXIXHXHXAXzXY.Y.UXxXY.(.UXkXP.zXHXFXHXHXHX8X8XHXLXT.T.HXHXv.U.HXHXHXHXHXnXxXAXzXT.Z n n g b n T.(.(.(.L.J.G.G.c.(.FXHXnXnXHX2XT.T.AXPXPXHXT.U.D.GXGXLXGXLXGXgXMXUXFX<XzXAXCXFXFXFXU.U.Z.F x x D zXfXfXsXF I B.UXFXxXFXxXM.T xXUXF.B.xXFXFXFXFXxXB.B.FXFXFXFX2XF T sXUX{.^ g n g g b I r.r.r.r.r.Z.h.r.r.K.T.T.^.^.Q.Q.Q.qX4X4X4X4XQ.Q.Q.qXqXqXqXqXQ.Q.W.W.W.^.^.7X7X^.^.^.wXqXW.W.wX7XW.W.7XqX7X7X7XE.E.W.7X7X7XqX7XE.E.4XW.E.E.E.E.E.E.7X2XD.D.o.l l X.:.:.:.:.X.l l v z 9 9 *.} 1 l *.*.*.*.*.z 1 C *.*.*.*.%.i i Y h.Z.a 1 < < 9 9 9 < 1 9 < < < < < < < z } 9 3 b } < < } *.:.:.*.} 1 1 *.*.<.*.*.:.:.:.*.z 9 9 9 7 7 } *.*.*.*.X.z z <.*.<.>.:.:.<.<.<.[ v v +.<.<.<.",
"e q q M M z v X.v c v ....H L X.D.o.H H o.H C C ..#.$.1.'.3.4.4.4.4.1.1.0.>.r.l z 0 e c C B c z z 0 M *.< > - - - , } } , , z z z b b b z M *.0 < < 3 : 0.q.4.w w e y y y 4.$.4.$.Q Q Q Q y 4.4.4.0.4.y y y y 4.4.y 4.0.4.3.3.q.3.3.3.0.0.0.3.3.3.3.q.3.4.$.4.$.#.*.1.%.{ } } [ aXdXaXJ b B I J J J J L K A.A.;.;.;.' ^ ' A.-.%.>.B.B B P / / %.-.%.P V g f 5 5 5 n m m m m m m %.fXLXLXLXLXGXgXjXUXMX`.}.LXLXLXLXLXS.' ' xXLXLXLXxXK K FXLXLXLXxXJ c o.LXLXLXLXUXD.s sXUX(.v.nXPXPXPXPXHX<X<XLXLXIXIXUXFXhXAXIX{.H.s.xXLXdXm m g f f f f f T J././.Y.J.xXPXPXPXPXPXPXPXLXLXIXIXIXJXJXJXIXIXPXPXPX,XCXIXUXUXUXIXIXPXIXUXnX^.8XKXIXIXUXUXwX^.FXUX8X8XHXUXPXLXPXLXLXPXUXnX(.8XzXIXPXIXPXPXIXIXUXcXbXHXUXIXIXIXKXbXP n n n V bX8Xn n n n >.IXIXIXIXIXIXIXUXnXwXnXIXIXPXIXUX(.(.HXUXPXPXPXHX^.7XPXPXPXPXPXbX7XbXUXbX7XnXIXPXPXPXPXPXIXIXPXPXPXUXHX7XwXUXIXPXIXIXIXPXIXUXwX7XHXIXIXPXIXwX^.b b b n b o.7X7X7X7XT n n m m n J.nXUXIXIXPXPXIXIXIXIXIXIXUXKXzXzXzX8X8XzXIXIXIXIXIXIXIXIXPXT./.AXPXPXPXUXHX/.Y.UXxX/.kXUXcXY.xXUXPXPXIXUXY.Y.AXPXU.b.HXHXv.b.UXIXPXPXPXPXPXPXzXC b n n g g h.Y.Y.Y.(.L.L.J.c.c.(.LXkXc.b.L.J.J.J.kXnXzXU.T.U.2XgXgXjXgXgXjXgXMXUXCX>X>X>Xz.8.<X<XT.U.Z.F x x x x a a x x D F.UXF.L B.T J T xXUXN.` S.S.N.T T T T -.N.a.T D.h.G T sXUXF.g f f f f P I r.r.r.r.r.G G t.y.T.C.K.L.W.Q.Q.Q.qXQ.Q.Q.qXQ.Q.Q.W.W.^.qX8XT.Y.Y.^./.^.^.^.^.W.E.E.7XW.E.E.qXW.Q.Q.Q.W.W.W.W.Q.Q.Q.W.W.W.W.W.Q.Q.Q.E.E.Q.E.E.E.E.m.b.H L F x l o.:.v C o.X.l l X.X.9 1 :.} 1 l v v M M M l 1 C *.C M M b i u h.Z.h.l 9 9 = < < < 1 1 2 p p 2 3 3 9 9 9 9 9 9 9 9 9 9 X.*.b M M 0 ; 8 N { { t M M C C M 9 < < 3 0 3 M C C C C L v v D.o.o.o.....O.+.o...[ [ ......+.",
"l z z M M v v v v v b 1 l l z b :.o.v ..o.X...H D x x c b #.$.4.4.3.4.Z.dX1.<.v z 3 - - z B J p 1 - 0 *.< 1 - - - , } } , , , , - - 1 < % < *.M ; ; : u #.0.w.N N V e y y y y y y $.y N Q Q ! $.4.4.3.3.3.3.3.0.4.3.3.4.3.3.4.4.y y y 4.2.4.4.4.4.y 3.3.3.3.gXq.3.3.q.3.4.! Q $.gX'.F.F v c C K J J J B B A.;.K K V K V / A.P B %.B.B b n B V V P P V V V f f f 5 5 5 5 5 5 f f 5 5 m @.&.1.0.0.0.UXMX4.4.2.] ` ` ` ) K K K K J F s c s j j s x x l a i L >.z F.UXD.l sXUX^.n.E.7XW.E.E.n.n.z.,X<X<XhXUXFXhXKXUXsXC.H.s.K f f f f f f f g B L.Y./.8X8X8X/.J.G.G.J.L.G.J.I.I.(.MXGXFXHXJXMX2X1X1XT.dXGXUXIXIXAXrX^.0X8XUXnX0XCXHXKXKXPXUXrXqXKXUX8X8XKXLXY.^.Y.Y.^.^.UXxXT.Y.(.(./.8X8X^.^.nXUX^.7XHXPX7X7X7X8X^.b b n n X.wX8Xn b b n L wXwXwXbXcXwXnXUXbX8X8XcX8X8XAXUX(.(.HXIXwXwXwXwXwXwXwXwXwXwXwX7X8XnXUXcX8XcXcX8X8X8XwXwXcXwX8X8X8XUXHXwXbXUXAXwXcXbXwX7XAXUXwX7XcXbX8X8XbXwXh.b b b b b Z.7X8X8XwXcXK.n m N m b F.UX0XwXwXwXwXwXwXwX8X8XIXHX8X8XcXwXwX8X8X8X8X8X^./.(.(./././.Y.Y././.PXHX/./.UXnX/.8XUXzXL.zXUXkX(.nXUXT.J.xXPXb.b.HXHXv.v.UXnXc.U.^.x.g.g.L f f g g g T J.L.L.Y.(.L.L.G.c.c.(.UXkXc.c.c.c.c.8XbXAXzXU.(.L.<XdXgXgXgXdXfXsXzXUXzX1X0X0X2X1Xm.n.e.j.z.D x x x x x x x x x D.UXD.F M.F c L xXUXo.J Y T ` J Y Y U d.`.d.I Z.h.Y h.sXIX/ 5 5 f f b Z.Y Y G Y r.r.r.Y r.r.K.Z.T M.G.c.L.^.8X/./.(.kX(.(.(.T.T.U.U.v.v.v.n.n.n.n.n.n.E.E.E.Q.7X4XQ.Q.qXW.E.E.E.E.E.E.E.Q.Q.Q.Q.Q.Q.Q.Q.Q.Q.Q.E.E.W.E.n.n.E.n...x x x x x o.:.l l X.o.l l X.X.l 9 *.} i l 9 9 9 1 9 9 9 C *.z 9 < l l i j.j.h.> 1 3 0 3 < < < < < 1 < < 1 1 < < < , , - , , & , } #.7 8 7 7 7 0 v v v v v [ [ [ [ [ [ ....o.....[ ........l.l.1X,X;X;X;X:X>X>X1X1X1X,X;X;X;X;X",
"1 1 l z z z z z z M C z v v b z *.*.{ X.C M L o.o.o.o.o.P } =.,.,.4.4.B.aX0.9.+.o.l 1 < C P X.L z 1 0 %.b z z z - , } X.z z z z z z b M z M *.M - ; : i b $.w.$.#.n N y y y 4.4.4.4.y y Q y 4.3.3.3.3.3.3.3.3.0.4.4.4.4.4.3.4.0.4.3.3.3.3.3.3.3.3.3.3.3.3.3.q.4.3.q.gXgX3.4.4.0.gX'.F.F G T -.` T X.X.X.%.A.;.K K / / / %.A.P B %.B.P P P P B C C C B V V V f 5 5 5 5 5 5 5 f f 5 5 g f n &.4.0.aXUXMX4.4.`.S.N.;.-.` B B P P L L L L C L C L L L L c z L >.p F.UXD.L sXUXT.n.n.7XW.n.E.E.n.m.1X<X<X<XUXFXdXFXUX2XV.V.B f f f f f g g g B K.Y.Y.~.Y.^.(.(.U.J.G.J.L.H.K.I.{.+XFXJXFXJXMXlXU.2X2X2XFXLXUXIXPXnX8XwXzX0XUXAXzXCXHXKXKXPXUX0X0XPXUXkX8XPXLX(./.^.^.^./.UXnX(.(.+X+X(.8X8X^.^.nXUX^.^.AXIX^.7XwXwXK.b n n n D.zXwXn n n n L wXwXwXcXcXcXnXUXbX(.8XwXkXwXAXUX(.(.HXIXcXwXwXwXcXcXcXcXcXcXcX7X7XnXUXbX8XwXcX8X7X7XcXcXcXcXwX8XwXUXHXcXbXUXAXcXcXcXwX7XAXUXwX7XwXcXcXbXbX8Xb b b b n n T.8X8X8XcXcXvX{./ N m n m aXnXnXbXzXnXnXnXnXnXnXIXPXbXbXbXcXcX8X8X8X8X8X^.^.(.(.(././.Y./././.IXHX/./.UXnX/.(.UXzXL.nXUXzXnXHXUXkXY.FXPXU.U.HXHXJ.U.UXnXv.U.^.b.U.o.n g f g g V K.L.L.J.P.(.Y.Y.L.L.c./.UXUXUXUXUXUXUXUXUXUXUXUXUXUXUXUXGXfXdXdXsX0XzXUXUXUXUXUX7Xm.zXUXUXUXUXLXx x LXUXUXUXUXUXUXUXUXF.F D.D.L L xXUXUXUXUXo.J L FXUXUXUXLXd.J F.UXUXUXIX=.n f f f f P Z.G G o.h.h.h.h.k.k.k.T.Z.h.V.K.T.T.8X8XT.Y.(.8X^.^.^.U.m.n.n.n.n.x.n.E.E.n.n.n.E.E.E.E.7XW.E.E.7X4XW.Q.Q.W.W.W.W.W.W.4X4X4X4X4X4X4X4X4X7X7X9X4X>X4X4Xm.j.L L L x x ..:.x l X.:.C C X.X.l l :.} i l 9 9 9 l M M M } *.z 9 1 l l i z.z.h.1 1 3 0 9 9 < < < < < 1 < < < 9 9 9 9 9 9 l v v v +.<.[ | [ [ [ [ O.O.O.O...o.+.+.+.+.+.+.+.+.z.,X,X,X<X<X1X<X<XCX0X0X0XCXzXzXzX0X3X3X3X<X,X;Xz.",
"1 2 < 9 z 0 0 0 z M Z C C C C z *.<.:.>.X.z v X.F.D.D.D.D.*.B.D.F.4.4.B.'.dXdX,Xz.v 1 8 *.>.B.B.L 1 z @.%.*.%.%.- , } %.%.%.%.%.*.%.*.*.@.*.*.b , ; : p i #.w.0.#.b M y y ! 4.3.3.4.y ! ! 4.3.3.3.3.3.3.3.3.3.3.4.3.4.0.4.4.4.0.3.3.4.3.3.3.3.3.3.3.q.3.3.3.4.3.3.gXgXgXq.gXgXgXgXaXF.F G Z.A.A.A.A.A.A.A.A.;.K P B.A.>.>.A.P B P >.>.B.>.>.B B X.P B V V V n 5 5 5 5 5 5 5 m m m m f f b b N 1.dXUXFX}.'.xXJXJXHXHXF.c 2XHXFXFXFXFXFXFXFXFXFXFXxX:.C o.FXFXFXLXUXD.B.xXUXHXHXHXHX^.n.AXHXHXHXKXPXPXLXUXCX<XCXUXT.T g f f f f f f g g n K.~.~.L.L.b.L.^.^.U.J.G.nXHXHXHXxX{.lXJXIXIXIXIXLXHXKXPXLXIXUXUXUXKXbXzXPXLXPXUXAXCXKXKXPXPXPXUX0X0XLXUXzXkXPXIXKXHXHXnX^.(.UXIXPXPXPXnXcX8XnXHXKXPXUX^.^.AXPX(.(.wX(.V n n n n 2XzXbXB n n n / KXKXKXKXnX(.cXUXbX^.^.^.^.^.nXUXkX8XAXPX7X7XHXKXHXKXHXHXKXPXPXbX7XnXUXPXKXKXPXKXKXKXKXKXKXKX7XwX8XUXHXwXwXUXbX7X7X7X7X7XAXUXKXKXHXHX7X7X7XC b b b b b n cXcXkXkXvXvXvXVXxX&.m m m m %.xXHXLXIXIXIXHXVXVXIXPXnXnXPXPXPXPXAX8X(.kXHXHXKXHXHXHXKXHXHX/./.IXHX/./.UXIXHXPXUXzXJ.zXUXxXHXPXUXPXJXIXLX2X2XHXIXHXHXUXnXv.U.7X1XZ.n b b g g n T.T.T.P.c.L.(.(.(.T.T.c.L.xXxXnXxXnXAXAXKXKXHXHXnXxXzXzXIXHXsXsX2X2X0X0XCXxXzXAXUX^.m.bXUXzXxXPXLXx x LXLXsXsX2XsXsXsXsXo.L 2XUXB.L 2XsXsXsXfXv x o.HXLXxXxXfX_ J F.UXxXsX@.m n g g g b Z.Z.H H Z.Z.Z.D.K.K.U.Y.Y.Z.V.Z.sXzXsXsXkXY.U.^.8X7X7X^.^.x.E.E.W.x.x.n.E.E.n.x.n.E.E.E.n.7XW.E.E.7X7X7X7XqXqXqXqXqXqXqXqXqX9X9X9X9X>X>X0X0X0XrX0X9X7X9X1XD.Z.:.:.v x v L x l X.:.:.:.:.X.l l :.} l l C z 9 z *.*.*.*.*.l 9 1 l l i D.D.o.i 1 < 9 9 9 9 9 9 9 9 9 9 9 9 z z z v v v [ [ [ [ +.8.,X,XD.| | ..,X,X,X,X,X,X2X<X<X<X<X<X<X,X,X<XhXhXCXCX0XCXCXCXCXCXCXHXAXCXCXCXCX3X3X3X<X<XD.",
"0 9 9 7 < 9 7 0 0 0 2 } C C X.L o.o.} Z C v l v :.C C L o.{ C o.+.b N #.{ 1.0.<X+.[ v = 3 z T D.L p 3 7 9 0 C %.- , 9 0 0 0 0 0 0 0 0 0 0 0 0 > p 2 < ; 2 M y jX9.{ w Z #.y 4.4.4.y Q Q Q &.! ! y 4.3.3.3.3.3.3.3.3.3.q.3.3.3.4.3.3.4.4.y y 4.4.$.y 4.4.3.3.0.4.4.4.4.4.$.$.$.3.gXdX1.s U N.A.U P P / / / ' ( P P B.-.Z C P C B n Z Z Z -.>.C B :.-.B V V V B f 5 5 5 5 5 5 m m m m 5 5 f m m 5 Q fXsXd.a.2XFXFXFXUX>.i fXUXFXFXFXFXFXFXFXFXFXFXfX:.v :.UXLXFXFXFXP J '.JXJXJXIXIX/.b.PXIXHXHXHXKXHXHXHX0XU.zXIX>.f f f f f g g g g g V./.P.L.L.^.~.~.L.b.b.b.J.PXIXHXJXnXkXgXJXUXIXLXPXHXHXJXLXLXUXUXUXIXbXwXkXLXKXKXKXAXFXLXUXIXAXAXUXAXAXFXzXkX8XHXPXPXHXIXFX~.(.PXHXHXHXUXnX(.^.nXHXHXHXHX(.(.HXIXwXkXsX/ n n m m b zXzXzXZ n n n m IXPXKXUXAXwXbXUXbX(.bXUX8X^.nXUX+X(.AXPX^.^.IXIXKXKXHXHXKXKXUXbX7XbXPXKXKXKXPXKXKXKXKXKXKXKX7X7X7XUXHX7XwXUXbX7XbXUXbX7XnXPXKXKXIXIXqX7Xk.b b b b b n -.kXkXzXnXVXVXBXBXBXVX'.m m m m / fXUXIXIXIXVXVXBXIXIXBXVXUXIXLXLXHXcX8XzXUXKXHXHXPXPXKXIXPX/./.LXHX/./.HXHXKXKXPXzXU.zXUXkXxXFXIXIXPXLXAXU.U.nXHXHXHXKXkXv.v.b.o.n m b n b g t.L.J.T.J.c.c.J.J.J.L.Y.u.c.b.b.b.b.k.b.Y.wXwXwX7XW.j.o.y.PXFXU.m.m.m.z.v.v.v.x.8XUX1XU.xXUXV.U.FXPXD x LXFXs a a s c c c c c 2XUX:.L :.x x X.>.c x o.HXFXL o.X.c J 2XUXF.f g g g f f f I Y Y D F M.Z.Y r.r.h.o.h.h.h.k.J.2Xm.m.E.E.n.n.E.W.W.W.W.7XE.E.^.^.v.x.E.E.E.E.E.Q.Q.Q.E.E.7X4XE.E.4X4X4X4X7X9X9X9X9X9X9X9X9X9X9X9X0X4Xn.7X7Xm.9X4X4XE.E.n...F o.>.v x x l x l v v v v v z l l :.} l z *.v 9 z :.C z z z 9 9 1 l l i D.M.J i l 9 9 1 1 9 l v v v [ [ [ [ [ [ [ [ [ [ [ [ [ [ | +.+.+.<.<.1.9.dX0.0.0.0.0.hXhXhXhXdXdXdX<XCXCXKXzXzXzXCXZXZXzX0XSXZXCXyX3X3X3X3X3X3X<X5.O.+.",
"9 0 9 9 9 7 7 < 0 9 9 z z v C X.L C C C C v v C >.C z z z z z o.D.v 0 8 c <.9.hX<...H u - - 0 B.T F 1 = = - M *.- - < , > > , - - , , - - < , , , , , ; 3 3 z w.0.0.0 M N y $.&.#.Q Q Q #.( ' ( Q &.&.&.&.$.$.$.4.4.4.0.4.y 4.0.4.4.4.0.4.4.4.4.3.3.q.3.3.3.0.4.3.3.3.4.y #.#.Q 4.gXaXL J N.B.J J J B K K K K K P A.P B c B B n n V B B -.B.B c :.%.z V V V V c p 3 5 5 5 5 f f 5 5 5 5 5 m m 5 5 m m g s i i i F.UXB.i fXUXX.l x l l l l l l l C :.c :.UXF.l l c l D T {.I.I.HXIX{.I.LXHX/.~.~.8XU.m.^.m.m.T.*.n g f f g f g g g g T L.b.^.^./.Y./.^.^.b.J.L.b.PXFXP.T.{.lXMXJXUXGXfX^.U.2X2XFXGXLXIXPXAX7X8X8XkX^.8XzXAXHXLXUXKXZXZXUXHXKXAXkX8X8XzX8X/./.IXFXZ.K.B.M.M.Z.dXF.C.M.h.V.J.K.K.K.Z.F.F.P n m m m m m m Z.bX0XbXB.n n n m AXzXzXUXKXnXAXUXnXcXnXUX8X^.AXUXcX8XAXIXwXwXIXPXwXwXwX7X7XwXUXAXwXwXcX7X7XwXbXwXwXcXcXcXwXwXwXbXcXUXHXcXbXUXAXcXnXUXnXcXbXbXwXwXHXIX7XU.b b b b g n n U.kXlXvXNXBXBXBXBXBXVXJXsXm m m m m '.MXHXVXVXVXVXIXJXMXMXUXJXvXvXlXvXvXnXUX(.^.^.(.(.(.HXLX/./.LXHX/././.(.2XxXxXzXU.zXUX8X(.lXMXHXMXxXY.x.v.b.U.c.U.Y.b.v.j.B b b M n b f Y b.v.b.T.J.k.k.k.j.u.J.Y.c.c.j.j.j.v.j.b.^.8XbXzXkX(.k.r.u.LXnXv.m.m.2X2X8X7Xm.!.zXUXzX8XAXUXx.m.FXLXA x LXHXB.B.:.B.>.:.:.L v 2XUX:.L D.B.B.F.2XB.x o.HXFXx :.F.B.B.sXaXn 5 f f g f f V D D D D F M.Z.G G G G Y T t.y.h.h.T.E.E.E.E.E.E.E.E.E.E.^.^.n.n.7X^.E.E.W.W.Q.W.W.W.W.4X4X4XeXeX6X6X4X4X4X5X6X6X5X5X5X5X5X5X5X5X5XeX9XE.n.^.4Xn.4X4XE.E.n.g.x x L B.F x x x x l l l l l l l l l :.} l z *.v 9 v :.z 9 9 1 1 9 < l l x U.h.s < l l 9 < < 9 < l v v l 9 9 l l l q [ [ { $. . . .o.<.1.0.q.0.0.0.jXjXjXw.w.w.jXw.0.9.8.<XdX<XzXzXCX0X2X<X0XZXCXzXCXCXCXCX9X5X5XCX3X<X<X<XO...[ ",
"< 9 0 9 9 9 9 < 9 9 9 9 9 z z C C X.X.C C C C X.D.X.X.} z z z X.D.X.} } L <.<XhX8.....F M w M B.T I l = = - M *.M M M 1 > > , - - < , , , , , , , , , , < 3 i 0.0.q.N 0 e y &.( / V Q @.&.' ' / @.&.&.;.&.&.#.#.,.,.4.'.4.4.4.0.4.4.4.0.4.4.4.4.4.3.0.4.3.3.0.4.4.4.3.3.2.$.! Q 4.gXfX:.B -.A.-.-.-.` -.-.-.-.-.-.A.P B B P %./ / ;.&.%.>.A.B z :.%.z V V V C c z 3 5 5 5 5 f f f f f f f m m f f m b 5 5 p p i F.UXD.L xXUXX.a x l i i l l l l C :.X.D.UX2X{ X.P ..Y M.{.T./.HXIX{.T.PXHX(.(.(.8XU.m.L.b.Y b N n g g f f f g g g t.L.L.Y.^.^./.Y.Y.Y.Y.b.b.b.b.PXHXY.T.lXMXFXFXUXMXsX^.^.2XdXFXLXLXIXKXnX8XzXzXkX8X8XzXKXHXLXUXAX0XZXUXPXLXAXkX8X8XzXkX8X(.F.m n n n g g n Z m n g g b n n n n n m m m n m m m m m P zXbXbXbXD.b n m m xXnXxXUXPXnXHXUXnXcXnXUXcX/.nXUXcX8XAXIXwXwXIXPXwXwXwX7X7XwXUXAXwXwXwX7X7XwXwXcXcXcXcXcX0X0X0XbXcXUXHXcXbXUXAXcXnXUXnXcXcXwX8X7XHXIXY.B b b b b b n B 8XkXcXvXNXNXNXBXBXVXVXJXHXFX&.m m m m / sXVXVXVXVXIXJXBXBXUXJXvXlX+X#XlXxXUX8X^.^.^.(.(.HXLX/.(.IXKX/././.8XzXFXFXxX8XzXUX8XY.kXMXHXFXxXkXU.U.b.U.J.U.Y.U.o.n b b n b b f B c.Y.Y.Y.T.J.k.k.k.y.y.J.Y.J.Y.zXJ.c.U.zX^.^.nXUXUXUXUXk.r.u.PXnXv.U.8XUXUXUXAXm.P.kXUXUXUXUXUXx.m.FXLXA x LXUXUXUXUXUXUXUXUXF.v D.fX:.o.fXUXUXUXUXLXX.:.HXFXx :.UXIXdX/ N b f f f f f f ) D D D D H h.Z.h.o.o.o.j.M.Z.J.D.D.T.E.E.E.E.W.W.W.W.W.W.7X7XW.W.qX7XW.W.W.W.W.W.4X4X4X4X4X4X9XeXeXeXeXeXeXeXeXeXeXeXeXeXeXeXeX9XeXeX9X4XW.^.4Xn.4X4XE.E.n.g.x x L D.o.o.o.o.o.o.X.X.X.X.X.} } } :.} l z :.X.C } *.z 1 1 1 1 9 1 i x D U.h.s 7 l l 9 9 9 3 - 9 l v 9 9 9 9 l 9 q [ <.1.0.$. . .<.9.0.q.q.0.0.0.jXjXjXw.w.jXhXhX0.hX9.dXhX<X<X0XzX0X<X<X0XyXCX0X0X0XzXCX0X3X3XCX3X3X3X<XO.O.O.",
"< 9 9 9 < 9 9 9 < < 9 0 9 0 0 z C X.X.L C L L o.D.>.>.>.C z z X.<.<.>.D.Z.D.<XhX<X+...o.*.@.@.:.T Y J < - - M %.%.@.%.< > 1 1 , - , , , , , , , , , < < < 3 i #.0.w.>.M e #.,.Q V ` / / &.N.;.&.&.&.,.,.,.=.&.&.,.,.S.'.'.'.4.4.$.&.,.'.'.'.4.4.,.,.4.4.4.4.0.0.0.q.0.3.3.3.3.3.E 4.gXaXc -.S.B.B.A.A.A.A.A.F.A.A.B./ B B -.>.>.A.A.A.A.A.>.B z C C B V V V C c p p 5 5 5 5 f g g g g f f m m f g N m m m m m Z fXIXF.:.xXUXLXLXLXfXl l L LXLXLXxX:.:.2XUXIXLXLXLXD.B.A.sXkX8XKXPX1Xm.PXIXIXPXIXIXPXPXxXZ f b m n g g f f g g g T v.~.~.8XT.Y.L.~.~.Y.L.b.c.c.c.HXxXK.T.MXJXFXFXUXxXT.zXLXLXIXIXUXUXIXIXIXIXIXIXLXIXIXIXIXKXLXUXZX9XbXUXIXIXIXIX8X8XzXkXkXkXPXsX-.V m m m m m m n n m m m m m n n m m m m N m m b b T.zXCXCXbXT.m m b m 2XAXAXUXPXcXnXUXIXIXIXUXcX/.nXUXIXIXIXPX7X7XKXHX7X7X7X7X7X8XUXIXIXIXnX7X7XnXPXIXPXIXKX8X8X8X8X8X8XUXHX8X8XUXIXIXIXUXzX8XAXPXPXPXIXFXB b b b b b b n o.(.(.cXcXvXvXNXNXVXVXVXJXJXJXJX/ m m N m m ,.JXUXUXUXPXBXBXUXIXIXIXIXLXIXIXUXwX^.^.^./.(.HXUXPXIXUXKX/./.LXPXIXIXIXIXIXUXUX8XU.8XJXIXIXIXFX8X7XHXPXPXxXF.Z m m m b n b n g j.k.T.T.Y.T.K.c.G.k.y.y.J.Y.Y.kXUXY.u.8XUX8XwXnXUXAXAXkXj.Y j.PXnXv.7X7XzXzXkX1Xg.v.J.sXxX8X8X8Xx.U.FXLXA x D.D.F.F.F.F.F.2XUXF.v B.:.B.B.fXUX2X2XHXLX:.:.FXFXc B 1.m b b b n f f f f f B J D D D D D M.Z.Z.D.Z.Z.K.F.F.T.2X2X2XE.E.E.W.7X7X7X7X7X7XwXwX4X4X7X7X4X7X4X4X4X4X4X4X5X4X9X5X0X0X0X0XrXrXiXiXiXiXiXZXZXZXZXZXiXiX0X0X0X9X7X7X4Xn.4X4XE.E.x.g.x x L Z.D.D.D.D.:.:.:.:.:.:.:.:.:.:.:.X.l z *.*.*.*.*.z 1 1 1 1 1 i i x H U.h.a 7 l l 9 9 9 9 - l v v 9 9 9 l q v [ <.0.w.0. . .+.9.0.q.jX<X<XaX0.0.hXhX0.0.hXhX<XhXhXhXjXjXhX<X<X0X3X9X9X0XyX0X9X5X5X3XCXhXCXCXCX3X3X3X1XO.l.>X",
"< 9 9 z < 9 0 z 9 < 9 9 9 9 9 0 z z C X.X.L L L L C v C C z z z z M C c v l v +.9.8. ...z 3 > 1 p B U l 1 1 < - - - - - - 1 1 < - , , , , , , , , , < < ; < p 2 $.0.w.Q b e #.@.W ) / / / N.&.%.&./ / ( &.&.=.,.&.&.&.=.=.$.$.$.$.$.1.1.,.,.,.,.,.,.,.&.=.&.&.&.&.Q Q Q &.&.4.3.4.3.3.gXX.L I J J J K K J B P K B B V V V B b n V / V V ^ V B z c z z B B B J B C C b 5 5 5 5 3 3 5 5 5 5 m n 3 5 m m m n n n n n Z p p F.fXfXfXIXFXl l c fXfXfXsXl l L fXfXfXFXUXX.p L F.7XW.AXPX4X4XCXAXAXAXAXCXCXaXm n g f f f f f f f g f J L.L.Y./.8X(.^.~.~.~.L.b.b.b.c.J.K.K.F.lXUXJXlXMXUXzX^.zXUXKXLXIXIXIXLXHXHXHXHXAXAXHXHXUXPXKXLXUXbXqXCXIXLXPXPXUXkX+X+X(.(./.(.(.(.(.IXxXF.-./ m h n m m m m m n n m m m m m m b b 2XAXnXAXKXHXCXZ m m m %.AXAXUXHXcXcXHXHXHXHXHXcX8XzXHXHXHXAXAX7X^.qX^.^.7XqX7X7XwXHXHXHXHXbX7X7XAXUXHXHXIXPXqXwXKXKXqXwXUXHX7XwXHXHXHXHXHXwXqXAXUXHXAXsXm b n b b b b n n kXcXcXcX0X0X8X0XbXbXnXnXHXHXHXHXMX&.m m m m m m sXHXJXHXvXvXHXHXHXJXPXHXHXHXHX8X^.^.^.^.U.xXHXAXAXHXnX^.Y.UXPXHXPXIXIXLXHXAX2Xm.Y.nXLXLXLXMXsXU.zXdX%.m m n b b b f b b b M.2XY.Y.J.k.u.k.c.c.k.y.r.j.k.j.Y.UXY.v.8XUXwXqXzXUX^.8Xb.j.e.v.PXnXv.U.b.v.v.j.j.v.x.v.U.^.x.v.K.kXlXJXLXs a x D D x x x x X.UXF.x x x x x sXUXL x fXHXz p %.Z 3 5 m n 3 5 3 5 3 5 f p x D D D D D D D F H H D D D G Y Y H Z.b.n.E.E.E.E.Q.E.n.E.W.W.1Xm.m.m.z.m.m.m.7X1X1X9X9X9X9X9X9X9X9X9X9X9X4X4X5X9XiXuXeXyXyXyXyXiXZXZXZX9X4Xn.E.x.n.4X>X6X6XE.g.H x x x x x x x x x x x x l l l l l l l l l l 9 9 9 9 l 9 9 9 l 1 1 z i x ..U.o.i 9 l l 9 9 9 9 < l v v 9 9 9 l 7 v O.0.w.w.0.0.w.w.w.0.9.8.5.6.8.0.w.0.8.8.8.8.8.9.0.0.jXhXw.w.hX<X1X>X>X:X>X>X>X>X:X5X5X:X3X3XhX;X:X:X;Xn.5X5XtX",
"9 0 9 9 9 9 9 9 0 9 9 9 9 9 0 0 0 z M C X.o.o.o.L C C C C M z z z z v c z x x v 9.9.8.[ v v > - 1 p K c l , , , - ; ; - - 1 1 1 - - , , , , < < , , < < < , 2 2 #.1.w.$.N 0 #.#.#.W / ( ' ;.&.%.&.( ( ( W / / / / / &.&.@.Q Q @.@.#.#.#.#.#.&.&.&.#.#.#.&.@.&.=.=.;.=.;.%.&.( Q &.! 4.gXF.-.a L J J J J J B K V B B V V V B b n V / V V W B B c z z z j B B B B B c c 3 3 5 3 3 3 3 5 5 5 m n 3 3 3 5 5 3 3 3 5 3 5 5 3 3 p l l FXFXl l l i l l l l l l l c x F.UXo.s J F.8X4XHXPX>X>Xl.>X>X4X4Xj.b b m n n f f f f f f f f B L./.2X2X2X/.~.^.Y.~.L.b.b.b.b.c.J.K.K.T.xXUXHXlXMXUXkX^.zXUXxXGXGXLXGXzXkX8XsX8X^.^.zXxXUXPXKXKXUXbX0XAXLXFXxXFXUXkXkX+X(.(.(.(.(.(.(.UXnX(./.+X@XT.T.aX-.B m N n n m m b m m m P kXAXAXAXAXAXAXCX>.m b m m kXnXUXHXbXcXcXkXkXkXkXcXcXkX+XcXkX^.^.^.7X7X7X7X7X7X7X7X7X7X7X7X7XqXqX7XAXUXqX7XHXPXwX7XKXKX7XqXUXHXqX7X7X7XqXqX7X7X7XAXUX2XC b b b n b b b b n F.nXnXxXxXxXxXzXnXnXbXbXbXbXZXZXZXZXZX:.M b b m m m / {.nXnXvXvXvXxXxXxXnXvXvXkX(.^.^.^./.T.kX^.^.^.L.L.^.L.UXAX2XHXKXKXFXxX0Xm.m.U./.lXMXMXsX;.n m m f b n f f f f f f b o.7X0XkX(.T.Y.c.k.k.c.u.u.u.c.c.j.Y.UXzX8XAXUX7X^.bXUXcXbXkXT.e.v.PXHX8XkXkXkXkX2X8X8X8XkXzX(.c.I.{.mXmXJXLXa x x F.T.F.:.x x X.UXfXF.F.F.F.D.sXfXM p Z m 3 3 m m n n m m 5 3 3 3 3 3 p x D D D D D D D D D D D D D D G Y Y L M.m.E.Q.E.E.E.Q.E.n.E.n.m.U.;Xz.m.1Xm.z.z.9X1X1X9X4X>X>X4X>X4X9X0X9X9X4X4X4X5XiXiXiXiXiXiXiXZXZXZXiX5X4Xn.E.n.n.4X>X6X6XE.g.H D D x x x x x x x x x x x x l l l l l l l l l l l l l l 9 l 9 9 l l a x o.D.o.i 9 l l 9 9 9 9 9 v v l l 9 9 l q [ 8.w.w.w.hX0.0.0.9.8.8.6.6.6.8.hXhX9.8.6.6.6.9.hXw.w.hXhXhXw.hXdXdX<X,X1X>X>X>X>X>X9XyX0X3X3X3X:X:X:X;X9X5X5X5X",
"M 0 0 9 9 9 9 < 0 9 9 9 9 0 0 9 0 0 z C C L o.o.o.L C C C C M z z z z C z c c i <.8.9.| ..v - - > p B H F , , - ; ; ; , - > 1 1 - , , , , , , < , , < < 1 , 2 0 C #.w.0.#.i N #.$.Q ( ( ( -.&.&./ ' ' ' ( ( &.&.&.&.&.&.#.@.#.Q Q Q @.@.Q Q @.@.@.@.Q Q @.@.%.*.=.>.>.>.*.-./ P P Q ! 4.aX1.a L J J J J J J K V B B W ^ P B B B V / ^ W ^ B B c c c z p B B B c c z z p 3 3 3 3 3 3 3 3 5 m m 5 5 5 3 5 5 5 5 5 5 5 5 5 5 5 3 p fXFXL L L c l l c L L L L C l F.UXB.P -.T.0X9XKXPX9X1X;X>X>Xm.o.b b b N m n g f f f f f g B b.^.8XxXzXsX(.~.Y.U.L.b.b.c.b.b.b.J.K.K.T.xXUXHXlXxXUX8X^.zXUXFXGXGXJXFXkXkXkXsX8X7X7XCXFXUXLXKXKXUXAXZXHXLXFXxXHXUXkXkXkX+XkXkXkX+X+X+XUXnX(.(.lXlXkXnXUXcX(.nXFXT.F.>.%.Z P B.sXAXAXAXHXAXAXAXAXCXsXm b m m Z kXUXHXnXcXcXcXzXzXzXnXbXzXvXvXcXwX8X7X7XwXwXwXwXwX8XZ.T B P h.U.wXqXqXAXUXwXqXHXPXwXwXKXKX8XqXUXHXqX7X7X7XqXwXwXwX7XF./ n n b b b b b b b b Z zXnXVXMXMXMXMXMXnXAXnXbXbXbXiXZXZXiXZXiXD.b b m m m m m / xXVXVXVXMXFXFXVXVXVXlXkX8X8X8XkXkXzX8X^.^.^.m.W.^.UXAX2XAXHXPXHXFXxXU.b.U.U.F.&.Z m m n m m f b n b g f f f f B b.7X0XbXkX8X(.J.c.c.k.u.u.k.c.c.k.Y.UXUXUXUXUX7X^.bXUXUXUXUXPXe.u.PXUXUXUXUXUXUXUXUXUXUXUXUX+XI.lXJXBX*XJXPXx x c UXUXUXFXx x X.LXxXfX'.>./ m m m f 3 n m 3 3 m N N m Z n 5 3 3 3 3 p x D D D D D D D D D D D D D H F G Y H ..Z.n.E.Q.E.E.E.Q.E.E.n.x.z.z.,X1X1X<X>Xz.;X9X1X9X9X>Xn.n.n.n.>X9XiX9X9X4X4X4X4XiXiXiXiXZXZXZXZXZXiXiX5X6Xn.E.n.n.4X>X6X6XW.e.H D D D x x x x x x x x x x x x l l l l l l l l l l l l l 9 9 9 9 9 l a D z.D.Y i 9 v v 9 9 9 9 9 v v v l 9 9 9 v { 9.w.w.hXhX0.0.9.;X5.5.5.6.8.9.hX9.8.6.5.5.6.<XhXjXw.dXhXhX0.w.hXhX0.<X<X1X1X1X9X9X0XCXCXhX3X:X:X:X:X:X3X:X:X:X",
"=.w 7 < v v z 9 9 9 9 9 9 9 9 9 0 z z 0 z C L X.o.o.L L L C C M 0 z z C c v C z c :.,X<.O...9 > , 2 z Y I p - - - ; < , - , 1 1 , < , , , , < < , , < < 1 , : 1 i C 0.w.0.c e #.$.$.( / / %.&.&.&.,.A.F.'.'.aXaX0.0.0.4.4.4.1.$.&.&./ Q &.&.Q Q N Z N Q Q Q Q Q Q Q &.,.,.,.A.B.i.i.( y gXaXr.j J J J J J K B B B B W ^ P B B B V ^ ^ ^ / B c c c c B c c c z p i i 1 1 2 3 3 3 3 3 5 5 5 m m m m n 3 3 f m N N m m m m N m 3 3 m =.fXLXUXfXl l :.UXUXUXUXF.l F.UXUXUXUXUXnXAXPXUXUXUXFXdX%.N N N N N N m m b f f f f f B c.Y.8XzXCXCXnXxX(.Y.b.v.v.v.b.c.b.J.J.K.K.P.kXHXMXmXxXUX8X^.zXUXJXGXLXLXkX(.HXUXUXUXUXHXHXKXUXIXAXZXUXUXUXUXUXUXUXUXUXkX+XJXUXUXUXUXUXUXUXUXnX(.+XUXUXUXUXUXvX(.AXUXUXUXUXIXAXnXHXHXxXHXKXAXAXCXCXAXbXbXF.M m m m V fXUXUXUXUXUXUXUXUXUXUXUXUXUXUXUXPX7X7XIXUXIXfX1.N N N N m m m &.D.7XbXHXqX7XHXUXUXUXUXKX8XwXUXHXwXwXbXwXwX0XMX1.m m m n n b b b b b g b n 8XnXMXmXxXxXMXMXHXHXHXHXVXnXnXnXnXAXbXbXZXiXU.b m m m N V m m F.xXUXUXUXUXUXUXUXUXUXUXUXUXNXmXHXUXUXUXPXW.W.W.UXUXUXUXUXLXKXLXxXD.P C N m m N m N N m m f g n m n f f f B j.g.m.Y.zXkXzXkX~.b.c.k.k.k.c.c.c.j.j.D.T.8XkX8X(.(.8X8X8X^.KXLXe.u.K.T.kXsXzXnXlX/.~.Y.{.MXUXmX|.MXUX*X*XJXLXD x c L P P Z p 3 3 f f 5 3 5 5 f 5 f 5 5 m m 3 3 5 f f f f 5 5 3 3 3 p x D D D F F D D D D D D D D H F H G Y Y z.z.n.Q.Q.E.E.E.E.E.E.n.j.o.z.<X<XzX0Xz.m.1X1X9X9X>Xn.n.n.n.>X9XrXZX0X9X4X4X4X5XZXZXZXZXiXiXiXiXiXyXuX4X>XE.E.E.E.4X6X6X6Xm.e.D D D D D D x x x x x x x x x x x l l l l l l l l l l l l l 9 9 9 l z a F z.z.L i l v v 9 9 9 9 q v v v l 9 9 9 [  .0.jX0.0.0.<X9.6.:X5.5.5.8.9.0.hX6.5.6.6.6.6.9.0.0.0.0.hXhX0.0.0.dXhXFXFXxXCXCXCXzXCXCXCXhX<X:X:X5X5X5X:X:X:XO.",
"fXaX<.w 7 9 0 9 z z 0 0 9 9 9 0 0 0 0 9 0 z C L o.o.o.o.L L C C c c z q L z z Z a P 1.aX+.O...i , 3 - F I B 1 > - - - - - > 1 1 , < , , , , < < , , , , < 1 2 , 2 z &.w.w.$.7 M @.1.' / V / %.%.=.'.aXdXgXgXgXq.jXjXw.q.jXjXq.q.q.q.4.$.y y #.&.&.&.Q Q Q Q Q Q W W W ( ;.] ] N.S.` P m 0.0.F.i c J J J J K J J J B W W V n V V W W / / / C c c c c c p p p p 2 i i i 1 1 1 3 3 3 3 5 5 5 n b b b b 5 5 f m n b n n n n m m 3 3 b b n n F.F.l l L sXsXfXUXF.i o.aXsXsXFXUXVXGXFXdXF.Q m m m m m m M b m m m n f f f f J c.c.U.1X8X8X0XzXnX8X^.b.v.b.b.b.c.b.L.L.G.G.H.P.K.T.{.kXUX8X^.nXUXMXxXLXUX8X8XPXIXnXnXIXLXHXKXUXPXbXwXZXHXLXLXHXFXFXFXFXkX+XJXIXnXnXnXVXnXnXnXlX+X+XUXJXVXVXVXcXzXHXPXKXKXIXIXAXAXUXPXCXnXnXAXAXAXAXAXAXAXAX%.m m n n m %.aXxXxXxXFXHXHXHXHXHXHXHXAXKXHX^.J.aX1.m m m m m m m m m m m n n o.J.^.7XbXAXAXAXAXnX8X7XUXAXqXwXLXT.T C m m m m m n n b b n b b b b Z.8XnXVXMXVXHXHXFXFXFXFXFXFXFXFXHXHXFXAXAXAXCXZXzXX.m m m V m m m Z m 1.aXxXMXJXJXHXHXnXPXUXmXVXJXIXHXxXzX^.W.W.zXnXAXxXfX'.>.Z m m b b N n m m m m m m n g g g m n n f L j.m.v.v.v.m.8X0XzX/.L.c.c.c.c.c.c.j.j.j.b.^.(.8X(.^.^.^.Y.Y.U.HXLXY r.F.sXMXFXHXHXlX].I.T.mXFXLX&X}.dXfXd.,.&.%.3 3 3 3 f 5 5 5 3 5 5 3 3 3 3 3 3 3 3 5 f n m 3 3 3 f f 5 p 3 3 3 3 c D D D D D D D D D D D D D D D H Y Y G Y o.D.m.E.Q.Q.E.E.E.E.E.E.j.o.+.1XzXzX<X1X;X;X>X:X>X>Xn.n.E.4X4X9X0XZXZX0X0XeX9X9X9XZXZXiXyXyXyXyXiXZXZXiX4X6XE.E.E.4X6X6X6X4Xv.G D H D D D D D x x x x x x x x x x x x l l l l l l l l l l l l 9 9 l c x H D.j.F 2 v [ v 9 9 9 9 l [ [ v v 9 9 9 O.8.w.hXhXhXhX<X,X8.6.6.6.,X9.0.hXhX9.8.6.6.5.5.8.9.9.hXjXjXw.w.9.9.8.<XaXaX9.<X<X3X:X:X:X;X3X3X<X:X5XtX5X:X:X:X:X",
"dXdXaX1.M 0 9 0 0 0 0 0 0 0 0 0 0 0 0 0 0 0 z C L o.o.o.Y L L L L c z q C C B B s L =.0.<.+.O.c p 2 - c J P p 1 , - - - - , 1 1 , < , , , , < < , , < < - 1 p : < 2 B 0.0.0.0 w Z 1.&./ V Z P %.=.aXdXgXgXgXq.q.jXjXjXq.gXq.q.q.gXgXq.0.0.4.$.$.&.,.Q Q Q Q Q Q Q Q Q Q ( ' ] N.;.-.T V 4.4.dXB B B J J J J J J J B ^ V m n V W / W / / V B c z p c c i i i 2 2 i i 2 2 1 1 2 3 3 3 5 5 3 3 3 3 3 5 5 5 f m f 3 3 3 5 5 n m 3 3 3 3 5 3 m n 3 p p p z :.UXF.a l l l p %.F./ m m m M m m m m M b M b b m m m b b f g T c.c.G.m.U.Y.Y.Y.8X8X^.U.b.v.b.b.b.c.b.L.L.J.J.J.J.K.K.T.kXUX8XY.zXUXkXkXHXUX(.8XPXPX~.(.IXLXKXKXUXHXwX7X7XFXHXHXkXkXkXkXkX+X+XJXLX(.(.(.+X(.(.(.(.+X+XUXMX+X+XkXkXxXxXxXnXxXPXIXnXAXIXPXnXnXAXbXAXZXnXnXnXAXnXzX%.m n n n n n n n n n n n n n n n n n m m n n m m n n n n n n n n n m m m n n n n C h.U.U.wXbXbX8X8XfXF.o.C N m n n m m n n n n n n n b b b b Z.wXwXnXnXnXnXVXVXFXFXMXMXMXFXFXFXHXFXFXHXHXFXxXAXAXAXF.b m m m m m m m m m m n n / >.B.Z.lXFXmXVXJXIXkXY.Y.L.k.j.Y B n n m m m m m m n b N g n n m n m m n g f f n n / h.g.x.v.v.v.v.v.7X8X8X^.L.b.c.c.c.c.c.j.j.j.(.nXnXsXZ m b m b g b m m p f n m m m m m m m n n m m m m m m m h m m m b b b n n n b b n n n n b b b b b b n n n m m 3 3 f p f 3 3 3 3 p x x x D D D D D D D D D D D D H F G Y Y H Y o.D.n.E.E.E.E.E.E.E.E.n.g.o.D.<XCXzX<X>X>X>X>X5X5X>Xn.>X4X4X9X0X0X0X0X9X9X9X9X9X9XZXyXyXyXiXZXZXCXCXCXiX4XE.n.n.6X6X6X6X6X4Xg.G D H D D D D D D D x x x x x x x x x x l l l l l l l l l l l l l l l x x H ,Xj.c 1 v [ v l 9 9 9 v [ v q v 9 9 9 O.8.w.jXhXhX<X3X<X8.;X8.8.<XhXjXjX0.0.9.9.6.5.6.8.9.0.hXjXw.w.w.aX9.8.9.,X,X,X,X<X<X<X,X,X,X3X3X3X:XtXtX:X:X;Xl.l.",
"4.dXfXfX#.w 8 w 0 0 b 0 0 0 b b 0 0 0 w w 0 z z C o.o.o.Y L L L Y c z q 0 C L i c C } 4.1.D.z.v z 2 > i c T c i 1 - - - , 1 1 , , < , , , , < < , , , , - 1 i : ; , a 1.0.w.e 0 M $.,.&./ P P %.,.dXq.q.gXq.q.q.gXgXgXq.gXq.q.gXgXgXjXjXgXq.4.$.#.,.! ! ! Q Q Q @.N e e Q ( ;.C.-.M.M.U Q 4.q.P B s J J J J J J J J / V m n V / / W / / V B c z p z p i i 1 1 2 2 2 2 1 1 1 1 i p 3 5 5 3 3 3 3 3 5 5 f f m n f f f 5 5 n N f f f f f f m n 5 5 5 f f b %.b 3 3 3 3 3 n m m m m m M m m m m b m m m m m m m m b b h.V.c.c.L.v.b.^.Y.U.U.W.m.m.b.b.b.v.v.c.b.J.L.L.L.P.L.H.P.P.8XUXzXsXxXUX(./.HXUXkXzXLXKX~.8XIXIXKXKXUXHXbXbX0XHXHXnX8XkXkXkX+X+X+XJXIXlXkXkXlXlXcXkXlXlXvXUXVX+XkXvXnXHXFXFXHXAXPXIXnXxXIXPXbXAXAXbXbXbXbXcXxXxXbXcXHX%.n n n m n n n n n n m n n n n n n m m n m Z m m m b b b m b b b m Z m m m m m m m m b m m m m m m m b b N m m m m m b b b m m m m n b b P qXwXwXbXbXnXnXnXnXHXHXVXVXVXHXHXAXFXFXFXFXHXHXFXHXJXJXHXzXD.m m m n m m b m m m m m m n n m N m m %.%.Z n g n n n b g g n m m m m m m m m N g n n m n n m n b f f P F.lXJ.g.g.v.m.v.v.v.^.8X8X^.L.b.b.c.c.c.c.u.j.j.zXUXfXm m m m m n f f g f p f n N m m m m m m m m m m m m m m m m m m N m m m m m m m m m m m N m N N N N N m N N m m 3 5 f p p 3 3 p x D D x x x D D D D D D D D D H H H G Y Y Y H Y o.Z.n.E.E.E.E.E.E.6XE.v...o.,X0XCX0X1X;X1X>X>X9X5X>X>X4X5X9XyX0X0X0X9X9X9X9X9X9X9XiX9X9XyXZXAXAXCXCXCXrX6XE.E.n.6X6X6X6X4XW.g.G H H H H D D D D D D D x x x x x x x x x l l l l l l l l l l l l l l x D H 1X..x 9 v [ [ v l 9 9 v [ v q v q 9 9 O.8.hXjXhX<X<X3X<X;X:X<X<XhXjXjXjX9.dXhXhX8.6.6.8.9.0.jX0.0.0.w.hX<X8.8.,X,X,X<X<X<X9.9.0.aX3X3X3X3XtXtX;X;XO.O.O.",
"jXjXFXFXfX2X*.9 w M b b b w w w b M b 0 0 8 3 0 z L o.h.o.o.L L L C c c l C } { q 0 B 4.4.'.l.o.C 3 s < i F L c i - - , 1 1 1 , - , , , , , , < , , , , < , - 3 : ; l B 1.w.1.{ 0 e 1.,.` J T T _ 4.gXgXgXgX|.|.3.q.q.q.q.q.q.gXgXgXgXgXgXgXq.q.4.Q #.$.=.&.Q Q Q / / / e Q &.S.C.A.,.] S ' 4.sXX.s J J J J J s B J / Z m V / ( ( ^ / / V z i p p c c i i i 2 2 1 1 1 1 1 i i p p p f 5 3 3 3 3 3 5 5 f b N m m m n 3 3 n m m m m m m Z Z n 5 5 f m m m m b 5 5 3 3 3 b m m m m m m m M b b m m m m m m m m &.o.k.k.K.G.c.J.^.^.m.W.W.m.b.U.L.b.b.b.b.b.b.J.J.b.J.J.J.J.J.L.W.8XUXUXUXUXUXwX/.HXUXUXUXUXKX~.kXHXFXFXFXUXUXUXUXLXLXnXkX(.kXkXkX+X+X+XJXUXUXUXUXUXUXUXUXUXUXUXUXMX+XkXHXUXUXUXUXUXUXUXIXcXbXHXAXcXcXcXcXcXzXzXcXbXrXwXwXIXLX&.m m Z Z Z m m m N N m m N m n n m m m m N m m m m m b m m m m m N N N Z N N N N N N m N N N N m m m M N m m m m m m m m m m m m n b L 7XqXqXqXqXqX7XwXwXwXbXrXrXrXbXbXbXbXbXbXnXbXbXbXbXbXbXbXcXcXcX8XB.n n m b n n m N m m m N N N m n m m m m n n m m m m f f b N N N N m m m m m g b n m h h n n n L x.x.{.lXkXc.v.v.v.v.v.v.x.m.T.^.U.Y.U.b.c.c.c.u.u.u.v.m.T g g g g f f f f f p f f n m m m n n g g g m m m m m m m h m m n f 3 3 5 f 5 5 3 3 3 5 5 3 5 5 5 f f f f p 3 3 3 3 3 p p p p c H G G G D D F F F D D D H D D D H H G H G G H D o.h.Z.E.E.E.6XQ.Q.E.6Xn.j.H z.,XdX2X1X1X>X5X5X5X5X5X5X>X5X5X9X3X0X9X9X5X5X5X5X>X>X>X5XiXZXZXiXiXiX0XZXZXuX6XE.E.6X6X6X6X6X4XW.G G H H H H D D D D D D D x x x x x x x x x x l l l l l l l l l l l l l x D H 1X..x 0 [ [ [ v v l 9 v [ v 9 v l q l O.:XtX:X:X:X:X5.5.5.3XhXjXjXjXjXhXO. .8.0.jXjX0.0.9.0.0.hXw.w.jXhX9.8.8.0.w.w.w.w.w.w.w.w.jX<X3XyXyXtXtX9X;Xl.l...",
"jXjXGXFXFXfXaX=.q 0 b M w w w b b 0 w e w 8 0 0 0 z L o.h.o.Y Y o.C c c z v C L v z z $.4.4.A.:.X.B p , 1 l Y L c # - , 1 - - - 1 , - - , , , < < < < < < < , 3 ; + < B =.0.w.$.q 8 >.,.,.T T / ) ,.4.q.gXgXq.|.3.3.q.gXgXgXq.gXq.q.q.gXgXgXq.q.gX0.$.&.&.&.,.! Q Q Q / Q Q ( ,.N.A.S.N.K K &.gX>.B J I J J I s B I ( ^ V V ( ( ( ^ / P C l i i z c c p i i 2 2 2 2 2 p i i z z l i z p 3 3 3 5 5 5 5 5 f f f g g f 5 f f f f f f f g f f f 5 5 3 f f f f 5 5 5 3 3 3 f g n m m m m m m b b b m m m m Q '.fXFXD.c.v.K.V.c.b.J.J.m.L.L.L.J.L.L.m.J.b.J.J.b.J.J.J.J.J.J.J.U.U.L.~.8X8XkXkXkX/./.kXkXkXkXkXkX/.+XkXkXlXlXxXzXzXxXHXHXxX+XkXkXkXkX+X+X(.kXlXlXlXlXlXlXcXcXcXkXkXlXlXlXlXxXnXnXnXnXnXnXnXnXbXbXbXbXbXbXbXcXcXbXbXcXcXcXwXcXnXnXzX/ n m m m m m n n n n n m n n n n n b b m m m m M m m m m m b m m m m M m m m m m m m M m m m m m m M m m m m m m m m m m m m m b M.7X7XwXwXwXwXwX8XcXcXcXzXbXbXzXcXbXbXbXcXbXbXbXbXbXbXbXbXzXzXbXcXkXzX8X:.V n n n n b n n n b b n n n m m m m n n n n n g f g b n n b m m m m m n b g b n m m Z S.{./.v.v.U.{.mXK.v.x.v.v.b.v.b.L.U.Y.L.m.m.v.c.k.u.u.v.v.L.v.Y f g f f f f f g f f f g n m m m n g g g g n m m m m m m m m m n 3 3 3 f 3 f 5 3 3 3 3 3 3 3 3 5 f f f p f p f 3 5 p p p c F G G G G H H H D D H D D D D H H F H H H H H H H D r.h.j.E.E.Q.6XQ.E.E.6Xn.j...D.<X0X1X>X>X9X9X9XyXtX:X>X>X4X5X9XyXCXzX0X9X9X9X9X4X>X>X5X0XZXZXyXyX9XuXiXZX0X6X6X6X6X6X6X6X6X>Xm.G H H H H H H H H H D D D D D D x x x x x x x x x l l l l l l l l l l z x F o.1XH x z [ [ [ [ l l 9 [ [ v l v v v v 5.:XtX3XtX:X:X:X5.5.3XhXjXjXjXdX8.+.O.6.,X0.0.w.w.0.0.w.hXhXw.0.0.0.0.dXw.w.w.w.w.w.w.w.w.w.<X3XyXyXtX:X:X;Xl.l...",
"jXjXjXFXFXFXFXaX} M z M e w w b w w w e e w w 0 0 3 B P o.o.o.o.o.L C c z z c L C v z @.,.4.`.1.:.o.p 3 < 1 Y Y L ; - - i - ; < 1 - - - , , < < < < < < ; < 1 2 ; + ; p / 1.w.1.N 8 o.=.1.t./ / ` ;.4.q.gXq.q.q.3.3.q.gXgXjXjXgXq.q.q.gXgXgXq.gXjXw.4.,.&.&.4.! ! Q Q Q Q Q Q &.,.N.S.S.` P B q.1.X.s I I J I c B J ( ^ V / ( ( ( ( / P x l i i z z z p i 2 1 1 3 2 , p i i c c l i c s p f 5 5 5 5 5 f 5 5 5 f 5 5 f f 5 5 5 3 3 5 3 3 5 3 3 5 3 3 3 3 5 5 3 3 3 5 3 5 5 n m m m m m m b b b m =.F.'.GXGXGXjXU.b.x.K.V.k.c.c.b.b.v.L.J.K.b.b.b.J.J.J.J.J.U.U.J.J.J.J.J.L.U.K.L.L.U.U././.T./.T.T./.T.T.T./.+X+X{.+X+X+XkX8XkXAXxXzX{.kXkXkX+X+X(.(.+X(.(.(.+X+X+X+X+X+X(.(.+X+XkXlXlXkXkXcXzXcXcXcXcXcXvXvXvXvXcXcXcXcXcXcXcXcXcXcXcXcXcXcXcXN.n n n n n n n n n n n n n n n b n n b b m m m m m m m m b Z P b b b m m m M b n b m b b m m m m b m m m m m m m b b b b m m D.wXwX7XwXbXcXzXcXkXcXkXkXkXkXcXkXcXcXcXcXkX8X8XwXwX0X0X8X8X8X0X8X8X8X8XkXkXkXT.-.Z n n n n n n n b g n n m m m n n n n f f f g g b n n b m m m m m b b g n ( }.MXmXlX+Xb.v.b.Y.mXU.b.x.v.m.b.b.L.b.b.J.v.v.v.v.k.u.c.c.v.v.v.v.c.c f f f f f f g f f f n m m m m n g g g g g n m m m m m m m m g 3 3 3 p 3 5 p p 3 p 3 3 5 3 3 3 3 3 3 p p f f f p p c G H G G G H H H H H H G H D D D D D H G H H H H H H H D t.k.z.E.E.Q.6XE.E.E.n.l.g.g.D.2XrX>X>X>X9X9X9X9XtX:X:X>X4X5X9XCXCXCXzX0X0X0X0X9X1X>X4X9X0XbX9X9X9XeXrXrX9X6X6X6X6X6X6X6X6X>Xm.A H H H H H H H H H H D D D D D D D x x x x x x x l l x x l l l l x x c D L o.1XH x z [ [ [ [ l l 9 [ [ [ v v v v [ 5.:XtX3X9X:X:X:X:X:X3XjXjXw.hX8.O.+.O.+.;X9.0.w.w.0.0.0.fXw.0.0.0.0.w.jXjXw.w.w.w.0.0.w.w.w.<X3XCX3XtX:X:Xl.l.l.O.",
"jXjXjXMXFXGXGXFXaX=.9 M N e w 4 e N 0 0 0 w w w b 3 z B L o.h.h.L o.L z c z z C L v z w &.1.4.1.F.U.D 0 3 i F I Y z - - 1 , , - - , - - , , < < < < < < < , > p : ; 3 p b N jX0.$.q z @.1.a./ P / / '.gXgXq.q.|.3.3.3.3.gXjXjXgXq.q.q.q.q.q.q.q.gXq.jX0.$.Q ,.4.,.! Q Q Q Q Q Q A.N.S.N.N.` B 4.0.4.a J I I J J J B / K B Z ( ' ] ( ( P l l i p z z z p i 2 1 1 1 2 1 i i i c a a s A j J J J B p 3 5 f f 5 5 5 f 5 f f 5 5 5 5 5 3 3 3 3 3 3 5 3 3 5 5 5 5 3 3 3 5 3 3 5 n m m m m m N =.<.<.dXFXFXdXjXGXGXGXT.b.u.K.C.V.c.J.c.c.c.c.k.k.v.v.v.J.b.b.J.J.U.U.J.J.J.L.J.L.L.P.L.L.Y.Y.(.T.T.T.T.T.Y.T.T.T.(.+X+XkXlXkX+X(.T.2XsXkXkX+XkXkXkX+X(.(.(.+X(.(.(.+X+X(.(.+X+X+X+X+X+X+XkXcXcXlXlXlXlXlXlXlXlXlXlXlXlXlXlXlXlXlXlXlXlXlXlXlXvXlXlXlXlXS.n n n n n n n n n n n n n n b b b n n n n b n n n o.U.8XbXbX0XU.P n b b b n n b b n n n n n n n b b n b b b b n b b b P 7XwXqXqXqXwXwX8X8XwX8X8X8X8X8X8X8X8X8X8X8X8X8X8X8XwXwXwXwXwXwXwXwX8X8X8X8X8X8X8X8X(.(./.K.M.P n b b b n n n m m m m m n n f f g g g g b n n n m m m m b b L J.@X}.sXdXmX@XK.x.x.v.T.U.m.v.b.L.L.b.b.v.v.c.v.v.v.g.c.c./.U.b.v.x.x.x.g.p f f f f f g f f f n m m m m n n g g g n n m m m m m m m m g 3 3 p p 3 f p 3 3 p 3 3 3 3 3 3 3 3 3 p p c c D H D H H H G H H H H H H H H H H H H D D D H H Y G H H H H H x h.j.n.E.E.E.6XE.E.E.n.l.g.g.,X<X1X>X1X1X>Xm.n.:X>X>X>X>X4X9X0XzX0X0XzXzXCXCXCXCX0X0X0X9X9X0X9X9X9X9X9X9X7X6X6X6X6X6X6X6X6X>Xv.G H H H H H H H H H H H H D D D D D D x x x x x x x x x x l l l l x x x D o.D.1XD x v [ [ [ v v l l [ [ [ v [ v v [ :X:X9X1X>X:XtX:X:X:X:XhXjX9.6.O.O.O.z.z.l.O.9.0.w.0.9.9.0.0.0.0.0.hXjXjXjXw.0.w.0.0.jX0.9.<X1X9XyX9XtX:X;X+.z.6.9.",
"gXjXFXFXGXFXFXFXFXfXF.e N } N e w w b b z 0 0 w b 0 3 z B Y h.h.o.h.Y C c c z z X.L v l %.=.4.,.,.:.g.1 , * i L Y Y i - = 2 , > - - , , , < < < < < < < < , , p , - 2 i 3 w 0.w.0.q 0 { =.,.;.X.Z U ,.'.q.gXgX|.gX|.q.|.3.q.q.gXq.q.3.q.gXgXgXgXq.q.q.jXgX4.! ! ,.4.] Q Q Q Q W ,.S.S.N.S.N.P m 0.0.P J J J c G I B / V z B W ( ( ( ( ^ B p p p z z z p i 1 i i 1 1 1 i l l a s j U K U U S J F F L J B p 5 5 5 5 5 5 5 5 5 5 f 5 3 p 3 3 3 3 3 3 3 5 5 3 3 3 3 5 5 5 5 5 g m / &.'.fXjXfXdX<X<XfXfXgXjXGXGXGXsXJ.u.K.V.G.c.J.c.c.J.J.J.J.L.b.b.k.c.c.b.J.L.P.J.J.J.J.L.P.T./.I.P.J./.(.(.+X(.T.T.T.T.T.K.T.+X+X{.kXkX+X+X+X+X(.+X+X{.kXkX+X+X(.(.(.(.(.(.+X+X(.(.(.(.(.+X+X+X+X+X+X+X(.(.(.+X+X+X+X+X+X+X+X+X8X(.(.8X8X8X8X8X8X8X8X(.(.(.(.(.(.(.K.V n n n n n g g n g n n b b n b n n n n b b -.8XbXbXrXZX0XbXZXZX0X%.n n n b n n n n b b n b b b n n n n n n n n X.1XwXwXqXqXqXqXwX8X8XwXwXwX8X8X8X8X7X7X(.(.(.(.(.(.(.(.(.8X8X(.(.(.(.(.(.(.^.(.(.(.(.(.(.(.(.8X8X(.(.Y.J.M.T n n m m m m m m m g g g g f f f g n V / A.F.sXnX1XU.U.lXlXlXsXlXkXY.x.v.c.k.v.v.v.c.v.v.v.v.v.x.c.c.v.v.c.c.c.P.J.k.k.v.c.b.J.Y.M.V n n b g f 5 f n m m m m n g g g g h h m m m m m m m m g 3 f 5 5 3 3 3 3 p p p p p p c c x F F G F D H D D D D F F H D D H H G G H H H H H H H D D H H Y H H H H H H H j.m.E.4X6X6X6XE.E.6Xn.g...l.<X<X<X<X<X<X,X>X>X>Xn.>X>X>X>X9X0XzXzXzXCXxXCXCXCXCXzX0X0X0X0XrX5X9XuXeX9X4X4X6X6X6X6X6X6X6X6Xn.g.G H H H H H H H H H H H H H D D D D D D x v x x x x x x x x v x v x x x D o.D.1XD x v [ [ [ v v v v [ [ [ [ [ v [ | :XtXtXtX:X:XtXtXtX:X:X<X<XO.;XO.O.;X>X>X;X;X9.0.w.hXhXdX0.hXjXjXjXjXjXjXw.0.9.0.dXaX<XhX3X3X:X:X:X;X:X<X,X<XhXCXjX",
"gXjXjXfXjXjXjXFXFXMXfX#.} N { e e e b b B z 0 w w 0 0 0 z L o.h.h.h.Y o.c c z z C C C l { @.$.4.$.#.M.C z : i c L Y c 1 + , , > - - , , , , < < < < < < < , 1 2 1 1 1 2 3 0 #.0.w.y q C } ,.;.-.} P ;.A.q.gXgXq.gXgXgXgXq.q.q.q.q.q.3.q.gXgXjXgXq.q.q.q.q.q.,.,.,.4.,.( ( Q Q W ;.A.S.S.N.N.;.b 4.0.1.J A J F A I L / C z B W ^ ( ] ] ' K B p p z z z p i 1 i i i i 1 i l l i u j K K U U J J J I H F x a c p p 3 3 3 3 5 5 f f f f p 3 5 3 3 3 3 3 5 5 3 3 3 3 3 3 p p f C.kXMXfXfXMXFXfXdXdX2XdXfXjXjXjXGXGXsXU.j.C.V.G.c.G.c.b.Y.T.T.P.~.L.L.J.J.J.c.G.L.L.J.J.J.J.L.T.+X@X+XT.Y.^.(.(.(.(.T.T.(.T.T.T.T.+X+XT.+X+X+X+X+X+X+X+X+X{.kX+X+X+X(.(.(.(.(.(.(.+X(.(.+X+X+X+X+X+X+X+X+X+X+X(.+X(.(.(.(.(.+X(.(.(.(.(.(.(.(.(.(.(.(.(.(.(.(.(.(.(.(.(.(.(.Y.Z.-.P P T T T T P P P T T P C P o.Z.U.0XrXbXrXrXrXbXrXrXrXbXbXrX8XU.X.n n n n n b n n b b n n n n n C Z.U.wXwXwXwXwXqXqXqXqX7X8X8X8X8X8XkXkXwXwXwXqX(.(.(.(.8X8X8X8X(.(.(.(.(.(.(.(.8X(.^.(.(.8X(.(.(.(.wX8XkXkX(.(.^.(.(.(.T.sX{.{.F.S.F.F.M.h.h.h.k.k.c.I.+XkXmXmXxXxXnX2XU.m.kXlXlXsXlXkXU.x.v.v.c.g.v.b.L.v.v.m.v.v.v.k.J.b.j.c.c.c.J.G.b.c.G.J.P.!.lX+XT.+X{.F.T I J T '.sXsX'.S.N.N.S.S.S.,.'.aXdX}.}.}.}.dX`.` x c c c x x x D D D x x x x D D D D F G F D D F x x c c c x x D D D H H H H H H H H H H D H H H H H H H H H Y j.m.E.E.6X6X6XE.E.6Xm.g...+.<XdX2X2X<X<X2X>X>Xm.n.>X>X>X>X1X<XzX0X0X0X0X0X<X0X0XzX0X0X0X9X9X4X9XuX9X>X>X4X6X6X6X6X6X6X6X6Xn.g.G H H e.H H H H H H H H H H H H H H H D D x v x x x x v v x v v v v x v D j.D.z.x x [ [ [ [ v v v v [ [ [ [ [ v [ | :XtXyXtX:X:X:XyXyXyX3X;X;XO.;X;X5.:X>X:X;X:XhXhXhXjXhXhXw.jXjXjXjXjXjXjXw.w.<XaXdXdX8.3XyX1X;X;X;Xl.;X;X+.,X<XhXjX",
"fXFXgXgXjXjXjXjXMXMXjX1.#.M } N N N n b C b 0 0 w 0 0 0 z c L h.k.h.Y h.c C C c M C X.v z { <.4.$.! d.;.Z ; > p c Y F l ; - , 1 < , , , , , , , < , < < < < < 1 1 1 1 1 0 z b 0.w.0.M M { $.;.M.X.P X.>.q.gXq.q.q.gXgXjXgXq.3.3.3.q.q.q.q.gXjXgXq.3.q.q.q.gX4.4.! ,.,.,.( Q Q W ( ,.S.S.a.N.S.B $.4.gXI A F D A J L P Z B V W ^ ( ] ] d.' B s p c c z p 2 1 i i i i i l l l i i s K ^ K I J Y Y Y F x i i p i i i i i p p b g f f f f f f 5 3 3 3 3 5 f 3 p p p l x a a s H.kXMXMXsXsXxXfXfXfXfXaXdXjXjXjXjXGXfXF.h.J.C.J.c.G.G.L.T.sXkX(.~.Y.Y.K.P.L.J.G.J.L.L.J.J.J.L.+XlXmXmX+XT.^.Y././.Y.T.T.kX+XkXkXkXkXkXT.{.+X+X+X+X+X+X+X+X+XkX+X+X+X+X(.(.+X(.+X+X+X+X+XkX+X+X+X+X+X+X+X+X+X+X+X+X+X+X(.+X+X+X(.(.(.(.(.(.(.(.(.(.(.(.(.(.8X8X8X8X(.8X(.(.(.8X(.8X8X(.8X8X8X8X8X8X8X8XwXwXwX7X8X8X8X0XwXwXwXwXrXrXrXwXwXwXwXrXwXwXwX8XU.D.o.o.Z Z Z Z X.:.M.U.U.8XrXrXrXrXwXwXwXrXqXqXqXwX8X8X8X8X8X8XzXzXcXwXwX(.(.(.8X8XkX8X8X8X8X(.(.(.(.8X8X8X8X8X^.8X8X8X(.(.(.(.8XkXkXlXkX(.(.(.(.(./.lXlXlXlXlXlXlX/.L.b.L.m.b.L.T.+XlXlXlXlXlXkXT.L.v./.kXlXsXkXkXY.x.v.v.v.v.b.Y.^.L.v.W.b.b.b.Z.Y.U.c.c.c.c.G.G.L.L.P.I.{.@XNXlX!.NXmX{.y.r.t.B.MXJXFXmX}.{.I.].@X[.}.MXGXGX*XJXBXmXBX@XK.D D F D D D D D D D D D D D D D D D F F D x x x x x x x x x x x D D D H H H H H H H H H H H H H H H D H H H o.z.m.E.E.6X6X6XE.E.6Xz.g...+.<XdXdXdXdXaX2X;X;X>Xm.>X>X1X1X<X<XzX<X<X9X1X<X<X<X<X0X0X0X1X>X>X4X9X9X7X>Xn.4X6X6X6X6X6X6X6X4Xn.g.G e.g.e.e.e.e.H H H H H H H H H H H H H H D D x x x v v v v v v v v v D D z.D.z.x v [ [ [ [ v v v [ [ [ [ [ [ v [ O.:XtXyXtXtX:X:XyXDXKXCX;XO.;X;X;X;X:X;X;X;X<XhXjXjXjXjXjXw.jXjXjXw.hXhXjXw.w.aX<XhXhX8.3X9X>XO.l.l.l.O.O...O.;X,XhX",
"2XxXMXgXjXjXjXfXfXfXhXfX'.&.m Q Q &.1.w : M b b w 0 0 0 0 p B P k.h.h.t.o.C z C z C L v 7 0 D.1.1.4.2.,.Q m > 1 1 F Y F l X , 1 - , , , , , , , , , < < < ; ; , 2 l 1 - - 3 p #.0.w.y q q %.&.,.M.%.X.o.4.q.q.gXq.q.gXGXjXjXgXgXq.q.q.gXgXjXgXgXgXgXgXgXq.jXjXgX! Q ! 4.&.( ( ( W ' ,.S.' N.S.;.m #.gX>.Y G F J J I P L B V ^ ^ ( ] d.`.d.K B B B c z p 2 1 2 2 p p p i i i x s F I U J F I Y L x i i i 2 p i 1 1 i i p p p c F J F D H F L c c a c L c a l x l l x c z s s.+XMXIXxXsXF.fXfXjXFXfXfXjXjXjXjXGXfXF.T J.K.K.c.H.G.G.K.sXzXkXP.Y.T.kX(.~.L.G.J.L.Y.L.J.J.L.{.@X@XmXlX+X/.8X8X(.T.T.T.kX{.kXzXzXvXlXkXkXkX+X{.{.{.T.{.lXlX+X+X+X+X+X+X+X+X+X+X+X+X+XkXNXlXlX+X+X+X+X+X+X+X+X+X+X+X+X+X+X+X+X+X(.(.8X(.(.(.(.(.(.(.(.(.(.(.(.(.(.(.(.(.8X8X8X8X(.(.(.8X8X8X8X8X8X8XwXwXwXqXqXwXrXrXrXwXwXwXrXrX7XrXrXrX0XwXwXwXrXrXbX0X0XrXrXrXrXrXbXbXrXrXrXrXrXrXrXrXrXrXrXrXqXqXqXwXwXwX8X8X8X8X8XzXcXcX8X(.(.(.(.8XkXkX8X8X8X8X(.8X(.8X8X8X8X(.(.(.8XcXcXcXkXkXkXkXkXlXlX+X(.(.(.(.(.(.lXkX+X(.{.+XkX^.~.b.b.W.m.m.m.(.8X8X^.^.^.^.^.^.^.b.Y.(.Y.8X/.P.x.x.v.j.b.U.T.^.W.v.v.Z.K.Y.T.8X8XJ.c.c.c.G.L.L.G.!.!.oXNXvX+X!.mXlX!.e.e.M.'.HXJXJXmX{.].].@X@X&X}.LXGXBXBXBXBXMXBX@XG.D F D D D D D D D F D D D F F G F D D D D x x x c c x x x x x x x x D D D H H H H H H Y H H H H H D D H H H -.m.m.4X6X6X6XE.E.E.E.j.g.o.,X<XdXdXfXdXdX2X;Xz.z.>X>X>X<X<X<X<X1X1X1X<X<X<XdXfXfXzXzX8X1X1X1X1X>X>XiX9X>Xn.6X6X6X6X6X6X6X>Xx.e.e.g.g.g.e.e.e.e.H H H H H H H H H H H H H H H D D D D x x v v v v v v D H z.1Xo.x v [ [ [ [ v v [ [ [ [ [ [ [ [ [ 5.tXtXyX:XtXtXtXCXKXLXCX;X;X;X:X;Xl.O.5.5.5.:XdXw.dXw.jXjXw.w.hXw.0.0.0.jXw.w.0.hXhXCXCX>X;Xl.O.O.l.l.l.O.l.l.O.O. .",
"+.2X2XsXxXMXMXfXjXjXfXfXaX1.Q m Q =.fX1.#.b b b w 0 w 0 0 3 z C o.h.V.h.h.L C M c C C C v v C $.<.>.0.y r ! p , - x Y Y c - < < - , , , < < < < < < < < < < ; ; < < 9 < - - b C $.w.7.t 1 C =.,.N./ X.X.-.q.q.gXq.q.gXjXjXjXjXq.q.q.q.q.gXgXgXgXgXq.q.q.gXgXq.q.0.,.! ] ,.] ( ( W ( ' S.S.S.a.>.P Q 4.aXB.D L F F I / K B B V ^ ( d.`.`.d.^ B B B B z p 1 1 i i p 2 2 p i a G G G G D F F F c l 1 1 9 l p 2 2 1 1 1 p p i i i c c D H g.l.n.l.H F B o.F x l x x z x l l s s.{.mXLXHXzXT.MXFXjXGXGXjXjXjXjXjXGXMX'.M.k.K.K.c.H.G.G.Z.sXlXlXT.(.+XkX(.P.J.G.J.L.Y.P.J.J.J.T.@X&XmXmXlXY.(.kX+X{.{.+XkX{.{.kXzXlXlXkXlXlXvXkX+X{.+X{.lXlXkX+X+X+X+X+X+X+X+X+X+X+X+XlXNXlX@X+X+X+XlXlX+X+X+X+X+X+X+X+X+X+X+X+X+X(.(.(.(.(.(.(.(.(.(.(.(.(.(.(.(.(.(.(.(.(.(.(.8X8X8X8X8X8X8XwXwXwXwXwXwXwXwXrXbXbXbXrXrXbXbXrX8XrXbXZXbXbXrX0XbXZXZXbXbXbXrXbXbXZXZXbXbXbXbXbXbXbXbXbXbXbXbXrXwXwXwXwXwXwXwXcXkX8X8XkXcXcXcX8X8X8X8XkXkXkX8X8X8X8X8X8X8XkXkXkXkXkXkXkXcXcXvXvXcXcXcXlXlXkXlX+X(.(.(.(.(.(.kXkXkXkX+X+XkX^.^.m.b.L.L.L.W.~./.(.(./.Y.wXcXkX8Xm.^.^.W.W.W.L.x.j.k.b.U.U.U.U.m.m.U.sXkX(.U.Y.U.c.k.c.G.P.H.L.P.!.oX@XmX+X(./.lX+XT.e.e.C.}.HXVXmX&X].].}.@X&XmXMXGXBXBXJXBXGXMXBX{.V.D G D F D D D D D D D F G G G G D D D D x x x x c c x x x x x x x x D D D D H H H H H g.H H H H H H H H H H M.m.7X7X6X6X6XE.E.E.4Xj.g.z.<X<XaXdXfXdXdX2X1X1Xm.>X>X1X<X2X2X<X,X<X<XsXfXfXfXhXhX<X<X1X1X1X>X1X>X>X9X9X>X>X6X6X6X6X6X6X6Xn.x.e.g.g.g.g.g.g.g.g.g.e.e.H H H H H H H H H H H H H H D D v v v v v D D D D H z.1Xo.x [ ..| [ [ [ v [ [ [ [ [ [ [ [ | :XyXyXtX:XtXyXDXLXLXLXCX1X;XO.l.l.n.l.O.5.:X>XdXhXjXjXw.w.w.w.w.w.jXjXjXjXw.w.hXaXdXhX3X;Xl.l.O.l.l.l.l.l.l.l.O.O.| ",
"+.D.U.U.0XzXsXdXfXfXfXfXdXaX#.N N =.MXaX1.b b b b w w w w 3 3 z C h.M.h.h.T L z C c c C C v z #.<.<.0.4.y 2.m 3 % i L Y L 1 < - - - , , < < < < < < < < < - < < - - 9 < 1 % b b Q 0.w.y z v #.$.;.-.%.X.L 4.gXgXq.q.q.gXjXjXjXgXgXq.q.q.q.gXgXgXgXgXq.gXgXq.q.gXgX4.,.! ,.] ] ( / ( ( ,.S.S.p.>./ P $.dXF.G J F F I ` L B B V K ) d.`.`.`.^ V B B B z p 1 1 i i 2 2 2 p a D G e.e.e.D H F x x i 1 1 1 1 2 p i 1 1 1 1 i i i i l x D H g.l.n.l.H F j o.F x l c c p a l l i t.T.lXJXHXnXzXFXGXjXGXGXGXjXjXjXjXGXGXsXB.j.J.K.G.H.G.G.V.T.kXlX(.(.kXkX/.P.H.J.J.J.Y.P.J.J.J.(.lXNXmXmXlXT.(.kXkXsXkX+XsX{.+X(.lXlXlXkXxXxXvXkX+X+XkXlXlXlXlX+X+X+X+X+X+X+X+X+X+X+X+XlXlX@X+X+X+X+XlXlXlXkXkXkXkXlXlXkXkXkXkXkXkXkXkXkXkXkXkXkXkXkXkXkXkXkXkXkXkXkXkXkXkXkXkXkXcXcXcXcXcXcXkXcXcXwXwXwXwXwXbXbXbXbXbXbXbXbXbXbXwXbXZXZXbXbXbXrXbXZXAXbXbXbXbXbXZXZXZXbXbXbXbXbXbXbXbXbXbXbXbXrXrXwXwXwX8XwXcXcXcXkXcXkXcXcXcXwX8X8XkXkXkXkXkXkXkXkXkXkXkXkXkXkXkXkXkXkXkXcXcXcXzXzXcXlXkXkXkXkX8X8XkX(.(.(.kXcXcXkXkXkXcX^.^.L.b.m.L.b.^././.8X(.(./.kXkX8X7Xv.^.^.m.m.m.b.x.j.k.J.Y.U.U.U.m.m.T.xXkX(.Y.L.L.c.c.c.G.P.G.H.!.!.oX@XlX!.(.+XlX{.K.e.r.S.sXHXMXmX@X{.}.}.@XmXBXJXBXBXBXJXJXGXBXBX{.k.D G G D D D D D G F D G G G G D D D D x x x x x x x x x x x x x x x x D D D H H e.e.e.j.g.e.H H H H H H H Y Z.U.7X7X4X6X6XE.6X6XE.g.g.z.dX<XdXdXdXdXdXaX2X1X1X1X1X<X<XsXsX2X,X<XdXdXdXdXdXdX<X<X<X<X<X1X1X1X1X>X1X1X4X6X6X6X6X6X6X6X6Xn.x.e.g.g.g.g.g.g.g.g.g.g.g.e.e.H H H H H H H H H H H H H H D D H D D H D D D g.z.,X..x ....| [ [ [ v [ [ | [ [ [ [ [ O.:XyXyXtX:X3XCXKXLXLXLXFX<X;XO.O.l.z.l.l.;X:X>X<XhXjXjXw.w.w.hXhXhXjXGXGXjXw.w.hX0.hX3X>X;XO.l.l.l.;X:X>X>X;Xl.O.O...",
"z.J.b.m.>X>XU.1XsXfXxXfXfXdX1.{ N @.aXgX'.M w w b b w w w 0 3 0 z o.h.M.h.h.o.z C c z P C v l { *.D.9.0.4.2.Q 5 & > c L Y c 1 - - - - , , , < < < < , < < 1 < ; # # 1 l 2 , 3 p B $.w.0.@.q } $.&.' / P L F.dXgXq.q.q.q.gXjXGXjXgXq.q.q.q.q.q.gXgXgXgXgXgX3.q.gXjXdX,.Q ,.,.,.&.( Q ( ;.S.S.a.;.N.` n dXaX-.J F F I ` P J J K K ` d.`.`.`.^ V k B B p p 1 1 2 i i i p l c F G G e.g...H x i i i 1 < 1 1 1 l z i 2 1 1 2 i i i l x x D g.g.l.g.H c j L c x l c a p a l l i t.I.lXGXFXHXHXGXGXGXgXGXGXjXGXjXjXjXGXfXF.e.V.K.J.G.G.J.c.T.kXlXkXkXkXsXT.P.P.P.J.J.P.P.K.J.J./.kXNX&XmXmXT.T.kXlXlXlX+XsX+X+X(.kXkXkXkXxXxXxXlX+X+XlXlXlX@XlX+X+X+X+X+X+X+X+X+X+X+X+X+X+X+X+X+X+X+XkXlXlXlXxXxXxXxXxXxXxXxXxXxXxXxXxXxXxXxXxXxXxXxXxXxXxXnXnXnXnXnXnXnXnXnXnXnXnXnXnXnXnXnXxXnXbX8X8XwXcXbXbXbXbXbXbXbXbXbXbXbXbXbXbXbXbXbXbXbXbXZXZXbXbXbXbXZXZXZXZXbXbX0XbXbXbXbXbXbXbXbX0X0X0XrX0XwX7X0XbXzXzXzXzXcXcXcXcXcXcXwXcX8X8XkXkXkXcXkXkXkXkXkXkXkXkXkXkXkXkXkXkXkXkXkXkXkXkXkXcXcXcX8XkXkX8X(.cXvXvXcXlXvXvX^.W.W.L.b.v.b.L.T.(.8X(.(.8XT.sXT.W.v.^.^.L.m.m.v.x.v.v.U.U.U.U.U.m.m.2XxXkX/.^.L.L.b.c.L.L.H.V.H.I.I.oX@X@X!.+XlXmX{.Z.j.r.F.lXJXmX@X].{.@X&XmXmXBXJXBXBXBXGXJXJXBXBX{.y.H G G D H D D D G G G G G G G G D D D x x x x x x x x x x x x x x x D x D D H H g.g.g.g.g.g.H H G G H H H g.b.1X7X7XE.E.E.E.6X6Xn...g.z.dXdXdXfXdXdXaXsX2X2X2X2X2X2XsXfXfXsX<XaXdXdXsX<X<X2X<XdXdXfXzX0X1X1X1X>X1X1X4X6X6X6X6X6X6X6X6Xx.x.g.g.g.g.g.g.g.g.g.g.g.g.g.g.g.H g...H H H H H H H H H H H H H H H H H H H j.>X;X..D ..O.| [ [ [ v [ [ | [ [ [ [ [ O.:XyXtXtXtX3XCXIXLXLXKXGXsX,X..+.+.O.l.l.;X;X:X<XhXhXhXw.w.jXjXjXjXGXGXGXjXjXjXjXhX3X<Xl.O.l.l.l.:X:X5X5X5X>Xl.l.l.O.",
"D.b.b.U.4Xm.n.4X4X>Xz.D.dXfXfX1.@.M #.4.4.1.w 3 3 b b 0 0 0 0 0 9 b P G.k.h.o.L z z c D o.o.c b } $.+.9.0.3.&.m d > 1 c Y Y p - ; - - , , , < < < < , < 1 1 1 , < 8 1 > 1 z o : p F w.w.0.8 M } 1.S.-.X.-.o.1.gXq.gXgXgXgXgXgXGXjXjXq.gXgXq.gXgXgXq.gXgXgXq.gXgXgXgX'.,.! ] ] ,.( ( / ( N.C.I.;.N.' p $.0.dXA G J J K J J P K K K ^ _ d._ ^ k k n B p p 1 1 2 i i i i i c F F Y D.0X3X+.x i i 1 1 2 p i i i i i l i i 2 p i p i i c c J A A I L L x L F c l c s s i l l i I I.lXGXGXGXGXGXGXGXGXGXjXjXGXgX0.0.jXfXsXj.J.K.G.G.J.b.c.P.T.kX8X(.T.T.T./.(.(.Y.J.K.Y.K.J.J.K.{.mX&XmXNXkX/.(.nXxXlXlXsXlXkX(.{.kXlXxXPXJXMXlX#X#X+XlXlXvXvXlX@X+X+X+X+X+X@XlXlX+X+X+X#X+X+X+X+XkXlXvXlXlXlXlXlXlXlXlXxXlXxXlXlXlXlXlXlXlXlXlXlXcXcXcXcXzXzXzXzXzXzXzXzXzXzXzXzXcXzXzXzXzXkXnXbXwXwXwXwXwXwXwX8XwXrXrXwXwXqXqXrXrXqXqXrXrXrXrXrXrXeXeXrXrXrXeXrXrXqXrXrXrXrXrXrXrXrXrXrXrXrXrX0XrXrXrX8XwXbXwX8X8XwX8X8X8X8X8X8X8XwXwXwXwXwXwXwXqX7X7X7XwXwX8X8XwXwX7X8X8X8XwXwXwXwXwXqXqX(.wX7X8XcXcXkX/.cXnXMXsXlXlXvXm.v.v.L.m.v.v.Y.(.8X8X(./.^.cX(.^.b.x.v.v.v.L.b.v.b.v.v.U.W.^.7Xv.v.^.kXfX8X^.U.L.b.c.c.L.L.P.H.H.I.!.oX{.+X(.+X#XvXT.V.e.t.T.xXJXBXlXI.lXBXBX}.FXMX|.BXBXGXGXJXJXBXMXS.r.H G G F H D D D G G G G G G G D D D D x x D x x x x x x x D D x x x x x x D H H j.j.j.e.g.g.H H G G G H Y j.m.8X8X7Xn.6X6X6X6X4Xn...z.1XdXdXdXdXaXaXsX2X<XdXfXdXdXdXdXfXdXsX<X0X<X<X<X<X<XdXdX<X<X2X2X2X1X>X1X1X,X1X4X6XtX5X6X6X6X6X6Xx.g.g.x.x.x.g.g.g.g.g.g.g.g.g.g.g.g.g.g.g...H H H H ....H H H H H H H H H H H b.>X;Xv v ..O.| [ [ [ v [ | O.[ [ ..[ | 5.tXyXCXCXLXLXLXFXGXGXGXGXgXaXz.O.O.O.l.l.+.O.tX:X,XhXhXjXjXjXjXjXGXIXLXGXFXjXjXjXw.<X:XO.O.l.l.l.:X:X:X:X:X:X:Xl.l.l.",
"D.Z.j.z.W.E.E.4X4X>Xm.U.2X2XaXaX1.{ @.1.'.aX#.e 0 b z 0 w w 0 0 9 z L h.V.h.h.Y c c c c L L L z N #.X.<.9.0.4.Q m > , < c y.F 1 = - - - - - - , < , - < , 1 1 - < < 1 1 1 2 ; 3 0 z 0.w.w.e q M =.,.;.-.%.Y >.aXq.gXgXgXgXgXjXjXjXgXq.gXgXgXjXjXjXdXdXgXgXgXgXgXgXgXdX4.! ,.,.] ' / / / ;.S.I.M.;./ Z #.4.dXr.F F G Y r.e.e.r.r.r.y.t.i.s.K V k V b z 1 1 1 2 2 i i i l c c F Y h.2X<Xo.x i i i 1 2 1 i i i i i i i i 2 i i i i i p c F F G L L L x P L B a x c c l l z i J C.kXFXFXGXGXGXGXGXGXGXjXjXFXfX0.0.jXfXsXu.V.K.H.G.G.G.J.P.T.T.T.T.T.T././.(.(.P.J.P.Y.K.K.J.K.T.mXmXmXNXlX(.+XvXxXlXlXkXlXkX+X{.+XlXxXIXLXFXlX@X@X+XlXlXvXmXlXlX+X@X+X+X@X@XlXlX@X@XlXlX+X+X+X+XlXlXvXlXlXlXlXlXkXkXlXlXlXlXlXlXlXkXkXkXkXkXcXcXcXcXkXkXkXkXkXkXkXkXkXkXkXkXkXcXcXcXkXkXcXcXzXzX8XwXwXwXwXwXwXwXwXwXrXwXwXqXqXrXrXrXqXrXrXrXrXrXrXeXeXrXrXrXrXrXrXqXrXrXrXrXrXqXqXrXrXrXrXwXwXrXrXrXrXwXwXcXcXwXwX8X8X8X8X8X8X8XwXwX8XwXwXwXwXwXwX8X8X7X8X8X8X8XwX8X8X8XwXwX0XzXzXcXwXwXwX8XwX8X8XzXcXcX(.cXxXxXkXlXlXlXL.v.b.L.v.v.m.Y.(.+XkX(.(.kXlX(./.b.v.v.v.v.m.b.v.c.b.m.U.^.^.U.v.v.L.8XsXT.^.U.b.c.c.c.L.L.P.H.H.I.!.oX+X(.(.+XlXvXT.k.e.t.T.xXJXBX@X].mXmXBXmXFXMX|.mXBXJXJXMXBXBXmXK.r.H H F F H D G G G G G G G G G G D D D D D D D D x x x D D D D x x D D D D D H H e.g.e.e.e.e.e.H H G G G H j.U.8X8X4X6XE.6X6X6X>Xz.g.z.,XdXdXdXdXdXdXsX2XaXdXfXdXdXdXdXdXdX2XsX2X2X<X2X<X<X0XsXsX<XzXsX<X,X1X1X1X<X1X5X6X6X6X6X6X6X6X6Xx.x.x.g.g.g.x.g.g.g.g.g.g.g.g.g.g.g.g.g.g...H H H H ....H H H H H H H H ..H H z.>X;Xv [ ..O.O.| [ [ [ [ O.| [ [ O.[ O.5.tXCXDXKXFXFXFXjXGXGXGXFXgXaX<.+.O.O.l.l.O.O.:X:X1XhXjXjXjXjXjXjXGXIXLXGXGXjXjXjXjXhX>Xl.l.l.l.:X:X:X:X:X:X:X;Xl.l.l.",
">.Z.z...W.E.E.7X>X>XE.4Xm.z.D.dX9.#.} >.F.dX$.N 0 z z b b w 0 3 0 9 z L h.k.k.h.L c c C B L X.l M N #.+.<.0.3.4.! i % # 7 u.G x + ; - < - - - , < < - < < < < < < 1 1 1 1 1 < 1 9 0 &.0.w.y e z X.1.,.a.@.L o.F.q.q.gXgXgXgXjXjXgXgXq.gXgXgXGXGXjXdXaXdXfXgXgXgXgXgXgXgX,.4.4.,.' ( / P &.A.S.C.-.-.&.n 1.dXD.F G e.e.u.x.u.e.u.x.u.u.j.c.T J k V B z 1 1 1 i 1 i i i l x s I I r.k.Z.L i i i i i i i 2 1 1 2 i i i i i i i i i i i c F D H L P J D / P B x x x x l l l z B N.{.xXMXFXJXGXGXGXGXjXjXjXhXdXaX'.jXfXlXy.k.J.P.H.G.G.K.K.P.T.Y.Y./.Y.Y.T.T.T.K.G.P.K.K.K.H.H.T.lXmXmXNXlXT.(.kXxXlXlX+XkXlXkXT.+XlXnXIXLXJXlXlX@XoXlXlXvXmXvXvX@XlX@X+XlX@XlXvXlXlXlXlX+X+X+X+XlXlXvXkXkXkXlXlXkXkXkXkXkXkXkXkXkXkXkXkXkXkX+X+X(.(.+XkXkXkX8XkXkX8X8XkXkX8XkXcXcXkXkXcXcXcXzXzX8XwXwXwXwXwXwXwXwXwXwXwXwXwXwXrXrXrXrXrXrXrXrXrXrXrXrXrXrXrXrXrXrXrXrXrXwXrXwXqXqXwXrXwXwXwXwXrXqXqXqXqXwXbXcXwXwX8X8X8X8XwX8X8X8X8X8XcXkXzXcXkXkX8X8X8X8X8XcX0X0X8X8X8X0XbXzXzXzXzXbXzXzXzXwX8X8XzXcXcXwXxXxXxX8XxXxXlXW.L.L.L.v.v.m.Y.(.+XcX{.kXvXmX(.^.b.v.v.v.b.m.v.j.j.b.U.U.^.U.m.n.v.L.(.T.Y.b.Y.c.c.c.G.L.H.P.H.H.I.T.+X+X~./.+XlXlXP.j.r.V.{.VXJXmX@XOXgXmXmXmXJXBX|.mXBXBXBXmXmXBXmXK.e.G H D D G G G G G G G G G G G G D D D D D D D D D D D D D D D D D D D D D D D H e.e.e.e.e.e.g.H H G e.e...h.U.kX8X4X6X6XE.6X6X>Xz.x.z.<XdXdXdXsXfXdXsX2X2XdXdXdXdXdXdXdX2X0XsX2X2X2XzX2X<X0XzXsX2XzXzX<X,X0X<X<X2X1X5X6X6X6X6X6X5X5X>Xg.v.v.x.g.j.x.x.x.g.g.g.g.g.g.g.g.g.g.g.g...e.H ..H ..........H ....H H ..H H z.>Xm.D [ | O.O.| [ [ [ ..O.[ [ [ ..v O.:XtXKXKXKXhXhXhXjXjXjXjXjXdXaX1.D.+.+.O.l.l.O.:X>X9XhXjXjXjXGXGXjXGXLXGXGXGXjXjXjXjXhX1Xl.l.l.l.:X5X5X:Xl.l.l.O.l.l.O.",
"&.Z.Z.g.U.W.Q.6X4X4X6XeX4Xn.H D.F.F.( / @.#.,.Q 5 b z z z 0 0 0 0 < 0 c o.h.V.V.Y L z B C L L C z b =.{  .8.q.4.! Q 2 > > Y r.F + - - < - - - , < < < - < < < < < 1 1 < < < < < < 7 f 1.w.0.#.z { =.,.;.Y X.-.M.q.gXjXgXgXgXgXjXgXq.3.q.q.q.GXGXGXhXaX<XhXhXhX0.9.0.gXgXfXfXfXMX,.( W ^ Q &.F.C.M.M.B.V @.1.gXh.e.e.e.e.u.u.g.e.e.e.e.u.c.r.J V V n z 1 i p p 1 1 i i c c F t.G F F i i i i i i i i 2 2 2 i 1 i i i i i i i i i i i c F H H o.P L F / P B a x x c l l l z s i.T.lXMXFXGXdXfXGXGXGXjXjXhXdX0.aXjXFXMXy.k.Z.I.G.G.G.G.P.P./.~./././.P.Y.T.K.K.G.G.Y.Y.K.K.H.P.lXmXNXNXvX+X(.kXxXlXlX+XkXlXlX{.+XkXnXIXUXIXmXlX@X+X@XlXlXmXNXvXlXvXlXlXlX@X@XlXlXlX@X#X+X+X#X+XlXlXlXkXkXkXkXkXkXkXkXkXkXkXkXkXkXkXkXkXkXkXkXkXkXkXkXkXkXkXkXcXkX8X8XkX8X8XkX8XkXkXkXkXkXcXzXzXwXwXwXwXwXwXwXrXrXrXwXwXwXrXrXrXbXbXrXrXbXbXbXrXrXbXbXbXbXbXbXbXbXbXbXbXrXrXrXqXqXqXwXwXrXrXrXrXwXwXqXqXwXcX8X8X8XwX0X0X0XwX7X7X8XwX8X8X8X8X8X8XcX8X7X7X8X8X8X0X0X8X8X8XwXbXbXzXzXzXbXzXzXxXbXwX8XkX+XcXcXJXVXxXzXVXVXvXm.v.b.L.m.m.W./.+X+X8XlXlXvX&X/.m.b.v.v.v.v.v.v.v.b.m.U.U.^.U.m.v.v.^.kXT.Y.L.L.c.c.c.G.G.L.H.H.H.I.{.+X+X/.(.+X@X@XK.j.r.J.{.lXmX@X+X@XBXmX@XmXJXJXmX}.&XmXmXmXMXBXmXK.e.e.G D D G G G G G G G G G G G G D D D F D D D D D D D D D D D D D D D D D D D H e.e.e.j.e.g.g.H H G e.e.j.z.U.8X7X6X6X6X6X6X6X>Xj.n.1X<XdXsXsXsXdXsXkX2X7X0XzX2X0X0XzX0X0X0X0X0XzXzXzX0X0XfXfXdXsXxXzXzXsXzXzXfXzX9X5X6X6X6X6X6X5X5X>Xx.x.x.x.x.x.x.x.x.g.g.g.g.g.g.g.g.g.g.g.g.g.g.g.....................H ..H H H ,X>Xm.x [ O.O.O.| [ [ [ | O.| [ [ [ v O.:XpXFXCX3X3X3XhXGXjXGXGXgXaXaXfXsX,X+.O.O.l.;X;X:X:XhXjXjXjXGXGXGXGXGXGXGXjXjXjXjXw.0.8.O.O.O.5.:X:X5X>Xl.l.l.O.....<.",
"$.,.C.m.g.v.W.6X4X4X6X6X4X>X>XU.U.D.#.=.1.'.,.&.@.w b z z 3 0 w 0 3 0 0 L h.V.J.h.L c z v v F B c B Q y  .+.0.4.y y 0 1 > c Y r.z 1 , , , < < - < < < - , , < < < 1 1 < < 1 < < < < 2 #.4.w.$.N e *.=.,.h.%.%.o.3.gXjXgXgXgXgXjXgXq.3.q.q.q.jXGXGXhX<X<X<X3XhXhXhXaX0.0.aXdXdXfXfX'.,.^ / ' ;.S.C.M.M./ Z #.gXD.j.e.g.u.u.e.g.e.e.e.e.e.e.G F j V B z 1 i p 2 1 i l i l c F T I J F a i 1 1 i i i i i i i i i i i i i i i i i i i i c c H H o.P L F / P B i x x c l l l z s T I.vXMXFXGXT.sXfXGXgXfXfXhXdXaXaXfXFXFXh.h.Z.K.V.J.K.J.K.Y./.P./.(.I././.(.T.P.L.G.P.P.K.P.J.P.{.mXmXmXNXkX+X(.xXxXlX@X@XkXlX+X+X+XlXLXIXUXMXmXlX+X+XlXlXlXVXVXlXvXvXlX@X@X@X@X@X@X+X#X@XlXvX#XlXlXlXkXkXlXkXkXkXkXkXkXkXkX+X+X+XkXkXkXkXkXkXkXcXkXkXkXkXkXcXcX8X8X8X8X8X8X8XkXkXzXzXkXkXcXzXzXwXwXwXwXwXwXwXwXrXrXwXwXwXrX0XbXbXbXbXbXbXZXZXbXbXbXbXbXbXbXbXbXbXbXbXbXrXrXrXqXqXqXwXwXrXrXwXwXwXwXqXqXrXbXkXwXwXbXzX0X0X8X7X7X8XwX8X8X8X7X8XcXbXwX8X7XwXwXwX8X0X8X8X8XwX0XzXzXzXzXbXzXzXzXcX8X8XkX+XcXvXHXVXMXzXVXVXvXm.m.L.L.m.m.W.+X+X+X8XlXlXmX@X^.v.v.v.v.v.v.v.v.v.b.U.U.U.Y.^.W.v.m.^.zX/.~.~.b.c.c.c.G.G.G.G.H.I.!.{.oX+XP.+XlXmX+XJ.u.r.Y.sXgXmXoX+XmXBXmX@XmXJXFXmX@XmXmXBXJXJXJXlXV.e.e.G G G G G G G e.e.G G G G G G G G G H G D D D D D D D D D D D D D D D D D H H e.e.e.g.g.g.g.H H G G e.j.z.^.7X4X6X6X6X6X6X6Xn.v.n.1XaXdXdXsXfXsXsXkX2X0XzXzXzXzXzXzXzXzXzXzXzXzXxX0XzXzXfXdXdXzXxXzX0XzXzXfXfXxX9X6X6X6X6X6X5X5X5Xn.x.x.x.x.x.x.x.x.g.g.g.g.g.g.g.g.g.g.g.g.g.g.g.g.....................H ....H H 1X>Xz.x [ O.O.O.O.[ [ [ O.O.[ [ [ ..[ 5.:XyX3X3X3XyXCXCXCXhXhXfXdXfXfXfXF.D.,Xz.O.O.O.:X:X:XhXjXjXjXGXGXjXjXjXjXjXjXjXjXjXjXhXhX;Xl.l.:X:X:X:X>Xl.l.l.O.O.+.<X",
"4.2.S.b.H j.m.E.W.4X4X4X4X4X7Xm.m.z.<.1.F.dXaXaX4.N w z z < 0 w z 0 0 9 c Y k.J.Z.o.c z v C F B c c b #. .O.9.0.4.y e 3 > 2 I r.L 1 1 - 1 1 1 - - , , - , , , < < < < 1 < < < < < i < M @.w.0.$.0 } =.,.M.-.X.Y 4.gXjXgXgXq.gXjXgXq.3.q.q.q.jXGXGXjX<X,X,X<XhXhXhXdXaX9.1.aXaXdXfXdX'.) ` / / S.C.V.h./ P Q 0.0.B.e.g.g.u.e.e.e.e.e.e.e.e.H G F V B z i i 2 2 1 i l i l c F T I I I a i 1 1 1 i i i i i i i i 2 i i i i i i i i i i z c H H o.P L F -.P B i l x c c l l z s T K.#XxXxXFXsXsXdXGXMXfXfXjXhXdXaXjXFXFXM.M.V.Z.V.J.K.J.K.P./.I.T.!.I./.(.(.T.P.P.G.L.P.Y.P.K.P.{.mX&X&XVXlXkX(.vXnXxX@X@XkXlX+X+X+XlXGXLXUXMXmXlX@X+X@XlXlXVXVXlXvXvXvX@X@X@X@X@X@X+XlXlXlXlX#XlXlXlXkXkXlXkXkXkX+X+X+X+XkXkX+X+XkXkXkXkXkX+X+XkXkXkXkX8XcXcXcX8X8X8X8X8XcX8XkXkXzXzXkXkXcXcXzXwXwXwXwXwXwXrXrXrXrXrXwXwXrX0XbXbXbXbXbXbXbXbXrXrXrXbXbXbXbXrXrXrXrXrXrXrXrXrXqXqXwXrXrXrXwXwXwXwXwXqXqXrXbX8XwXwXbXbXbX0X8X7X7X7XwXwX7X7X7X8X8XcX8X8X7X8XwX8X8XwXwX8X8XwXwX0X0X0X0X0X0X0XbXwX8X8XkX(.kXnXMXMXMXzXMXnXcXm.L.L.L.m.m.L.@X+X+X2XlXmXmX+XU.v.v.v.v.v.v.v.v.j.L.U.U.U.U.m.W.b.L.Y.kX/.~.~.c.c.c.G.G.G.G.G.H.P.!.oXoX!.I.+XlXmXT.c.r.r.T.sXgXlXoX+XmXmXmXlXMXGXGXMX@XmXBXBXJXJXJX{.V.e.e.H G G G G G G e.e.e.G G G G G G G G G G D D D D D D D D D D D D D D D D D H H e.e.e.e.e.g.g.H H H G j.j.m.^.4X4X6XQ.6X6X4X4Xn.x.n.<XdXdXdXdXlXkXsXsX8X0XzXzXzXzXzXxXzXzXzXfXzXzXzX0XzXxXzXzXzXxXxX0X0XzXfXfXfXzX5X6X6XtX6X6X6X5X4Xn.x.x.x.x.x.x.x.x.x.g.g.g.g.g.g.g.g.g.g.g.g.g.............H H ....H ........H H 1X>Xl.x | O.O.O...[ [ [ O.O.[ [ | ..[ 5.:XyX3X3X3X3XCXCXCXhXhXdXdXfXfXdXF.,X<X,Xl.O.O.:X:X<XhXjXjXjXGXGXGXjXjXjXjXjXjXjXw.jXjXhX:X;X>X5X:X:X:Xl.l.l.l.O.O.8.hX",
"4.4.S.Z.F g.x.n.W.W.W.4X4X4XqXx.l.m.1X,X,XhXGXGXjX$.w 0 c z 3 3 3 0 0 8 z L h.J.J.h.L p v v L B B c 9 #.#.| 8.0.0.y N w - $ s G j.l 1 1 1 1 < < - - - , < < , < < < < < < < < < 2 i 9 p s w.w.0.p { #.1.N.` T P ;.aXgXgXgXgXgXjXgXgXq.gXgXq.jXGXGXjX<X<X<X6.<XhXhXhXdX<X$.F.aXaXfXfXsX' ) K P S.S.C.t.X.` ( $.0.1.G H e.u.G G G e.e.e.e.H H H F K B z 1 2 2 2 l i i i l c F U I I I F p 1 1 1 i i i i i i i i 2 i i i i i i i i i i l c H H o.P L F -.P B i x x c c l l l s I C.#XsXfXCXxXsXaXFXFXMXdXGXhXdXdXFXGXGXB.Z.J.K.V.G.G.G.G.P.!.!.!.!.{.+X(.(./.P.P.L.J.L.Y.K.K.K.I.lX@X@XVXvXkXT.cXxXMX@X+X+XlX+X+X+XkXHXLXUXFXMXlXlX+X@XlXlXVXVXmXlXvXvX@X@X@X@X@X+X+XlXlXlX@X@XlXlXkX+XkXvXkXkX+X+X+X+X+X+XkXkXkXkXkXkXkXkX+XkXkXkXkXkX8XcXcX8X8X(.8X8X8X8X8XcXcXbXcXcXkXcXcXcXwXwXwXwXwXwXrXrXrXwXrXwXwXwXrXrXrXrXrXrXrXrXrXrXrXrXrXrXrXrXrXrXrXrXrXrX0XrXrXqXqXrXrXrXrXwXwXrXwXwXqXqXrXbX8X8XwXbXbXbXrXwX7X7X7X7X7X7X7X7X8X8XcX8X8X7X8X8X8X8XwXwX8X8X8X8X8X8X0X0X0XwXwXrXwXwX8XcX(.kXnXxXMXMXzXMXxXkXm.W.W.W.v.L.~.@X+X+XsXlX@X@X(.W.v.v.v.v.v.v.v.v.v.U.U.U.U.U.m.W.v.Y.8XkXY.L.L.c.c.c.G.L.G.G.G.H.!.!.oX!.I.I.#XvXmXP.c.r.r.T.sXgXlX+X@XmX}.@XlXVXGXGXMXvXNXBXJXIXLXJX{.k.e.e.G G H G G e.e.e.e.r.G G G G G G G G G G D D D D G D D D H H D D H D H H D H H e.e.e.e.e.g.j.H H e.G j.j.m.7X4X6X6XQ.E.4X4X4Xn.x.>X<XsXsXdXdXlXcXsXdX0XzXzXzXzXzXzXxXzXfXzXfXxXxXzXsXzXxXzXzXzXxXzX0X0XzXdXdXdX0X5X6X6XtX6X6XtX5X4Xx.x.x.x.v.x.x.x.x.x.x.g.g.g.g.g.g.g.g.g.g.g.g.........H H H H ....H H ....H H H 1Xz.g.x | O.O.O.| [ [ [ | O.[ [ [ [ [ 5.:XyXyXyXSX3X3X3XhXCX<XaXdXfXdXaX2X,X,X,Xl.O.5.;X:X3XjXjXjXjXjXGXGXjXjXjXjXjXjXjXw.jXjXhX<X>X5XuX:X:X:Xl.l.l.O.[ 6.<XjX",
"4.3.2.! -.g.g.j.n.n.Q.4XW.W.6X6X4X4X4X>X;X .<XdXfXdXN 0 z l 0 0 2 0 0 8 0 c I h.J.Z.h.B p z v C B z v C Z #...9.0.4.y N q . * p g.L c i 1 1 1 1 - - - 1 < , < < < < < 1 < < < 2 2 - < < 3 ,.w.w.#.l M #.,.;.` X.o.1.aXjXq.q.4.gXgXgXq.q.q.q.jXjXjXgXaX<X<X<X,X<XdXhXhXCXhX9.1.1.4.gXgX'./ V C ` C.I.C.` ` ` c 0.0.=.D e.j.e.e.e.e.v.m.1X1XU.b.r.B B p i p 2 2 1 i i i l c c J A A A s i 2 1 1 1 1 2 i i i i i i i i i i i i i i i i x F H H X.P C c -.P B i x x l l l l z s J M.lXlXzXzXFXxXsXsXFXGXFXaXgXGXMXfXMXGXT.V.y.K.P.H.H.H.H.P.!.+X+X{.@X+X+XT.{.T.T.H.H.P./.K.K.K.I.@X@X@XNXVXlXT.kXvXMXlXlXlXlXlX+X+X+XHXPXIXLXVXvXlX@X@X@XvXVXVXVXlXlXmX@X@X@X@X+X@XlXlXlXlXlX@XlXlXlXkXlXvXkXkXkXkXkX+X+XkXkXkXkXkXkXkXkXkX+X+X+XkXkXcXkXkXcXkX8X8XkX8X8XkX8XkXkXcXkXkXkXkXkXkXwX8XwXwXwXrXrXrXrXwXrXwXwXrXrXrXrXrXrXrXrXrXrXrXrXrXrXrXrXrXrXrXrXeXeXeXrXrXrXqXqXwXwXwXrXrXrXrXwXqXqXqXwXcXkX8XkXkXcXcXwXwXwXwXwXwXwX8X8XwXwXcXbXwXwXqX7XwXwX8XwXwXwXwXwXwX8X8X8XwXwX8X8X8X8X8X8X8X8XcXHXxXxXxXxXMXxXkXv.m.W.W.L.~.(.@X8XkXlX@X@X@X^.W.v.v.v.v.v.v.v.c.v.U.U.U.Y.m.m.v.W.T.sXT.P.L.v.c.c.c.G.L.G.G.H.P.!.oX+X/.P.P.(.+XlXv.c.j.r.+XxXMX+XlXmXBXfXxXVXBXJXJXMXNXBXBXJXJXJXJXT.k.e.e.e.G G e.e.e.e.e.e.G G G G G G G G G G G D G D G G G G D G H D D D H H D D D H H e.e.G e.e.j.Y e.e.H h.b.m.7X4X6X6XQ.6X4X4Xm.n.n.1X9X0XfXsXkXcXlX2X2X0XzXzX0XzXzXzXzXzXzXzXxXxXxXzXfXxXzX0XzXzXxX0XzXzXfXfXdXdX1X5X6X6X5X6X6X6X5Xm.g.x.x.x.v.x.x.x.x.g.g.g.g.g.g.g.g.g.g.g.g.H H ......H H H H H H ..H H H ..H H ..1Xz...x | O.O...| [ [ [ [ [ [ [ [ [ | :XtXyXCXCXCX3XCXFXGXCXhXdXFXfXfXaXfXfXdX<Xz.O.O.:X:X3XhXhXhXw.jXjXjXGXGXjXjXjXjXjXw.jXjXhX<X:X:X:XtXtXtX:XO.O.| hXjXjXjX",
"3.3.2.! N.o.H J g.n.E.W.W.n.>X4X4X4X4X4X4X1Xz.<.<.F.} z z 0 0 0 0 0 0 8 9 z c Y Z.Z.Z.P j p z C C z v c Z y { <.9.0.$.Q N $ * 2 H o.L c > - , < < < , < < < < < < < < 1 < < < 2 2 = 1 < 0 K 0.w.0.z z } ,.,.;.o.o.:.F.jXq.4.4.gXgXgXq.q.q.q.gXgXgXfXdX<X<X<X;X6.,X<XhXhXhX<X9.1.'.dXgXaX( P P P N.I.I.' / X.J $.0.0.G r.j.u.H H e.u.j.z.z.m.j.Y B c p i 2 2 2 1 i i l i a c J J J J s i 2 1 2 1 1 2 2 i i i i i 1 i i i i i i i i i x F H H X.P C c -.P B i x x i x l l c c J i.@XcXcXzXGXFXFXxXMXGXJXgXFXGXGXFXGXJX{.V.y.K.K.H.C.H.H.I.T.kXkXlXlXlXkX+X+X+X+XK.H.P.Y.K.K.K.I.@XlXmXNXVXlXT.(.lXnXlXkXkXlXlX+X+X+XnXHXLXIXVXvXvX#X@X@XlXNXVXVXlXlXvX@X@X@X@X+X+X@XlXlXlXlX+XlXlXlXvXvXxXxXxXxXxXxXxXxXxXxXxXxXxXxXxXxXlXlXkXkXkXcXnXzXnXnXzXzXzXnXzXzXzXzXnXnXbXxXzXzXcXzXzXwXwXwXwXwXwXwXrXrXrXwXwXwXrXrXrXrXrXrXrXrXrXrXrXrXrXrXrXrXrXrXrXrXrXeXeXrXrXrXwXwXwXwXwXwXwXwXrXqXqXqXqXwXzXzXbXbXzXzXnXzXzXzXzXzXzXzXxXxXzXzXxXnXzXzXkXkXkXzXzXzXzXzXzXzXzXzXzXzXzXzXzXzXzXnXnXzX8X+XcXVXnXxXxXnXMXxXkXW.W.W.m.L./.+X+X+XkXkX&X@XkX^.v.v.v.v.v.v.v.v.v.b.U.U.U.Y.m.v.v.^.8XsXY.P.L.v.c.c.G.J.L.G.G.H.I.!.oX+X/./.!.!.(.+Xv.c.u.y.lXMXMX{.lXmXmXMXMXmXNXGXGXmXmXBXBXJXJXJXJXI.j.e.e.e.e.G e.e.e.e.e.e.G G G G G G G G G G G D D G D D D D D D D D D D D D H D D H H H H G e.e.g.G e.e.H h.b.W.7XE.E.Q.Q.6X4X9Xm.n.n.1X2XsXfXsXkXkXfX8X8X0XzXzXzXxXxXxXzXzXzXxXxXzXfXdXfXzXzX0XzXzXzX2XzXzXfXdXdX<X5X5X6X6X6X6X6X6X4Xm.g.x.x.x.v.g.g.g.g.g.g.g.g.g.g.e.e.e.e.e.H H H H H H H H H H H H H D H H H H H ..1Xz.H c | O.O...[ [ [ ....[ [ [ [ [ O.:XtXyX3X3XhXhXFXGXGXCXfXfXfXfXfXdXdXdXaX<Xz.O.5.:X:X<XhXhXhXw.jXjXjXGXGXjXjXjXjXjXjXjXjXhXfX:X:X:XtX:X:X;XO.;X<XhXjXjXjX",
"4.3.4.2.A.o.H B g.g.x.n.n.>X>XE.4X4X>X6X5XeXl.....:.X.C z 0 0 0 0 0 0 3 9 z z L h.Z.J.h.B p 9 C C b x c Z y { +.<.0.4.&.Q , * * l Y Y F 1 - - < < < - < < < < < < 1 < 1 1 < < 1 1 = 1 9 9 s 1.0.w.N w M $.,.,.o.X.o.B.q.0.4.4.gXgXgXgXq.q.gXgXgXdXdXdXdX<X<X6.6.6.<X<XhXhXaX<X,X1.aXdXdX;.` U Z -.C.I.a.-.o.` *.1.w.P I r.e.H H D e.g.g.g.g.j.I B B z 1 2 2 2 1 i l l i a c F F F J F a i i 1 2 1 2 i i i i i i 2 2 i i i i i i i i x F H H X.Z C F -.P B i x x i c l l x c F T @XkXkXkXLXLXJXFXFXFXJXGXJXJXGXGXJXJXsXZ.t.K.K.C.V.H.H.K.T.kXkXlXmXlXlXlXlXvXkXI.H.P.Y.K.K.K.P.+XlXmXNXVXlX{.(.kXxXlXlXlXkXlX+X+X+XvXMXJXIXHXmXmX@X@X+XlXNXVXVXlXlXlX@X@X@X@X+X@X@XlXlXlXvX+XlXlXlXvXxXxXxXxXxXMXMXxXxXxXxXxXxXxXxXxXxXxXlXlXkXkXlXnXxXxXnXnXnXnXnXnXnXnXnXnXnXnXnXxXxXnXnXbXwXwXwXwXwXwXwXwXrXrXwXwXwXwXrXrXrXrXrXrXrXrXeXeXrXrXrXrXrXrXrXrXrXrXrXrXrXrXrXwXwXrXwXwXwXwXwXrXwXqXqXqX0XzXnXbXbXnXnXnXnXnXxXnXxXxXxXxXxXxXxXxXxXxXzXzXkXkXzXxXxXxXxXxXxXxXxXxXxXxXxXxXxXxXnXnXxX(.+XvXMXVXxXxXnXMXxX8XW.W.W.m.L./.+X(.+XkXkX&X@X+XW.v.v.v.v.v.v.v.v.v.m.U.U.U.U.m.v.v.^.8XsXU.L.L.v.c.c.G.G.G.G.H.H.I.!.oX!.!./.!.!.T.T.c.c.u.M.mXMXxXT.mXmXlXFXMXmXNXJXGXmXmXBXJXLXJXJXJXL.u.e.e.e.e.e.e.e.e.e.e.G G G G G G G G D D D D D D G D D D G G F F D D D D D D D D H G H H G e.e.Y G e.e.H Z.m.W.7XE.E.6X6X4X9X5Xm.n.n.<X2XsXdXsXkXsXsX8X0X0XzXzXzXzXxXzXzXzXzXzXzXzX0XzXzX0X0X<XzX0X0X<X0XzXsX0X<X1X5X6X6X6X6X6X6X5X>Xv.g.x.x.x.g.g.g.g.g.g.g.e.e.e.e.e.e.e.e.H H H H H H H H H H H D D H x D H H H H j.1Xj.H c | O.O...[ [ v ....[ [ [ [ [ O.:XtXCX3X3XhXFXGXGXFXfXfXfXfXfXfXfXaXaX<X<Xz.l.;X:X:X<XhXhXhXw.w.jXjXGXjXjXjXjXjXjXjXjXjXjXjX3X:X:XtX:X:X;X,X<XhXjXjXjXjX",
"}.4.4.3.4.-.o.G H ....g.m.4XqX>X4X4X4X4X4X4X4Xm.g.H o.C 1 z < < 0 9 9 0 0 0 0 c o.Z.J.V.Y B 2 C C L s c C N =.{  .0.4.4.! z : # % G Y L z 1 - < < < - < < < < < < 1 < 1 1 1 < < < ; l 1 1 p / 4.w.$.N q %.,.,.M.X.o.h.0.0.0.1.gXgXgXgXq.gXgXgXq.0.<XhXFXCX,X6.O.| ,X<X<XdXCXhXdX} 1.dXMXS.M.U P P i.S.C.N.-.' J *.w.=.C x D D D D G G H e.H D F J B z < 1 2 i i i i l i l c F F F A a a i i i i i 2 i i 1 1 2 i 2 2 i i i i i i i i c F H e.-.P C F -.K s i c x a c l l c c c U mX(.8X2XLXGXGXUXGXGXJXLXJXJXLXGXGXJXxXT.M.i.I.H.H.H.H.H.P.!.!.+X+XlXlXvXvXvXlXT.H.H.P.T.K.K.P.+XlXVXMXMXxXkX+X+XlXlXlXlX+XvXlX+X+XlXxXFXPXHXMXvXlX@X+XlXNXNXVXmXlXlXlX@X@X+X@X+X+X+X@X@X#X+XlXlXlXvXvXlXlXlXvXvXvXvXvXvXvXvXvXlXlXlXlXlXlXkX+XkXkXnXxXxXxXxXnXnXnXnXnXnXnXnXnXzXxXxXzXnXzXcXwXwXwXwXwXwXwXwXrXwXrXwXwXwXrXrXrXrXrXrXrXrXeXeXrXrXrXrXrXrXrXrXrXrXrXwXrXrXrXwXrXrXrXrXrXwXwXrXwXwXrX7X0XzXbXbXcXzXcXbXbXbXcXcXbXzXkXcXkXbXbXcXzXcXwXwX(.8XcXcXcXcXkXcXcXcXcXcXcXcXcXlXkXkXkXkXkX8XcXvXMXnXxXxXvXxXlX8XW.W.W.W./.(.+X(.+XkXkX&X@X(.W.v.v.v.v.v.v.v.v.b.U.m.U.U.U.m.v.v.8X8X(.P.L.b.c.c.G.G.G.G.G.G.H.!.oXoX!.!.!.!.!./.^.c.u.y.K.MXxXkX{.mXmXlXJXMXlXNXJXJXMXBXBXJXIXJXJXBXb.u.e.e.e.e.e.e.e.e.e.G G H H G G G G G G G D D D D D D D D D D F F D D D D D D D D G G G H Y e.e.H I e.e.o.Z.U.W.4XE.E.6X6X4X9X4Xn.n.n.1X2XsXkX8X2X2X0X0X0X0X0X9X9X0X0X9X9X9X9X0X9X9X9X9X9X9X9X9X9X9X5X9X1X1X1X5X>X>X6X6X6X6X6X6X6X5Xn.g.g.g.g.g.e.g.e.e.e.e.e.e.e.e.e.e.e.e.H H H H H H H H H H H H x x D x v H D D ..j.>Xg.H c | | | ..[ [ v [ [ [ [ [ v l O.:XyXDXCXCXCXFXFXFXfXfXfXfXGXFXfXdXaX9.<X<X;X;X:X:X<X3XhXjXjXjXjXjXjXGXjXjXGXjXjXjXjXjXjXjXjXhX<X:X3X:X,XCXFXFXGXGXFXGXGX",
"4.2.4.4.4.=.o.r.F F C H g.x.4X4X4X5X4X4X>X:X5X5X4X..o.o.C , 0 0 9 < < z 0 < ; 9 L h.J.J.h.L B z c L ^ b z c @.{ { 9.0.4.! %.z < u a F Y L z , , - - - 1 1 < < < < < < 1 1 < < < < = 2 i 1 z g #.w.w.y q H &.,.,.o.o.o.A.q.0.F.4.q.gXgXgXgXgXq.0.1.<.fXfXfX8.8.6.+.8.6.8.dXhXhX9.1.1.4.fX'.B.K P P P >.C.C.C.P K @.$.0.$.l D G G G s F G e.e.G J J c l 1 1 i p 1 i i l l x c F F F F F c i i i i i i i 1 1 1 2 i 2 1 i i i i i i i p c H Y g.-./ L J -.K s i c x a c x l c x a J }.cXbXzXGXGXGXGXFXJXJXGXJXHXGXGXGXJXJXsXN.` S.Z.C.H.H.H.P.P.!.+XkX{.+XlX+X+X+X+XP.P.P.T.K.K.P.I.lXVXMXVXMXlX+X+XkXVXVXVXlXvXlX{.+X#XvXFXPXHXMXmXmXvX+X+XvXNXVXMXmXlXvX@X@X+XvX@X+X@X+X@X@X#XvXlXlXvXvXvXlXlXlXvXvXvXvXvXvXvXvXlXlXlXlXlXvXcXcXcXkXkXvXlXkXcXcXcXcXcXkXkXkXcXcXcXcXkXkXcXcXcXwXwXwXwXwXwXwXwXrXrXrXrXwXwXrXrXrXrXrXrXrXrXeXrXrXrXrXrXrXrXrXrXrXrXrXrXrXrXwXwXwXrXrXrXbXrXrXrXbXrXrXqXzXzXcX8X8XkXcXcXcXcXkXkXcXcXcXcXcXcXcXcXcXcXcXcXcXcXcXcXcXcXcXkXcXcXcXcXcXcXcXcXcXwX8XkXkXwXcXnXxXnXxXzXvXxXlX8Xm.W.m.m.(.(.T.(.lXkX(.lX+X/.W.v.c.v.v.v.v.v.v.m.^.m.U.U.m.v.v.m.sX(.T.P.b.c.c.c.G.G.G.G.G.G.H.!.oXoX!.I.I.!.!./.^.k.y.V.{.MXlXT.MXmXmXMXJXBXmXVXJXFXmXBXFXGXLXJXBXBXv.u.e.e.e.e.e.e.e.e.e.G H H H H G G G G G D F F D D D D F F F F F F F D D D D D F H G G G G H e.e.H I e.e.o.Z.U.W.6X6X6X6X6X4X7X>Xn.n.m.9X9X7XqX7X7X5X6X5X5X5X5X6X6X5X5X5X6X6X6X5X6X6X6X6X6X5X5X5X5X5X5X5X5X>X5X6X>X>X6X6X6X6X5X6X6X4Xn.g.g.e.u.u.e.e.e.e.e.e.e.e.e.e.e.H H H H H H H H H H H D D D H x v v x x v v x ..z.;Xg.H c | | | ..[ [ v ..[ [ v v v v O.:X3XhXCXCXhXjXjXgXdXgXfXfXFXfXfXdXaXaXdX<X;X;X:X:X<XhXw.jXjXjXjXjXjXjXjXjXGXjXjXjXGXjXGXGXFXGXGXjXCXCXCXFXCXhXhXhXhXCXhX",
",.,.,.,.&.:.h.j.L C v H g.g.m.m.m.4X>X4X4X:X5X5X5Xz.j.j.o.< 0 0 9 9 9 l 0 3 < < z Y Z.Y.h.o.B z c L ` C z c Z { { +.0.0.4.#.N w u i x Y Y c 1 - - - - < < < < < < 1 < 1 < < < < < ; i 2 1 0 p V 4.w.0.N v @.&.,.-.o.o.X.0.0.0.4.4.gXgXgXq.q.0.4.1.1.<XdXhXaX<.+.+.+.+.6.<XdXhXhXaX1.=.'.F.N.P L P P -.C.C.C.` / P { 0.$.v D G G A s G G y.r.I I J c p 1 2 1 i 1 i i l l l x c F J I I F c i i i 2 2 i i i i 2 2 1 1 1 1 i i i i c c G F Y r.N./ P J ` V p i x x a c c x c x a J }.cXcX8XFXGXGXJXJXJXJXGXGXGXFXGXGXGXHX{.N.` K.K.G.G.G.H.K.P.I.!.+X+X+X+X+X+X+X(.!.P.H.T.K.K.P.I.@XVXMXMXMXlX+X+XkXnXHXMXlXvXlX+X+X#XvXnXLXJXVXvXmXvX@X+XvXvXMXVXVXmXlXlX@X@XlX@X+X@X@X@X@X@XlXlXlXvXvXlXlXlXlXlXvXlXlXlXlXlXlXlXvXvXvXlXlXvXvXvXvXvXvXvXlXlXlXlXlXlXlXkXlXcXcXcXlXlXlXvXkXcXwXwXwXwXwXwXrXrXrXrXrXrXwXwXrXrXwXwXwXrXrXeXeXrXrXrXrXrXrXrXrXrXrXrXrXrXrXrXrXwXwXrXbXbXrXrXrXrXrXbXrXwX0XzXzXkXkXkXkXzXzXzXcXzXxXnXnXnXnXxXxXxXxXxXzXvXvXcXcXnXnXnXzXzXcXcXcXcXcXzXcXcXcXcXkXkX8XwXcXvXMXHXxXlXlXxXlX(.W.W.^.^.+X+XT.+XkXkXkXsX+X(.v.v.v.v.v.v.v.x.b.U.^.m.U.U.m.v.v.m.sXT.Y.P.c.c.c.c.G.G.G.G.G.G.H.!.oXoXP.!.!.!.!./.L.k.y.V.lXxXlX{.MXmXmXMXJXMXmXVXJXMXmXVXJXLXLXJXBXBXv.u.e.e.e.e.e.e.e.e.G G H G H H H G G G G G D D D D D D F F F F F F F F F D D D G G G G G G H H H H r.G e.h.b.W.Q.6X6X6XE.6X5X9XE.n.n.>X5X4X4X4X4X6X6X6X6X5X5X6X6X6X5X6X6X6X6X6X6X6X6X6X6X6X6X6X6X6X5X5X5X5X5X5X6X6X6X6X6X6X6X6X6X6X4Xx.g.g.u.e.e.e.e.e.e.e.e.H H H H H H H H H H H H H H H H D D x D v v v v v v D v ..z.z...D v [ [ [ [ [ v v [ [ v v v v v 6.3X3XhXCXhXdXjXgXdX}.dXfXfXhXfXfXfX0.dXfX,X;X;X:X:X3XhXhXjXjXjXjXjXjXjXjXjXGXjXjXGXGXGXGXGXCXFXCXCXCXCXCXyX3X3XhX3X3X3X3X",
">.=.=.=.X.j.z.b.X.L v H ....j.j.v.m.m.4X4X>X4X5X5X1Xv.g.v.z 0 0 0 0 l l 1 2 0 0 1 C o.^.k.o.L z c L T L B z M { { ..9.0.0.y r N u > a H j.F l - 1 1 < ; - < < < < 1 1 < < < < < < < i 2 9 8 p j &.w.0.#.9 X.=.4.M.h.h.C 9.0.q.1.'.}.gXgX4.4.4.1.1.1.<.aXFXfX<. .+.| +.6.<XaXfXFXdX<.%.,.S.N.P L L P ` C.C.d.N./ L F 0.9.{ D G G a D G I i.T U U J c p 2 2 1 1 1 i i l l l a x F J U ) J c s i i 2 1 2 i i i i 1 2 < 2 1 i i i a F G G D Y i.N.M.` K / B p a c c l l l c c c a c }.kX8X(.fXjXjXJXJXFXHXJXGXGXjXGXGXGXMXT.s.T K.K.H.G.G.H.K.P.P.!.+X+X+X{.lX+X(.!./.P.V.P.K.K.K.I.+XlXmXMXmXlX+X+XkXnXHXFXdXnXlXlX+X+XvXvXLXGXHXvXmXmX@X@X#XvXMXJXVXMXlXlX@X@X@X@X+X@X@X@X@XlXlXlXlXVXMXMXMXMXMXMXMXMXMXMXMXMXMXMXMXmXvXvXvXlXlXlXvXNXvXlXxXxXvXlXlXlXlXlXxXvXlXlXxXxXxXvXlXkXwXwXwXwXwXwXrXrXrXrXrXrXwXrXrXrXwXrXqXqXeXrXrXrXrXrXrXrXwXwXrXrXrXrXrXrXrXrXrXwXwXbXbXbX0X0XrXrXrXbXbXwX0XzXzXzXzXkXxXxXxXfXzXxXxXnXxXMXVXxXxXxXMXxXxXxXMXxXxXVXxXxXxXxXxXxXxXxXxXxXxXzXlXlXkXkX8X8XkXxXMXHXnXlXxXnXvX(.W.W.^.^.+X+X+XlXkXcXlXsXkX(.v.v.v.v.v.v.v.x.b.Y.Y.m.U.^.W.v.m.U.sXT.Y.Y.c.v.v.J.c.c.G.L.H.H.I.!.oXoXP.!.!.!.!.P.P.k.y.Z.xXlXkX{.mXmXMXGXJXMXMXVXJXMX@XHXLXIXIXJXJXBXj.e.e.e.e.e.e.e.e.e.H H G H H H G G G G G G D D D D D D D D F F F F F F D D D F G G G G G G H G G e.e.H H h.m.W.Q.E.Q.Q.E.5X5X5XQ.n.n.>X6X6X6X6X6X6X6X6X6X6X5X6X6X6X6X6X6X6X6X6X6X6X6X6X6X6X6X6X6X5X5X5X5X5X5X4X>X6X6X6X6X6X6X6X6XtXm.g.g.g.g.e.e.g.e.e.e.e.e.H H e.H H H H H H H H H H H H H D v v D x x D v x x F x ..z.z.H x [ [ [ [ [ v v [ [ [ v l v v l ;X3XCXCXhXfXdXMXgX}.}.}.fXfXhXfXfXfX9.aXfX,X;X;X:X:X3XhXhXhXjXGXjXjXjXjXjXGXGXjXGXGXGXGXGXFXCXhXCXyX3XyXyXtX3X3X9X1XtXtX9X",
"9.8.<XFXaX<X,Xz.z.z.h.H ..o.j.z.l...l.n.n.1X5X5X6X5X:Xl...H q 8 9 z z z l z 0 < 1 i c U.U.D.T c c c T L C C 8 t { o.D.9.0.1.$.#.1 > > i o.Y I i # - - i < < < < < 1 1 < < < < < < < 1 2 < ; 3 p m 0.w.w.8 M @.&.;.N.G.X.*.9.w.0.0.0.0.0.0.w.4.9.$.*. .<.8.aX,X<. .+. .| +.8.<XhX9.<.<.=.;.;.;.H L J L ` d.S.C.' / C $.0.0.A F F F a I T p.i.T U J c p 2 1 1 2 1 p p i i l x x c A J U J F s a i i p 1 1 1 1 p z z p 2 1 i i a x F t.K.C.M.` K P K c c l i i x l l l l c c c a c A.{.(.G.MXGXGXMXMXFXGXHXFXFXJXHXJXGXlXP.s.k.C.C.K.K.H.H.H.P.T.!.!.oXoX+X+XlXvX(.P.P.P.P././.P.I.!.+XlXlXlXnX+X+XkXkXHXHXMXlXvXlX+X+X@XlXIXIXJXNXvXmXmX#X@XlXxXVXVXmXlXlXvX@X@X@X@XlX@X@X@XlXlXlXlXlXMXMXlXlXlXxXxXmXmXmXNXmXMXmXxXlXlXxXxXxXxXMXNXNXvXvXvXlXlXxXnXxXxXxXVXlXlXlXxXxXxXxXkXkXwXwXwXwXwXwXwXwXwXrXrXwXwXrXrXrXqXqXqXqXqXqXqXqXqXqXqXrXqXqXqXqXqXqXqXqXrXrXrXwXqXwXrXrXqXqXqXrXwXwXrXwX0XzXnXnXcXcXzXcXzXzXkXkXzXcXlXlXvXvXlXlXVXvXvXlXvXvXvXvXlXlXxXxXxXxXxXxXxXxXxXxXxXlXxXkX8X8XcXnXVXzXvXvXMXVXcX^.W.W.^.(.+X+X+XlX+X(.kX+X(.^.v.v.v.x.v.v.c.v.L.L.U.m.U.^.W.v.^.8XT.T.P.G.b.v.v.G.J.G.L.G.H.H.!.oXoXI.I.!.!.!.(.P.c.v.c.K.sX@XmXNXVXvXxXxXHXVXMXBXlXlXVXMXxXnXnXPXJXMXu.e.e.e.e.e.e.e.e.e.H G G G H G G G G G G G G F D D D D D D D D D D D D D D F F H G G G G G H G G H e.H H Z.m.W.Q.E.E.6X6X5X5X4XE.x.n.>X6X6X6X6X6X6X6X6X6X6X6X6X6X6X6X6X6X6X6X6X6X6X6X6X6X6X6X6X6X6X5X5X5X6X:X:X:X6X6X6X6X6X6X6X6X6Xm.g.g.g.g.e.e.g.e.e.e.e.e.H H H H H H H H H H H H H H F D x x v x x x x v v v D x ..>Xz.H x [ [ [ [ [ v v [ [ [ l v v v v ;X3XhXhXaXaX'.fXdX}.dX}.dXdXfXfXfXdX0.0.<X,X;X;X:XtX3XhXKXFXFXFXLXLXKXCXCXCXCXCXyXyXyXuXtXtXtXtXtX:X:X:XtX:XtXyXyX3X3X3XtX",
"hX,X<XFXfXhXCXdX1XD.j...........g.l.z.z.n.>X4X5X5X:X:X>Xz.g.v 0 < z l 1 0 0 0 < 9 1 l o.T.T.h.J B c L P L B l v { } | +.8.1X8.<.M 2 > , L Y r.F # # - i 1 , < < < 1 < < < < < < < < 2 2 < < < 2 w $.0.w.y w M @.,.N.V.o.P =.0.0.9.9.0.dX0.0.0.9.9.<.+.+.+.<.,XD.+.+.+.+.+. .8.<X8.<.*.%.-.;.;.Y T P L ` N.I.C.N.' W M $.0.%.F D x D J U s.t.T U J c p 2 1 1 2 1 p p i i l x x c s A J J F c s a i 1 < < 1 1 1 i i i 1 i i a a F G Y Z.B.M.` J T P c x x x i a z l l l c c c a c N.{.{.H.xXFXGXMXaXaXdXsXaXaXfXsXdXfXsXK.y.k.H.K.K.V.H.H.H.P.T.(.!.!.!.!.T.lXxXlXI.P.!.P.P.T.I.I.!.+XvXMXMXVXkXkX+X+XHXJXHXlXvXvX+X+X@XlXJXJXJXNXvXmXmX@X@XlXlXVXVXmXlXvXvX@X@X@X@X@X@X@X+XlXlXlXlXlXlXmXlXlXlXlXvXvXvXvXvXvXxXmXmXlXlXlXxXxXxXxXxXvXVXvXlXlXlXvXnXnXnXxXxXlXlXlXxXxXxXvXcXkXwXwXwXwXwXwXwXwXwXwXwXwXwXwXrXrXrXwXqXrXrXrXrXrXrXrXrXrXrXrXrXwXwXqXrXrXwXrXrXwXqXqXqXqXqXqXwXqXwXwXwXqXwX0XbXcXzXkXbXbXbXzXkXkXxXcXlXxXvXvXlXlXnXnXvXvXvXvXcXcXlXlXxXlXlXlXlXlXlXlXlXnXvXlXcXkX(.8XlXxXHXMXxXxXxXMXcX^.W.^.Y.+XlXkXkXlX+X+XsX+X(.^.v.v.v.v.v.v.j.b.L.L.b.U.U.m.x.v.Y.8XT.T.Y.G.c.c.c.G.G.G.G.G.H.H.!.!.oXI./.!.!.!./.P.c.v.c.J.sX{.lXlXcXcXbXbXnXnXnXvXvXvXxXzXkX(.(.vXxXxXu.e.e.e.e.e.e.e.e.e.e.G G H G G G G G G G G G G G D D D D D D D D D D D D D D H G H G G G G H H H H G H Y Z.m.W.6XE.6X6X6X5X5X4XE.n.n.6X6X6X6X6X6X6X6X6X6X6X6X6X6X6X6X6X6X6X6X6X6X6X6X6X6X6X6X6X6X6X5X5X5X5X6X6X6X6X6X6X6X6X6X6X6X6Xm.g.g.g.e.e.e.g.e.e.e.e.e.H e.H H H H H H H D D H H H D D x v v v x v v x v v x H ..1Xg.H x [ ..[ [ [ v v [ [ [ l l v v v ;X3XCXfXdXaX'.MXdXaXdXaXdXdXfXdXdXaXaXdXdXl.;X:X:XyXCXCXDXCXCXCXCXCXCXCXyX3XhXCXyXyXtX1X;X;X;X:X:X:XtXyXyXyXyXyXyXyX3X3X3X",
"hX<X3XHXGXFXFXFXzX2Xz.o.o...H ....g.m.z.z.n.4X4X9X:X5X5X1Xg...v < 0 1 1 0 0 0 < z 2 2 v D.T.Z.T J c c P P B x c B } { | l.4X<X8.{ p , & p I r.Y < = - i 1 , < < < < < < < 1 < < < < 3 < < < < < : / 0.w.y e b { $.;.s.-.T :.9.9.<.<.9.<X0.0.4.9.9.<.+.+. .<.<X,X+.+.+.+.+. . .6.8.<.*.%./ ;.N.T T L J P N.S.I.C.;.( 9 #.0.9.L D x s J U y.t.T U J c p 1 1 1 1 1 2 i i i l l x x c c F F F D c a i i 1 1 1 1 1 i i i i i a c F D G Y o.N.` P c T P c l x x i l l l l l c c c x c M.{.{.f.zXxXFXfX'.A.'.F.1.1.'.A.'.aX'.S.s.y.K.K.K.C.H.H.H.I.T.(.T.+X+X!.{.lXxXnX+X!.!.H.P.P.I.I.!.+XvXMXMXFXlXkX+X+XnXHXJXlXvXvX@X+X@XlXVXMXMXVXNXNXmX@X@X@XlXVXNXlX@X#X#X#X@X@X@X@X@X@X+XlXlXlXvXlXlXlXlXmXmXvXmXmXvXlXlXlXlXMXlXlXlXlXxXxXxXxXxXvXVXvXlXlXlXlXnXnXnXvXxXvXlXlXxXvXvXvXcXkXwXwXwXwXwXwXwXwXwXwXwXrXrXrX0XrXrXrXrXrXrXrXrXrXrXrXrXrXrXrXrXwXwXrXrXrXrXrXrXwXwXqXrXqXqXwXwXqXwXwXwXqXwX0XbXzXcXkXcXbXbXzXcXzXnXvXxXnXnXvXvXxXnXnXvXvXvXcXkXcXxXxXxXlXlXlXlXlXlXlXkXzXcXkXcXkX(.cXvXMXVXMXxXxXxXxXkX^.^.^.Y.lXkXkXlXlX+X+XsX+X/.L.v.v.v.v.v.c.j.L.U.m.m.U.L.v.x.b.T.kXT.T.T.J.k.k.G.G.G.G.G.G.G.H.!.!.!.I.~.P.!.(.!.H.k.v.v.U.8XT.8X8XqXqXrXrXbXbXbXzXcXcXzXkX8X/.~.(.kXlXu.e.e.e.e.e.e.e.e.e.G G G H G G G G G G G G G G G G G G D D D D D D D D D D H G G G G G G G H H H H H Y o.Z.m.E.6XE.E.6X6X5X4X4XE.n.n.6X6X6X6X6X6X6X6X6X6X6X6X6X6X6X6X6X6X6X6X6X6X6X6X6X6X6X6X6X6X6X5X5X5X5X5X5X5X5X6X6X6X6X6X6X6X5Xg.g.e.g.e.e.e.g.e.e.g.e.e.H e.H H H H H H H D D H D F D x x v x v v v v x v v x H l.1X..D x [ ..[ [ [ v v [ [ v l l l v v ,XhXCXdXdXdXaXFXdXaXfXdXdXdXfXdXaX1.aXdX<Xl.;X:XtXyXCXCXSXyXyXyXyX3X3X3X3X3XhXhX3XtX:Xz.z.O.+.z.;X:XyXyXpXCXCXCXCXCXCXCXCX",
"hX3X3XFXIXHXFXGXGXCX0X+.z.j.H v D H g.+.z.l.4X9X3XyX9X9XzXD.O...z l < 1 9 9 9 9 z z 3 - o.D.T.h.L B p P P J b p p X.X.+.l.0X3X<X+.l 2 : & c r.j.c < & 1 , , < < < < < < 1 1 1 < < 1 3 < < 1 9 9 ; s $.0.w.N z v $.&.` i.T o.o. . .+.8.<.<.*.:.<.<.<.X.o.+.<.2X2X,X+.+.| D.+.O.6.+.<.>.-.' N.S.' P L K L o.C.f.C.N.,.b N $.w.o.H H d K i.t.t.U U J c z 1 1 1 2 1 1 1 i l i i l x x F D A A D F x x i i i i 1 i i i i i c F F F G G D a L L F c P P s i a a i i l l l l c c c x a J {.{.f.T.sXsX{.I.S.d.S.S.F.{.S.'.}.sXT.C.t.N.K.I.H.H.H.H.H.I.(.+XkXkXkXkXxXMXJXkX+XI.I.I.I.T.I.I.I.lXxXMXFXxXkX+X+XlXVXJXlXvXvXlX+X@X@XmXMXJXJXVXNXmX@X#X#X@XNXvXlX@X@X@X@X@X@X@X@X@X@X@XlXmXmXVXmXlXlXMXMXmXMXMXMXMXMXlXlXlXVXNXvXvXvXvXxXlXlXlXlXvXvXvXlXlXlXvXlXlXlXvXvXvXlXlXlXlXvXcX8XwXwXwXwXwXwXwXwXwXwXwXrXrXbXbXbXbXbXbXbXbXbXbXbXbXbXbXbXbXbXbXbXbXbXZXZXbXbXbXbXwXwXwXwXwXwXwXeXqXwXwXqXwXwXcXcXkXkXzXzXzXxXcXxXxXvXMXMXVXxXxXxXxXxXxXVXVXlXkXzXnXVXxXlXlXlXvXnXnXvXlXxXxXxXvXcX(.cXnXnXMXMXnXnXnXlX8XW.^.(.kXlX{.+XkXlX+X+XsX+X/.m.v.v.v.v.v.j.j.Y.U.m.m.^.U.m.x.^.T.{.Y.{.+XU.j.k.J.c.c.c.c.c.G.L.P.P.P.P.L.L.~.(./.G.u.m.7XwX7X^.^.^.eXeXeX9XbXZXZX0XcXkX2XnXnXbXwXkXkXkXe.e.e.e.e.e.e.e.e.G G G G G G G H G G G G D G G G G G G H H G G H H H D H G G G H H H H H H G H H H H Y h.K.W.4X6X6X6X6X6X9X4XE.E.E.E.6X4X6X6X6X6X6X5X4X6X6X6X6X6X6X6X6X6X6X6X6X6X6X6X6X6X6X6X6X6X6X5X5X5X5XtX5X5X6X6X6X6X6X6X6X6X4Xg.g.g.g.e.e.g.g.g.g.g.H H H H H H H H H H H D H H H H H x v x x x v v x x v v x ..l.1XH x x [ ..[ [ v v v [ [ v l v v v v <XhXfXaX'.}.fXFXdX'.fXdXfXFXFXfXaX#.aX<X<X1X>X3XyXyXyXyXyXtX:X:X3X3X3X<XhXhXhX<X3X:XO.+.O.l.:X:X:Xl.:X3XyXCXCXyX3XCXCXCXhX",
"FXhXhXhXGXfXaX4.gXfXCXCXD.o.j.z.j.j.........z.1X9XiXyXyXyX<X>Xg.L l l 0 0 9 9 0 0 0 3 7 l o.8XY.o.B B c L o.` b ; p ....{ 1X1X,X+.x l 2 * i D g.Y c , = , , , < < < < < 1 1 1 < < 1 < ; ; i i 9 < 2 V ,.w.$.N < @.&.&.i.T o.j. .+.+.8.9.D.z.+.+. .+.*.o.o.+.sXfXdX<.+.| [ <.,X<X8.8.<.:./ ' S.2.` T U Y L ` `.C.N.;.;.Z 0 w.9.*.e.w B I Y U J J B c p 2 1 1 2 1 1 1 2 l i i l x x x x a x F F F F x x c c c c x c c c c F F F F G F D H H L c L L s p s c i i l i i z c c c x a A '.{.].H.S.F.'.{.{.{.'.{.{.{.{.sXsX{.F.C.t.i.C.I.P.H.G.H.H.!.(.+XkXkXkXkXkXkXvX+XT.I.I.I.I.K.K.T.!.lXMXFXJXVXlX+X+XkXlXVXlXlXlXlX+X@X#XmXVXBXMXmXvXlXlX#X#X#XvXvXlX@X@X@X@X@X@X@X@X@X@X@XlXlXlXNXNXmXmXmXmXMXMXmXMXMXmXxXxXmXvXvXvXvXvXvXvXlXlXvXvXlXlXvXvXvXlXvXlXlXlXvXvXlXlXkXkXkXvXcXwXwXwXqXwXwXwXrXrXwXwXwXrXrXbXbXbXbXbXbXbXbXbXbXbXbXbXbXbXbXbXbXbXbXbXZXZXnXbXbXrXwXwXwXwXwXwXrXeXeXqXqXqXwXwXcXzXcXkXkXkXcXzXcXzXxXxXxXxXxXxXxXxXxXxXxXnXnXzXzXxXxXxXxXzXxXxXnXnXnXzXxXxXxXzXkX(.(.kXnXnXxXnXMXMXBXlX8X^.W.^.(.(.~.(.kXkXkXkXkXkX^.m.v.v.x.v.v.c.b.Y.m.m.n.L.m.v.v.~.P.P.L.P.T.L.c.G.L.c.c.c.c.c.c.L.L.L.L.L.~.~.~.~.v.v.g.7XqXqX7X7XqXrXeX9X9XZXZXbXbXbXwXwXrX0XwXqX^.cX8XY.u.e.e.e.e.e.e.e.G G G G G D D H G G H H D D D G G G G G G G G G G H H H H H H G H H H H H H G H H H D r.V.b.W.E.E.E.6X6X4X9X4Xn.x.E.4X6X5X9X9X9X4X4X6X6X6X5X5X5X5X5X5X5X5X5X5X6X6X6X6X6X6X6X6X5X5X5X5X5X5X:X:X:X6X6X6X6X6X6X6X6X6X>Xg.g.g.g.e.e.g.e.g.g.g.H H H H H H H H H H H H H H H H v v v x x v v v v x v v x ..z.>XD x x [ ....v v v v [ v v v v l v [ <XCXfXaXaXdXdXGXgXgXfXaXdXdXaX1.9.aXdX,X| 1X1X9XyXtXtX:XtXyXyX3X3X3XhXhXdXhXhXzX1X;XO.;X;X:X:X:X:XO.O.3XyXCX3X3XyXyXCXCXCX",
"GXhX0.dXFXfXdX,.aXgXFXdX<XD.j.j.l.g.........+.,X9XZXiXyX9X0X9X>X..v l 9 0 0 9 9 1 < 0 9 l C K.T.Z.L J c J o.M.C 0 s C C { z.z.z.....x 1 3 2 l H j.H p + - , < < < < < < 1 1 1 < < 1 < ; = i i i < 3 B / w.0.y ; M #.,.M.-.o.o.+.o.+.<XdX<XD.+.+.+.<.*.+.+...<XdXdX<.<.+.| <.<XdXaX<X8.*.=.,.,.4.,.` Y Y Y / S.C.N.M.B.P b y 0.1.e.+.L S I I J J B c p 1 1 1 1 1 1 1 1 i i i l x x x x x x x D F F D F F F c c c c c c c F F F D G G D H F F s c c i p i l i l i i i p c c c c s D B.{.{.I.{.}.lXlXxXxXfXxXxXxXMXMXMXlX{.T.K.K.K.P.G.G.H.P.H.P.P.(.(.(.{.{.(.(.+XT.T.I.!.!.I.I.P.I.!.+XxXMXMXlXlX+X+X+XlXlXlXlXlXlX+X@X#XlXmXmXmXlXvXvXmXlX@X@XvXlXlXlX#X@X@X@X@X@X@X@X@X@XlXlXlXvXvXlXlXlXmXvXvXvXvXlXlXlXlXvXlXvXlXlXlXlXlXlXlXvXvXlXlXvXlXlXkXcXcXkXkXkXcXcXkXkXkXkXcXcXwXwXwXqXqXrXrXrXwXqXqXwXrXrXrXbXbXbXbXrXrXrXrXrXrXrXrXrXrXrXrXrXrXrXrXbXbXbXbXrXrXwXqXqXqXrXrXrXeXeXqXqXqXwXwXcXcXkX8XkXkXcXkXcXcXzXcXzXkXzXzXzXzXcXcXcXzXcXcXcXcXzXzXzXzXzXzXzXzXkXkXzXcXcX8X2X8XkXzXnXxXzXvXxXxXxXkX(.^.W./.(.kX(.kXkXkXkXkXkXkX^.n.v.v.x.v.x.v.b.L.m.m.m.b.v.v.c.G.H.K.L.H.H.b.b.G.G.c.c.c.c.c.c.b.L.L.L.L.~.L.L.~.m.m.m.7X0X0X7X7XeXeX9X9XyXSXZXZXbX0X0XeXeX7X7X7X7XwX^.b.e.e.e.e.e.e.e.e.G G G G D D D D H H H H H H D D G G G G G D G G G D D H H H H G G G H G H G G H H H D h.J.m.4X6XE.E.6X6X5X9X4Xn.x.>X4X5X9X9X9X9X4X4X6X6X6X6X5X5X5X6X5X6X6X6X6X6X6X6X6X6X6X5X5X5X5X5X5X5X5X5X:X:X6X6X6X6X6X6X6X6X4Xm.g.g.g.g.e.e.g.e.g.g.g.H H H H H H H H H H H H H H H H v v x x x v v v x l v v x ..z.>Xx x x [ [ [ v v l v [ v l v z l v [ CXFXFXdXdXdXfXFXfXfXfXaXdXdX,X1.1.fX<X;XO.z.;X;X<XtXtX:XtX3X3X3X3X3XhXfXdXdXaX<X;X;X;X;X:X>X>X:X;Xl.O.3XyXyX3XtXtXyXyXyX3X",
"jXw.0.aXFXfXdX4.4.dXMX4.dXdXU.g.g.....j.j...6.,X3XCXCXyX5X9X9X9Xl.v l 9 3 3 0 l < < 0 9 1 z o.2XT.M.J s c T h.L C s z v o.+.o.g...o.C i p , < x j.Y c + - , < < < < < < 1 1 < < < 1 < ; + 1 i i 9 : p J 0.w.0.@ z Z ,.M.i.T o.o.o.+.dXhXdXU.+.+.+.D.+.+.+.[ D.sXfX1.<.<.| <.aXjXfXaX9.<.1.1.,.4.,.;.Y Y T K N.S.N.i.B.-.Z e 0.0.o.1Xo.c F J J B B c p 1 1 1 1 1 2 < 1 1 i l l l i i x x x x F F F F D D D x x c c c c a c c F F F F F H c a i x l i p i l l l i i p p z p c z c D T S.{.oX@XmXJXHXJXJXGXGXGXJXJXHXHXxXkXkXT.T.T.K.V.G.H.P.V.H.K.!.P.P.T.T.!.!.P.I.I.I.!.!.!.I.P.!.!.(.lXlXkX{.+X+X+X+X+X{.+X+X+X@X+X@X@X@XlXlXlX@X#XvXMXmXlX@X#XlXlXlX#X@X@X@X@X@X@X@X@X@XmXlXlXlXlXlXlXlXvXvXlXlXlXlXlXlXlXlXlXlXlXlXlXlXlXlXkXlXlXkXkXkXkXkXkXcXcXcXkXkXkXkXkXkXkXkXcXcXwXqXwXqXrXrXrXrXrXqXqXqXwXwXwXrXrXrXrXrXrXrXrXrXrXrXrXrXrXrXrXrXrXqXwXrXrXrXrXqXqXqXqXqXeXrXrXrXrXeXqXqXqXqXwXcXcX8X8X8XwXwX8XwXwX8X8X8X8X8XwXwXwX8XwXwX8XkXwXwXwXwX8X8X8X8X8X8X8X8X8X8XwXwX8X8XzXnXzXzXzXkXvXcXcXkX^.^.^.^.(.kXkXlXkXkXkXkXkXsX(.m.x.v.v.x.v.j.v.b.b.v.m.m.v.v.k.H.G.G.H.c.c.y.c.L.c.c.u.c.c.c.c.b.b.L.L.L.L.L.b.L.^.^.7X7X1X0X0X7XqXeXuXyXyXZXDXZXZXZXyX9XeXeX9X7X7X7X7Xm.x.e.e.e.e.e.e.e.G G G G D D D D D D D H H H G G G D G G D D D H G H D H H H H H H G G H H H H G H H H H h.b.m.4X6X6X4X6X6X9X9X4Xm.l.1X9X9X1X9X9X5X4X6X6X6X6X6X6X5X6X6X6X6X6X6X6X6X6X6X6X5X6X6X5X5X5X5X5X5X5X5X5X5X6X6X6X6X6X6X6X6X4Xm.g.g.g.g.e.g.g.e.e.e.e.H H H H H H H H H H D D D D v v x v x x l v v x v l v v x z.z.z.x x x [ [ [ v v l v [ v v v l l v [ CXFXFXgXaXdXgXfXdXdXfXdXdXdXD.1.,XzX,X;X+...O.;X;X5XtX:X:XtX3XyX3X3XhXfXdX0.0.,X;X;X:X:X:X5X:X:X;Xl.O.3XyXyXtX:X:XtXtXtX3X",
"jXjXhXhXhX<X<X,XB.F.'.4.fXFXsXz.l.l.O.g.z.9.hX3X1XZXCXCX3X3X9X9X>XO.v < < 3 0 z 1 0 0 1 z l 1 F.2XT.I F F c } X.P x - 9 o.#.#.X.o.1.=.Z p , , 2 Y r.Y 1 < - < < < < < < < 1 < < < 1 < ; = 1 1 1 < : < p / w.w.y < b @.;.` T L Y Z.,XhXFXxXdXz.1X2XzX+.z.D.+.<.<XxXaX,X+.6. .<.dXjXdX9.<.9.1.! ,.,.,.P J I U T N.C.C.T ` ;.* $.0.9.z.z.o.u s s s c c p 2 1 1 1 1 1 < 1 1 i i z l l i a a i x x c x x a a a x x x c c c a c c c x F c s c a i p l l l c l l l l i i l z z z c c c a c L T I.{.lXnXHXFXFXxXxXxXfXsXsXkXlXlXlXlX(.T.2XT.P.K.V.C.K.K.H.P.P.!.P.!.!.!.!.!.!.!.!.!.!.P.!./.I.+X+X+X+X+X+X+X+X+X{.+X+X+X{.+X+X+X@XlXlXlXlX#XlXlXmXmX@X@X@X@XlX@X@X@X@X@X@X@X@X@XlXmXmXlXlX@X@XlXvXlXlXlXlXlXlX@XlXlX@XkXlXlXlXlXlXlXkXkX+X+X+X+XkXcXkXkXkXkX8XkXkX8XkXkXkX8X8XcXwXwXqXwXwXrXrXrXrXrXqXqXqXqXqXqXqXqXqXqXqXqXqXqXqXqXqXqXqXqXqXqXqXqXqXqXqXqXeXeXqXqXqXqXqXeXeXeXeXeXqXqXqXqXqXqXwX8X8X8X8X8X8X8X8X8X8X8X8X8X8XwXwXqX8XwXwX8X8XwXwXwXwXwXwX8X8X8X8X8X8X8X8X(.(.2X8X8X8X(.7X7X^.~.8X8X^.^.W.m.Y.8XkXkX(.8X8X(.8X8X{.L.v.x.v.v.v.x.j.b.J.b.v.m.W.v.b.K.{.I.K.Y.K.J.c.V.J.c.r.k.k.c.J.L.L.L.L.^.^.L.v.U.8XzXzXbXAXZXbX0XrX0XZXDXDXAXCXZX0XrXiXuXeXeX6XeXrX0X9Xm.x.u.u.e.e.e.e.G G G G G G G F D D D D D D H H H G G D H H G D H G H G G H G H H H H G D D D D F H H H G H j.b.n.4X4X4X4X4X4X9X1X>Xn.z.>X>X>X>X>X4X4X6X6X6X6X6X6X6X5X5X5X5X5X5X5X5X5X6X6X5X5X5X5X5X5X5X5X5X5X5X5X5X5X6X6X6X6X6X6X6X5X>Xx.g.g.g.g.g.g.g.e.e.e.e.e.H H H H H H H H H D v v D v v v v x x l v v v v l v v x z.z.z.i c c [ [ v v l l v [ l l l z z [ +.FXfXgXdX0.aXaXfXF.D.aXCXCXfXD.dXdX,X+.+.z.z.;X;X;X;X:X:XtXtXtX:X3X3XhXfXdXaXaX:XtXtXtX:X>X9X>X;X+...O.;X<X:X:X:X;X3X:X:X:X",
"hXjXhXdX8.<.+.<.j.o.} A.aXfXjXaXD.j.g.g.z.aX<X<X<X;X9XyXCXCXiXyXeX>X..l , 3 3 p l 9 < z 0 9 < X.T.kXt.Y L c B T M.C z l z X.%.&.&.4.'.A.i 1 3 3 s I h.D 1 - < < < < < < < < < < 2 1 < ; ; 9 < < < < < 7 s 0.w.w.8 w C =./ P o.K X.<.hXFXFXhX2X2XsXfX2XD.D.D.D.,XfXaX,X;X+.+.8.9.dXdXdX2XF.1.&.&.1.F.&.U U t.J a.N.d.i.N.,.V { $.0...z.,Xo.c s s c c z 2 2 2 1 1 < < 1 1 1 i l c c x i i i a a x x F c x x c c c F F F F F F F c c x l B z l l i i i l i p z l l i l z z z c c c g x x x T t.Z.T.+XlXxXVXMXxXMXMXxXxXlXlXfXMXsXT.T.T.2XT.T.K.H.H.P.P.P.!.I.I.I.T.!.I.I.I.I.I.!.I.T.T.I.T.+X+X+X+X+X+X#X+X+X@X+X+X{.+X+X+X@XlXlXlXlXlXlX@XlX@XlX@X@X@XlX@X@XlX@X@X@X@X@X@XlXlXlXlXvXvXlXlXlXlXlXlXlXlXlXlXlXlXlXlXlXlXlXlXlXlXlXlXkX+XkXkXkXkXkXcXcXcXkXkXkXwX8XkX8X8X8XcX8XwXqXwXwXqXqXqXqXqXrXqXqXwXwXwXwXwXwXqXqXqXqXqXqXqXqXqXqXqXqXqXqXqXeXqXqXqXeXqXqXqXwXwXwXrXrXeX9X9XqXqXqXqXqXqXwX8XwXwX8X8XwXwXwXwXwX8XwXwX8XkXkXzXkXkXkXzXkXkXkXzXkXkXkXkXkXkXkXzXkXkX2X(.(.1X1X^.^.^.^.U.U.8X2XT.L.^.^.m.T.(.(.~.(.(./.Y.(.8XsXW.W.n.v.v.x.x.L.Y.(.U.b.v.v.v.J.I.].I.J.c.V.c.c.V.c.c.c.K.G.G.G./.~.Y.L.L.L.L.(.zXCXCXCXZXbXZXbXzXAXAXAXAXHXAXAXZXiXeXeXuXiXiXtX0X0X9Xm.x.e.e.G e.e.e.G G G G G D D F F F D D D D D F H H G D D H H H H F G G G G H G H H H G D D D D H D x H G D Y j.b.>X4X4X4X4X4X4X9X1X>Xn.>X>X>X>X1X>X>X4X6X6X6X6X6X5X5X5X5X5X5X5X5X5X5X5X5X5X5X5X5X5X5X5X5X5X5X5X5X5X6X6X6X6X6X6X6X5X5X5Xn.g.g.g.g.e.g.g.g.e.e.e.e.H H H H H H H H H D x x x v v v v v l l l v l l v l v v x z.z.l.i l v [ [ v v l l v [ l l l z l [ ,XFXfXgXhXdX}.'.'.2X<XsXzXaX,X<X<X<Xz.+.+.O.1X;X;X;X1X9XyXtXtX:X:X3XhXhXhX0.0.<XtXyXyXyX3X:X:X>X+.O.O.O.;X:X:X:X:X;X:X:X:X:X",
"0.hXhXhX{  .+.X.....{ :.F.aXfXdXT.j.j...+.9.9.<X<X;X>X9XyXZXiXiXZX9X;Xv , 3 0 < p 9 1 l 2 9 9 z Z.kXK.T I F c T M.Z c c z L @.&.! 4.'.'.c i 3 3 u F h.r.l < - < 1 < ; < < 1 < 1 1 < < < < < 1 < < 1 < < i ,.0.w.y e M $.Q / o.K X.<.dXCXhXhXsX2X2XsXsX2X1X,X,X,X2X<X,X,X<.+.+.8.,XdXfXdXaXF.>.&.1.1.&.` T Y J ` N.S.V.C.N./ M $.0.*.D.1XD.c s c c c p 2 < 2 2 1 1 < 1 1 1 1 p p l l i i i i i c c c x x x c c c c c F F F F c c x z z P B z l i i i i i p p p i i i l l i l c c f l x x c F G h.Z.F.T.lXlXxXMXFXMXMXlXlXlXMXsX2XT.Y.T.T.T.T.T.P.K.P.P.P.!.P.K.T./.T.K.T.I.I.I.T.T.T.I.I.T.+X+X+X+X+X+X+X+X@X+X+X{.@X+X@X@X@XlXlXlXlXlX@X@X@XvX@X@X@X@X@X@X#XlX@X@X@X@X@XlXlXlXlXvXNXmXlXlXlXlXlXlXmXmXxXlXlXlXlXlXlXlXlXlXxXxXlXlXkXkXkXkXkXkXkXcXkXkXkXcXkXkXcXcX8X8X8X8XwXwXwXwXwXqXqXqXeXrXrXrXqXwXwXwXwXwXwXrXqXqXqXqXqXqXqXqXqXqXqXqXqXqXqXqXqXqXqXqXqXqXrXrXrXeXeXeXqXqXqXqXqXqXqXwXwXwXcXwXwXwXwX8XwXcX8XcXwX8XkXkXzXkXzXzXzXlXkXkXzXkXzXzXzXzXzXzXzXkX8XT.(.^.1XU.Y.^.^.^.U.U.8XY.Y.L.~.^.^.Y.^.^./.(.(.^.Y.(.(.{.m.m.m.v.v.v.b.Y.T.T.U.b.v.v.c.J.I.I.H.G.c.G.c.c.s.c.c.J.I.H.G.G.L.~.~.L.Y./.(.cXnXCXhXZXbXwXbXzXzXAXHXHXAXAXAXAXZXZXiXeXyXiXyX9X1XU.m.g.e.e.H G G G G G G G G G D D D D D D D D D D F D D D D D F H H F F H H G H H G H H H D H D D H D D D H D D o.j.m.6X6X4X4X>X4X4X9X>Xm.m.n.>X4X4X9X>X>X>X6X6X6X6X5X5XtX5X5X5X5X5X5X9X5X5X5X5X5X5X5X5X5X5X6X6X6X6X6X:X6X6X6X6X6X6X6X6X6X5Xn.g.g.g.e.e.g.e.e.e.e.e.H H H H H H H H D D D x x x v v v v v l l l x l l z l v x x D.z...i z v [ [ v v l l v [ v l l z 9 { ,XhXfXfXdX'.4.1.F.,X<XfXsX,X<.,X,X,X+.D.+.O.;X;X;X;X1X9XtX:X:X:XtX3XhXhXhX0.aX<XtXCXCXyXtX:X:X:XO.O...O.;X:X:X:X:X:X;X:X:X:X",
" .0.hXhX[ [ [ } { { { ..o.:.,XdXT.Z.b...[ +.<.<XdX<X;X:XtXyXyXZXAXSX9X..& 0 0 : 3 < 9 2 2 1 z 1 X.F.zXM.J I F P -.X.c c x C } @.Q ] 4.aXL z < 0 a A I k.F i - 1 1 1 + ; < i - - , < < < < < < < < < 2 2 + L 4.w.y y 2 { #./ r.L o.+.<XfXfXdXsXT.U.D.zX2X2X2X<X,Xz.,X,X,X<.+.+.+.+.,XdXxXxXsXD.=.=.&.@.;.` U t.U M.S.K.V.s.;.v { 0.0.D.m.<XL i c c s p , ; < 1 i 1 1 1 1 1 1 p 1 2 z l i i p p z z x l a a c c c c c c c c c c a a b Q ,.Z p i x x i i i p i i i i i p z p i p p z c c c c x a c F J Y V.T.sXxXMXMXMXlXsX+XkXfXsX2XL.U.U.T.kXkXT.K.K.P.T.T.P.K.Y.(./.Y.Y.Y.P.Y.T.P.I.I.T.T.T.+X+X+X+X+X+X+X@X@X@X@X+X@X@X+X+X@XlXmXvXlX@X@X@X#X#X@X@X@X@X@XlXlX@X@X@X@X@XlX@XlXlXlXmXmXMXlXlXlXxXMXMXMXMXlXlXlXvXlXlXlXxXMXMXMXlXlXkXlXlXlXlXlXlXlXlXlXlXlXkXkXlXnXcXkXwXwXwXwXqXrXrXqXqXqXqXrXrXrXqXwXqXqXqXqXqXqXqXqXqXqXqXqXqXqXqXqXqXqXqXqXqXqXqXqXqXqXqXqXeXeXeXeXeXeXeXeXqXqXqXqXqX7XcXcXkXcXbXcXcXcXcXcXcXcXcX8XkXcXnXzXzXlXkXzXzXkXkXlXkXkXzXxXnXzX8X8X^.^.^.^.^.Y.Y.U.Y.(.(.7X^.W.W.~.Y.^.^.^.^.(.kX2X(.^.Y.8X2XT.m.v.v.m.x.j.K.T.T.T.U.L.L.v.c.G.G.G.H.G.G.L.H.H.c.c.K.I.I.H.G.c.v.L.^.L.(.kXnXAXxXxXzXcX8X(.nXxXxXVXHXHXKXAXAXAXAXKXAXZX0X0X7XU.g.e.G e.e.e.e.G G H D G G G G G D D D D D D D D D H F D D D D D D D D D H H H H H H H H H H H H H H H H D D G D x h.b.m.6X6X6X6X6X7X7X5X>Xm.m.n.1X1X9X4X4X>X>X>X5X5X5X5X5XtX9X9XuX5X5X5XuX5X5X6X5X5X5X5X6X6X5X5X6X6X6X6X6X6X5X6X6X6X6X6X6X6X>Xx.e.g.g.e.e.e.e.e.e.e.e.H H H H H H H D x x x x v v v v v v v l l l l l l l l v x x U.z...i l v [ v v l l l v [ v l l v 9 { <XfXfXdXaX4.,.=.<.9.dXFXdXD.{ 8. . .8.<X,X;XO.;X1X9X9X:X:X:X:X3XyX3XhXhX0.0.aX<X3XCXCXyXtX:X>X:XO.O...+.;X;X:X:X:XtX;X;X;X;X",
"$.0.aXdX<.o.Y o.v v ..z...v v o.z.U.j.g.g.j.D.D.+...l.l.n.>X>X>X9X5X5X9X..l , 0 < 9 0 0 1 l C z z C kXT.Z.J C L Y M.L z 9 9 b / 1.! ! 4.'.} 9 9 , 5 g Y Y F - ; < < - < < - < < < < < < < < < < < , < < : 2 @.0.w.4.w 7 @.( U o.} { D.CXCXhX,X<X1X9X0X2X2X2X2X2X1X,X,X,X,X,X,X,X<.<.aXLXjXdX0.9.<X<X9.2XD.o.I J T M.a.) W ,.X.{ @.w.<.....z p p B B B p p 1 > 1 1 1 1 1 1 1 i 1 2 z i i i i i i i i i i i s c c c c c c c c c l i n ! ,.Q f > i a x i i i i i i i p p p p z z z l c c c c c c c x F F x c c L A.T.kX{.{.{.sX}.sXsXdXT./.^.U.T.(.sX(.Y.Z.T.T./.P.K.K.T.2XT.T.T.T.I.I.I.I.I.T.T.T.+X+X+X+X+X+X+X+X@XvX@X+X+X+X@X@XlXvXvXlX@X@X+X@X@XlX@X@X@X@XlXlXlX@X@X@XlX@XlXlXlXlXlXlXlXvXlXlXlXlXlXlXlXlXlX@X@XlXlXlXlXlXlXlXlXkXkXkXkXlXlXlXkXkXkXkXkXkXkXkXnXkXkXwXwXwXwXqXqXqXqXqXeXeXeXrXrXqXqXqXqXqXqXqXqXqXqXqXqXqXqXqXqXqXqXqXqXqXqXqXqXqXqXqXqXqXqXeXeXeXeXeXeXeXeXrXrXrXqXqX7XwXcXbXkXzXzXkXkXkXzXkXkXkXkXkXcXnXcXcXcXkXcXcXkXkXkXkX8X8X8X8X(.Y.Y.Y.Y.^.^.^.^.^./.(.(.^.^.L.U.^.^.~.~.Y.T.T.sXkX^.Y.T.kXlXkXY.b.v.v.v.G.P.P.b.b.b.J.V.C.I./.P.J.K.K.V.h.j.x.v.Y.I.S.S.k.j.c.L.Y.kXlXsXkXzXnXkXkX+X@XmXMXgXmXmX@X}.MXFXHXAXAXAXAXAXzX1Xg.e.H H e.e.e.e.G G G G H H H D D D D D D D D D x x D D D D D D D D D D D D D D H H H D D D H H D H H H H H H H H H G D x k.m.n.6XE.6X6X6X4X4X5Xl.l.l.>X9X9X>X>X>X4X5X5X5X5X5X5X5X5X5X5X5X5X5X5X5X5X5X5X5X5X5X5X6X6X6X6X6X6X6X6X6X6X5X6X6X6X6X6X6X6Xz.g.e.e.e.e.e.e.H H H H H H H H H H H D D x x v x v x x x l l l l l l l l l l l v x D U.z.H i l v v v v l l v v v l l l v v +.dXfXfXfXdX4.4.F.>.<X<XdXF.F.F.*.$.1.fXdX0.0.dXaX<X<X<X:XtXtXtXtXtX3X3X<XdXaX<X,X3XCXyX:X:X;Xz.z.o.o.[ z.;X;X;X;XO.5.O.O.;X<X",
"$.$.0.fX<.o.Y Y v v ..z.o.v v o.h.D.h.j.j...z.D.+.....l.l.z.z.z.>X>X>X5Xl.v 2 z 9 9 0 0 0 z C z z z T.2XF.J L I I t.L C z z b Z ,.! ! $.'.&.v 9 : : 0 F h.I 1 ; ; < 1 1 < - < < < < < < < < < < < < < ; 3 , C A.w.0.y < Q / / Y L o.h.<XhXhX,X,X1X1X1X2X2X2X2X2X2X<X<X2X2X2X2X2XD.<XdXFXfXdXaX9.<X<X<X2XF.B.T K K ` C.a.( &.Z C M w.9.o.D p p 2 B B B s s p p p 2 2 i 1 1 1 i 1 1 p 1 1 i i i i i i i i i p c c i i a c c c z l i V ,.,.Q g 2 p p x a i i i i i i i p p l l l l l c c c c c c x x c c l x c F T Z.K.T.{.sXfXlXlXfXdXsXkX/.^././.T.T.T.Y.T.T.T.Y.T.T.Y.T.T.T.T.T.T.T.I.T.I.T.T.T.T.{.+X+X+X+X+X+X@XlX@X@XlX@X@X@X@XlXlXlXlXlX@X@X@X@X@X@X@X@X#XlXlX@XlXlXlXlXlXlXlXlXlXlXvXvXvXvXlXlXlXlXlXvXlXvXvXvXlXlXlXlXvXvXvXvXlXlXlXvXvXvXlXlXlXlXvXcXcXcXnXkX8X8XwXwXwXwXqXqXqXeXeXeXrXeXrXqXqXqXqXqXqXqXqXqXqXqXqXqXqXqXqXqXqXqXqXqXqXqXqXqXqXqXqXqXqXeXeXeXeXeXeXeXeXeXrXrXqXqX7XwXbXzXzXzXzXkXkXcXzXzXzXzXzXkXcXnXcXvXzXzXnXnXcXzXzXzXkX8X8X(.^.^.^.^.^.^.^.^.^.^.(.(./.^.^.U.^.^.Y.Y./.(.T.T.(.(.^.8XsXsX8XT.m.m.n.v.b.P.P.P.K.K.J.J.V.V.K.H.P.P.I.J.c.j.c.c.b.T.I.I.K.v.j.J./.T.sXlXlXlXzXcX@X@XlXmXmXmXgXmX&X&X&XNXVXMXAXAXAXnX8XU.b.g.e.H H H H G G G G D H H H D D D D D D D D D D x x D D D D D D D D D D D D D D D H H D H D H H D D H H H H H H H D F D D j.m.n.6XE.E.6X>X4X4X4Xm.z.l.>X9X1X>X>X>X>X5X5X5X5X5X5X5X5X5X5X5X5X5X6X5X5X5X6X5X5X5X5X6X6X6X6X6X6X6X6X6X6X6X6X6X6X6X6X6X5Xz.g.e.e.e.e.e.H H H H H H H H H H H D D x x x x v x x x x l l l l l l l l l 9 l v v H D.z.D i l v v v l l l v v v l l l l l o.<XdXdXdXaX4.4.1.>.<X<X,X=.<.F.} $.4.dXgXq.0.q.0.0.9.<X,X:X3X:XtX3X3X3X<XdXdXaX<X3XyXyX5X:X;XO.+.o...O.+.;X;X;X;X;X;X5.;X;X;X",
"$.#.1.hX<.X.H F o...H +.{ [ L o.o.o.o.Z.k.H ..o.D.o.o.o.j.l.l.l.l.z.m.4Xz...p z 9 9 3 z z z v z 2 p -.sXT.T Y G F T X.L c c b m &.,.! &.4.,./ p : 7 9 c h.t.c ; ; ; 1 1 , ; < < < < < < < < < < < < - ; 3 , s r.w.w.y > M @.&.r.Y Y r.D.,X<XD.z.z.,Xz.,X2X2X2X2XsX2X2X2XdXaXsXzX2XsXsXdXaX2XsXF.F.F.,X2XF.B.M.T K K K.N.&.Q C z p dX9.<.u i p , p B B J J c c b p p p p i i i 1 1 i 1 1 9 1 1 1 i i i i i p p p i i i p p p l l i Z ,.,.Q m 2 p p c a a i i i l i i i l l z l l z l c c c c c c c x x l x x a D I t.F.{.sXxXMXMXxXfXfXsXsX8X(.^.^.T.T.2XY.Y.Y./.(./.Y.Y.Y.K.K.P.I.I.T.I.I.I.T.T.T.T.+X+X+X+X+X+X+X@X@XlXvXlXlX@X@X@XlXvXvXvXlX@X@X@X@X@X#X#X@X@X@XlXlXlXlXlXlXlXlXlXlXlXvXmXmXMXMXxXxXxXMXMXVXVXVXVXVXnXnXvXnXnXnXnXxXxXxXvXnXnXxXzXlXvXvXvXcXcXcXkX8XwXwXwXwXrXrXrXrXeXeXeXrXrXeXqXqXqXqXqXqXqXqXqXqXqXqXqXqXqXqXqXqXqXqXqXqXqXqXqXqXqXqXqXqXrXeXrXeXeXeXeXeXrXrXrXqXqX7XwXcXcXbXzXzXcXcXcXbXbXzXbXzXzXcXnXzXzXnXnXnXnXnXzXzXzXkX8X(.^.^.^.^.^.^.^.^.^.^.(.(.(.^.^.Y.^.^.W.J.Y.T.8X8X(./.Y./.kXlX2XY.U.v.n.n.v.Y././.!.T.T.Y.J.c.c.c.k.K.T.I.b.v.v.b.J.K.I.I.H.J.v.b.Y.kX{.sXlXxXlXvXkX@X@XmXBXmXmX}.mX&X@XNXNXmXlXnXnXzXzXb.j.e.e.H H H H G G G D D D H F D D D D D D D D x x x D D D D D H D D D D D D D D D D D D D H H D H H H H H H H H H H H D F D H j.n.n.6XE.6X6X>X5X5X4Xm.z.z.>X>X>Xn.>X>X>X4X>X>X>X>X5X5X5X6X6X6X5X6X6X5X5X5X6X5X6X6X5X6X6X6X6X6X5X6X5X5X6X6X6X6X6X6X6X6X5Xj...H H H H H H H H H H H H H D D D D x x x x x v x v x l l l l l l l l l 9 9 l l v H z.j.x i l v v v l 9 l v v l 9 l l l l X.<XaXdXdX4.4.4.,.>.,X<X<.} =.1.N $.4.q.q.q.q.q.q.0.4.0.9.,X<X<X<X3X3X<X<XdXdXdX<X3X9X9X5X:XO.O.O.....O.O.;X;X5.;X;X;X5.;X;X5.",
"aX$.$.9.9. .[ v +.o.C q X.*.X.X.%.%.*.M.M.o.H o.+.D.L L L o.z.z.l.m.>X>X>Xz.L > l 2 2 9 l l z z z b , F.2XT.e.G L C o.Y F x z C Z ,.,.( ,.,.&.c 9 9 1 a Y t.y.1 ; ; 2 - , 7 , , < , < < < < < < < < ; ; 3 p a a 4.w.w.w 0 e y y.r.Y L o.Z.D.D.B.D.1Xb.2XzXzXT.D.F.U.D.B.K.K.Y.T.K.K.Z.M.i.M.M.C.a.i.T P T T T P L C W ( ;.P F x u <.9.9.u i i i 2 2 p c s c B B c c B B B B c c z z i i 1 1 1 1 l p p p p l i i i i i p p p l l l M Q Q Q Z p p i z i i l l l l l z l l x c c x l l l i x x c c c c c x x x x x x x c o.B.sXdXsXT.H.T.sXdXlX{.T.wX(.^.^.Y.U.J.L.P.Y.Y.2XT.T.K.P.P.I.I.I.I.I.T.T.T.T.T.T.+X+X+X+X+X+X+X@XlXlXlXlX@X@X@X@XlXlXvXlX@X@X@X#X#X#X@X@X@X@X@X@XlXlXlXlXlXmXmXmXmXMXMXMXMXMXMXMXMXMXMXMXxXxXxXxXvXvXvXxXvXlXcXcXkXkXkXkXkXkXkXkXkXcXkX8X8X(.(.8XwXwXwXrXrXrXrXrXrXrXrXrXeXqXqXqXqXqXqXqXqXqXqXqXqXqXqXqXqXqXqXqXqXqXqXqXqXqXqXqXqXqXqXeXeXrXeXeXeXrXeXeXeXeXqXqX7XwX8X8X8X8X8X7X(.8X8X8X8X8X8X8X8X8X8X8X8X8X8X8X7X7X^.^.^.^.^.^.^././.Y.Y.Y.Y.Y.8X8X8X8XY.U.U.U.L.L.Y.^.^.Y.U.^.~./.kXkX8XJ.U.L.b.K.I.T.T.T.T.8XG.V.k.k.v.L.~.K.S.I.L.j.k.V.I.I.I.H.y.s.G./.+XlXVXlXlXlX{.{.{.@XgXmXmX@XoX#XNXMXfXfXlX@X@X{.HXkXU.H H G G e.e.H G D D D G F F D D D D D D D D x x x x x x D D D H H H H D D D D D D D D D D D D H D D H H H H H H H H H H H F F F o.m.m.E.6XE.6X4X>X4X4Xm.v.z.z.z.m.m.4Xn.>X>X>X>X>X>X>X>X5X5X5X5X5X5X6X6X5X9X5X5X5X5X5X5X:X5X5X5X5X5X5X5X5X5X6X6X6X6X6X6X6X>Xo.H H H H H H H H H H H D D D D D x x x x x x l l l l l l l l l l l l l 9 9 9 l l v ..z.o.x l l l l l 9 1 l v v l 9 9 l 9 [ +.zXCXfXdX1.dX}.1.<.1.<.*.<.=.&.&.4.0.dXgXgXgXgX0.0.q.4.4.0.0.aXdXfXhXhXfXdXgXdX<X:X:X:Xl.;X+.o.[ ..O.;X;X;X;XO.;X;X;XO.5.5.O.",
"aX1.$.y 0.$.{ [ [ [ ..[ { X.X.C L X.B.o.o.o.o.L L :.o.T J D H H L L L ....F c c v v z l 9 l l z z z 2 X.F.zXt.T L J h.Y D l l c L ,.4.,.,.,.,.;.c i 1 p c L V.F 2 ; < - , 9 - , < < < < < < < < < < < < < i i , ` 0.w.y w w y %.T I L o.h.h.o.o.o.o.h.M.<.Z.Z.h.o.o.o.:.o.o.o.o.:.-.-.-.-.-.-.-.%.X.X.P X.X.T T Y I H Y t.Y J V Q 4.w.w.C p i c 1 1 1 z i p p p z c s B B B B c c c B z p 2 1 i l p p p p i i i i i i i i i i i i z b m n C z i i p i l l i l l l l l l z l l l z l i a a x x c c c c a c c x x x x x F Y M.F.T.T.J.c.Y.kXsXsX{.T.2X2X8X(.Y.L.J.L.L.~./.(.T.Y.K.P.P.I.I.I.T.T.T.T.T.T.T.T.+X+X+X+X+X+X+X@X@X@X@X@X@X@X@X@X@XvXlXlX@X#X#X#X@X@X@X@XlXlXlXlXlXlXlXlXmXmXmXlXmXMXMXxXxXlXvXvXvXvXlXlXlXlXvXvXvXlXzXzXzXbXcXkX(.(.(.cX8X(.(.(.(.(.(.(.(.(.wXwXwXqXqXqXqXqXrXeXeXrXrXrXqXqXqXqXqXqXqXqXqXqXqXqXqXqXqXqXqXqXqXqXqXqXqXqXqXqXqXqXqXqXeXeXrXeXeXeXeXeXeXqXqXqXqXqX7X7X^.7X7X7X^.^.7XqX7X7X7XqX7X8X7X8X8X8X7X7X7X^.7X^.(.8X8X8X^.^.^.^.^.^.8X8X8X8X8X8X(.U.L.L.L.L.L.L.^.^.m.^.8X8XY.Y.Y.U.v.m.m.U.T.T.{.+XI.P.J.c.b.b.c.J.L.P.G.G.G.j.K.I.].F.K.G.G.G.I.+X{.lXlXlXsXlXlX{.@X@XlXlXlXlX@X}.mXBXMXlX{.I.@XlXlXT.j.e.e.H G e.G G F D D D D D D D D D D D D D D x x x x x x x D D D H H H D D D D D D D D D D D D D D D D H H H H H H H H H H H H x F h.m.m.E.E.E.E.4X4X4X4Xm.j.z.m.z.m.n.n.m.m.m.>Xm.m.m.>X>X5X5X5X5X5X9X5X5X5XrX9X9X5X9X9X9X9X9X9XeX9X9X0X9X9X9X6X6X6X6X6X6X6Xm.Y H H H H H H H H D D D D D x x x x x v v l l l l l l l l l l l 9 9 9 l 9 9 9 l l v o.z...x 9 9 l l l 9 1 l v v l 9 9 l 9 [ +.<X<X,X1.=.'.'.=.*.=.>.=.F.>.@.1.dXjXjXjXjXjXjXgXgXgXq.q.}.gXdXgXjXGXjXjXjXgXdX9.6.;X;X;X;XO.[ v ..O.O.;X+.O.O.;X;XO.;X6.5.6.",
"1.1.1.$.0.1.*.{ { { } v C C } z C P -.o.o.M.o.o.C o.M.-.L c x x B c v v v x x c L ....v l l l z z z p z :.sXK.M.T F T Y F x l l C 4.4.4.,.4.4.4.B p 2 p 2 J k.I z < ; , < 1 , , < < < < < < < < < , 1 1 ; 2 , + A 1.w.w.e 0 e #.P Y o.Y Y r.j.r.o.o.o.o.o.o.o.o.o.Y o.o.X.X.o.X.o.X.X.-.-.-.-.X.X.X.X.} %.%.-.-.-.` / &.>.=.$.4.3.3.w.w.$.z i c l 1 1 z i i p i a i p p B B c c c B K V n p 2 i i i 2 2 p i i i i i i i i i i i i p p p c c p i i p p p p i i l i l z z z z l l l l i a c x x c c c c s c c c x x x x F F G N.K.T.U.c.L.(.2XsXsXsX2XT.T.8X(.^.Y.L.L.L.~./.T.Y.Y.Y.P.K.K.P.I.I.T.T.T.T.T.T.{.oX+X+X+X+X+X+X+X+X+X@XlXlX@X@X@X@XlXlXlX#X@X@X@X@XlXlXlXlXlXlXlXlXlXlXlXvXvXlXlXlXlXlXlXlXvXvXvXvXlXkXkXcXcXcXcXkXkXzXzXbXcXkX(.(.(.8X8X(.(.(.(.(.(.(.(.(.wXwXqXqXqXqXqXqXqXeXeXrXrXrXqXqXqXqXqXqXqXqXqXqXqXqXqXqXqXqXqXqXqXqXqXqXqXqXqXqXqXqXqXqXeXeXrXeXeXeXeXeXqXqXqXqX7XqXqX^.^.7X7X^.^.^.7X7X7X7X7XqX8X8X8X8X8X8X8X8X^.^.^.^.^.(.(.^.^.^.^.^.(.8X8X8X8X8X(.^.Y.U.L.m.W.L.L.L.^.^.Y.8X8X8XU.L.L.m.v.L.Y.Y.T.T.T.!.P.J.J.c.b.b.b.J.J.H.G.c.G.J.I.I.I.C.V.G.K.T.{.+X{.+XkXT.T.{.@X@XlXlXsX+X+XsX@XmXmXMX@X{.T.T.kXkX8Xj.H H e.G G Y D F D D D D D D D D D D D D D x x x x x x x x D D D D D D D D D D D D D D D D D D D D D H D H H H H H H H H H H H D x H h.m.n.E.E.E.E.4X4X4X>Xb.g.z.>Xm.m.n.n.m.m.m.m.m.m.m.>X>X9X5X5X5X5X9X5X5X9XrXeX9X9X0X0X9X9X0X0X0X9X0X0X9X0X9X6X6X6X6X6X6X4Xz.F H H H H D D D D D x x x x x x x x x v l l l l l l l l l l l l 9 9 9 9 9 1 < l l v j.j.o.x 1 1 9 9 l 9 < l v z l 2 2 i l z { o.*.X.} Z =.&.N } Z Z X.>.%.N =.aXaXdXdXdXdXfXgXgXgX4.4.}.gXdXgXjXjXjXjXjXjXfXaX+.+.z.z.O.O.| [ O.O.O.;XO.O.O.;X+.O.;X5.O.5.",
"=.=.>.1.,.,.=.*.*.} } M C C M b M P C %.:.B.B.o.o.X.B.>.%.L L L v v v [ v x x H o.h.o.o.C z 1 p l z z 2 C D.kXK.t.F Y L c F i p M 4.4.4.4.4.4.'.P p 2 0 < c t.k.B 2 ; < 1 - < , , < < < < < < < < , 2 2 - < ; o a %.0.w.y 0 0 y P r.j.I Y Y v.j.h.o.P X.{ X.o.o.o.-.-.-.:.*.*.*.-.-.:.-.-.-.-.T X.X.@.Q @.&.,.,.1.1.4.3.3.3.3.3.3.3.0.w.0.M i i l l l z 1 i i i i i i p p p z z c B U ` / b p 1 i 1 2 2 i i i i i i i i i i i l i i a i i x i i i p l p i i i i i p p p p p i i i i c c c c x x c c c z c c c i a a F F D a Y V.T.2XK.J.b.J.T.kXxXT.T.D.2XkXkX/.L.b.L.b.J.U.U.Y.T.T.K.K.K.T.I.T.T.T.T.T.I.I.{.+X+X+X+X+XlX@X@X+X@XlXlXlXlXlX@X@XlXlXlX@X@X@XlXlXlXvXvXlXlXlXlX@XlXlXlXlXlXvXvXvXlXlXlXvX#X#X#XcX#X+X+XcXcXkXkXkXcXbXzXcX8X8X8X8X8X8X8X8X8X8X8X(.wX(.(.wXwXqXqXqXqXqXqXqXqXqXrXrXqXqXwXwXqXqXqXqXqXqXqXqXqXqXqXqXqXqXqXqXqXqXqXqXqXqXqXqXqXqXqXeXeXeXeXeXeXeXeXqXqXqXqX7XqXqX7X^.7X7X^.(.(.^.7X7X^.8XwX8X8X8X8X(.(.(.(.(.(.(.^.^.^.^.^.~.^.^.(.8XzXkX8X8XY.Y.L.b.b.m.W.W.W.W.m.Y.T.T.8X7X^.b.U.b.v.v./.+XoX+X(.Y.c.v.v.L.J.b.L.L.L.b.c.u.c.J.{.{.I.P.u.G.P.T.sXsX{.H.P.Y.J.Z.{.{.mXlXlXT.(.T.T.sXJXmX@Xf.I.+XMXxXT.j.D D H H G G F c F G G D D D x x x D F x a a x x x x x x x x D D D D D D D D x D D D x x D D D D D D D H H H H H H H D D H H H H D x H h.n.E.E.E.E.E.E.4X4X>Xm.g.m.>Xm.n.l.n.m.m.m.m.z.z.m.>X5X9X5X5X5X5X9X5X5X9X0X9X9X9X0X0X9X9X0X0X0X9X9X0X9X0X0X6X6X6X6X6X6X>Xj.F D D D D D D x x x x x x x x x x l l l l l l l l l 9 9 9 9 9 9 9 1 9 9 1 1 < l l v z.h.L x 1 1 1 1 1 1 1 l v z l 2 2 p i 1 1 - - % % 2 1 < ; 5 3 l z b 0 7 M } o.:.*.<.<.9.,X2XaXF.'.'.aXdXdXfXfXfXFXFXGXGXMXX.[ [ +.| O.+.+.l.;X;X;XO.O.O.z.O.O.O.O.O.O.",
"/ P C C V Z Z M N N e } Z N M N M n Z N Z @.X.*.*.} X.%.*.%.*.:.:.%.%.%.:.h.h.M.M.o...o.L c i l z z z z z i kXK.M.L C c i J Z Q $.4.4.4.$.$.$.1.&.V d : 2 p z h.T L i < < - < < , < < < < < < < < , 1 2 - ; ; : 1 s ` w.0.#.u #.@.%.P P L B P P X.` %./ %./ &./ / &.( ( #.#.$.$.$.$.$.4.4.4.4.3.3.3.3.3.3.3.3.3.3.3.3.3.3.N y y Q n #.0.w.1.N # a a a l < 1 l a x x i p b B z z c B ` S.S.^ p i i i i p p i i i l l p i i i l l i i x a a i i p p i l i i p p p p p p p p p p i i l z c z c c x l x x c p i a c F F x x x x D x c N.{.sXT.b.b.b.U.2X2XzXkX2X2XkXkX8X(.c.b.c.c.Y.Y./.P.K.K.P.P.I.I.I.T.T.T.I.T.T.T.oXoX{.+XlX#X@XlXlXlXlXlXlXlXlXlXlXlXlXlXlXlXlX@X@X@X@X@X@X@X@X@X@X@X@XlXlXlXlX@X@X@X@X@X@XlXvX#X#X#XkXkXkXkXkXcXbXcX8X8X(.(.(.(.(.(.(.(.(.(.(.(.(.(.^.7XqXqXqXqXqXqXeXeXeXeXrXqXqXqXqXqXqXqXqXqXqXqXqXqXqXqXqXqXqXqXqXqXqXqXqXqXqXqXqXqXqXqXeXeXeXeXeXeXqXqXeXeXqXqX7XqX7X7X7X7X^.^.(.^.^.7X7X^.8X8XwXqX7X8X^.^.^.^.^.^.^.U.U.U.L.^.~.^.^.^.^.^.^.^.L.m.L.L.L.U.L.^.^.(.8X7X8XkXzXnXcX8XU.L./.+XNXmXlXT.P.L.v.m.b.v.v.U.b.j.x.v.v.c.I.{.{.{.c.u.u.P.T.{.F.2XsX{.^.cXcXlXxXFXHXfXT.T.(.T././.Y.+X+X(.T.xXMX{.H D x H G G D D D x D D A D x x D D D D D a D D x x x x x D D D D D H D D x x x x x x D D x x D D D D D D D F H H H H H H D D D H H H G H o.Z.E.E.6XE.E.E.E.m.z.z.....z.m.j.g.z.D.z.z.z.z.z.m.>X>X9X9X5X9XuXuX9X9X9X0X0X9X9X0XbX0X9X0XbXbX9X0X0XzX9X0X9X6X6X>X>X6X6Xn.o.F D D x x x x x x x x x x x l l l l l l l l l l 9 9 9 9 9 9 9 9 9 < 9 9 < 1 < z l v z.o.L i 1 1 1 2 2 2 1 l l l l v v v v v v [ ....v v v v v p l l x 1 9 l i i u % > > > % > > > i i 1 1 1 9 < 9 z M z z M C v l 9 - 9 l v C v [ [ [ [ [ [ [ ..O.[ | [ [ ",
"C { v v Z Z Z v M M M } C C C C C C Z X.} } %.X.X.X.X.X.} X.%.X.o.X.Z Z L L T T K L v L c c c c B c z z z l M.T P c c c c / $.$.4.4.4.1.$.=.>.F.A.h.Y < p 2 ; P h.t.c 1 - < , < , , < < < < < < < , , < - ; ; < - i B 0.w.0.0 b #.$.#.=.=.&.$.$.$.,.$.$.4.4.4.4.4.4.4.3.3.3.3.3.3.3.3.3.3.3.3.4.4.4.4.4.! y y y y y ! ! r e Q y y N N #.0.0.$.= a a a i l l l a x l i p b B l l z s ' `.`.^ p i l l i p p i i p c c z p p i l l i i i i i i i p p i z i i p p p p p z z z z p p l i i i i i l l c x x x a a c c c c c x x x x x D Y M.T.sXT.Y.U.U.J.U.T.2X2X2X2XsXzXzX2XT.Y.b.J.Y.T.T.P.K.K.K.P.I.I.I.T.T.T.T.{.{.oX{.{.+X+X+X+X@X@XlXlXvXNXVXMXxXxXMXvXvXvXlX#X#X@X@X@XlXlXlXlX@X@X@X@X@X@X@X@X@X@X@X@X@X@XlX@X@X+XkXkXkXkXcXkXcXzXbXcX8X(.(.(.(.(.(.(.(.8X8X(.(.(.(.(.7XqXqXqXqXqXeXeXeXeXeXrXeXqXqXqXqXqXqXqXqXqXqXqXqXqXqXqXqXqXqXqXqXqXqXqXqXqXqXqXqXqXqXeXeXeXeXeXeXeXqXqXeXqX7X7X7X7X7X7X7X^.^.^.^.^.7X7X^.7X8X8X7X7X7XU.L.^.^.~.L.^.^.^.^.L.L.U.^.^.^.^.^.^.^.^.^.^.^.^.Y.^.8X8X8XkX0XzXzXzXkX8X8X(.8X+X+X+X+X+XT.L.v.v.m.b.b.v.v.v.v.b.c.G.K.kX{.I.L.c.k.k.K.F.2XxXFXMXxXxXxXMXFXFXGXJXxXzXsXsXkX(.T.T.T.+XkXxXkXT.h.G G D G F F D H D x D D D D x x x x x x D D F F F F D D D D D F G H D D x x x x x x x x x x x x D D D D D D D H H H H H H H H H H H D D G o.h.E.E.6X6XE.E.E.j.h.o.L o.h.h.Y ..o.X.o.....o.h.h.j.j.m.>X>X>X9X9X9X9X9X0X0X9X9X0X0X0X9X0XbXbX9X0X0X0X1X9X9X6X6X6X>X6X4Xn.C x x x x x x x x x x x x x l l l l l l l l l 9 9 9 9 9 9 9 9 9 9 9 9 9 9 < 1 < z l v z.o.F i 1 2 2 , 2 2 i 1 l l i l l l l l x v v x v F D D v v v D H v v v F v v v x x x D x v v v v x x l l l z l z v l l l v 9 9 3 9 l l l 9 9 9 9 l l l l v v v v v v ",
"C [ [ [ M C C C C C C C C C C C L P L X.{ C X.P C P L C C X.P P L L Z P B C P P K B B L C C C C Z C M M z c B C B c F L V ,.4.4.4.4.1.<.$.1.,.F.F.D.g.l p 2 + C t.V.F i 1 < < < < , < < < < < < < - - - < ; ; < - 1 p =.w.0.N 1 N y 4.4.4.$.y y $.$.$.4.4.4.3.3.3.3.3.3.3.3.3.3.3.3.3.3.3.3.2.y ! ! ! ! y r Q r N Q Q Q r e Q Q y $.#.y 0.w.0.e a a a i l z i a i i i i c B p p p p ` `.].' s i i l l z z i i p z z z i p i i i i i i i i p p z p p c c c c s c c s c c B c p p i i i i i i i l x x x a x x c a p p c c c x x x D D G M.T.sX2XT.U.J.J.T.sXsXsXaXdXfXFXfXzX8XY.J.K.Y./.P.K.K.P.P.I.I.I.I.T.T.{.+X+XoXoX{.{.{.{.oX+X+X+XlXlXvXVXMXMXMXVXVXvXvXlXlXlXlXlXlXlXlXlXlXlX@X+X+X+X+X+X@X@X#X#X@X@X@X+X@X@X+X+XkXlXlXvXzXzXcXbXzXkX(.(.(.(.(.(.(.(.8X(.(.(.(.(.(.7XqXqXqXqXeXeXeXeXeXeXrXeXqXqXqXqXqXqXqXqXqXqXqXqXqXqXqXqXqXqXqXqXqXqXqXqXqXqXqXqXqXqXeXeXeXeXeXeXeXqXqXqXqX7X7X7X^.^.^.7X^.^.^.^.^.7X7X^.7X8X8X8X7X7XU.L.L.L.L.U.U.W.W.^.m.L.L.U.^.^.^.^.^.^.^.^.7X7X7X8X8X8XzXkXkXzXbXbXkX8X8X8X8XcXkX+XT.T.T.U.m.v.v.b.b.b.b.v.b.b.J.V.G.K.kXY.G.u.j.k.k.D.D.2XGXGXGXFXFXFXFXFXGXJXHXFXxXxXfXnXkX{.+X+XkXlXxXT.h.D G G G F F F x F D D x D D x x x D x a x D D F F F D D D D F G G G H D x x x x x x x x x x x x D D D D D D D D H H H H H H H H H D H H A Y o.j.E.E.6X6XE.E.E.g.g...H j.j.j.e...H L H ..H ..o.j.g.g.v.m.m.m.>X>X>X>X1X7X7X7X7X7X8X7X>X0X0X0X>X0X0X0X1X1X4X6X6X6X6X6XE.z.z x x x x x x x x x x x l l l l l l l l l l 9 9 9 9 9 9 9 9 9 9 9 9 9 9 9 < < < l l v z.o.c i 1 2 2 , 2 2 1 1 1 i i i i i i i l z i l x c x x c v F F F v v v L v [ ..............[ v v H F D x F F l x v v l l v 9 9 z z l l 1 9 9 < < z z 0 1 < 9 0 0 9 0 ",
"o.....[ { { [ [ v v J v L F v C P ^ c v v c x c b k B b q c J K C C P X.} } @.%.;.&./ ,.#.#./ Q Q ( e N / / C M N X.%.,.2.`.,.$.4.4.$.=.0.q.4.' 9.9.z.g.s , + f L h.j.J p . i < < < < 1 1 1 1 < - - - - i 7 ; 1 ; , 2 I 0.w.0.# e $.0.0.4.y $.y r r #.r e $.4.4.y ! 2.2.2.! ! r r y ! ! r r r r ! ! ! r Q y #.y y y &.( Q r r #.$.w.0.4.0.w.w.9.i i p z z i i c i i l i c J g p p p K S.`.' B i i i i z c i p p p i i i i p i i i i i i i p z b n B B B B L ~ K K B B K ' c a i i i i i i i a x x x l a x c c a c c c a a c c x l x D D x 2XsXsXT.T.aXsXdXdXfXjXjXjXGXjXjXGXFXY.L.L.(.K.K.K.P.P.K.K.T.T.T.T.T.oXoX!.!.{.{.{.{.oXoXoX+X+X+X@XlXvXMXVXVXVXNXvXmXmXmXMXMXmXmXmXvX@X@X@X+X+X+X+X+X+X+X+X@X+X+X+X+X+X+X+X+XcXcXvXvXcXcX0XzXcXkX(.(.(.(.(.(.(.(.(.(.(.(.(.(.(.8X7XqXqXqXeXeXeXeXeXrXrXrXqXqXqXqXqXqXqXqXqXqXqXqXqXqXqXqXqXqXqXqXqXqXqXqXqXqXqXqXqXqXeXrXrXeXeXeXeXeXqXqXqX7X7X7X^.^.^.^.^.^.^.^.^.^.^.^.7X8X7X7X7X^.^.^.L.^.L.^.m.m.m.L.m.m.m.^.^.^.^.7X7X8X8X8X8X8X8X8X8X8XkXkXkXwXqX7X1X2XkXcX+XcXkX8XY.L.b.v.v.v.v.c.b.J.K.J.J.K.Y.Y.K.G.k.g.j.c.k.b.L.G.T.dXjXq.gXfXMXzXzXfXGXHXHXFXFXGXLXPXJXJXGXCXxXVXT.t.F H F F F D D D D D D D D D D i x D F A a x c G D D F D D F G G G G G F x x x x x x x x x x x x x x x D D D D D D F G G G D D H H H D H G e.o.j.n.Q.E.6X6X6XE.E.n.E.E.E.E.E.n.E.E.E.E.n.n.n.n.n.n.x.x.x.x.x.x.g.g.x.g.x.x.x.x.x.x.x.x.m.m.m.m.m.U.1X1X1X>X>XE.E.E.E.6Xm.j.i D D x x x x x l l l l l l l l l l l l l l 9 9 9 < < < 9 9 9 9 9 < < 1 9 9 9 3 9 c L z.L c 1 < < 1 < 1 < < < 9 9 9 1 2 2 2 p p 1 i 1 1 i 1 1 1 < < < 1 < < 9 9 l l l l l l v v v v v v H H H H ....[ [ ..................[ [ [ [ { { M v v v v v v 0 9 9 0 ",
"v H H v [ v C P X.o.o.{ { C M N Z Z Z Z } %.o.o. .*.*.=.<.<.1.9.0.9.1.1.<.8.8.6.8.8.8.9.9.9.,X:.A.'.}.}.`.`.].4.3.3.4.4.4.4.$.#.4.3.4.,.0.q.q.4.F.,X,Xm.g.x o o p J k.Y z ; > , < < < , , 1 < < < - < < < ; - 1 < , > u $.0.w.v 2 e $.3.0.0.y y y 2.! Q r r ! ! ! y y y ! ! ! 2.2.2.2.2.2.! ! y 4.4.4.2.3.3.4.3.3.3.2.3.3.3.3.3.3.q.q.w.w.w.w.0.1 i i d u i x % 2 p i i l z b z c c J ' `.d._ k u i i l l p i i i i i i i i p i l l a i i i z B B B B B c c j j F F c J ' B a i p p c c c l i i a i c a x c c c c c c c a i x x x a D D D Y F.fXjXjXjXjXGXGXGXGXjXjXhXhXaX2XT.j.k.J.Y.K.K.K.H.H.P.P.P.I.I.I.I.].{.{.{.{.{.{.{.oXoXoXoXoX+X+X{.+X@XlXlXvXvXvXVXVXVXmXlXlXlXlX@X@X@X+X+X+X@X+X+X+X+X+X+X+X+X+X+X+X+X+X+XkXlXlXnXcX8XwXzXcXkX(.(.(.(.(.(.(.(.(.(.(.(.(.(.(.8X7X7XqXqXqXqXqXqXqXqXqXqXqXqXqXqXqXqXqXqXqXqXqXqXqXqXqXqXqXqXqXqXqXqXqXqXqXqXqXqXqXqXqXeXeXqXqXqXqXqXqXqX7X7X7X^.^.^.^.^.^.^.^.^.^.^.^.^.7X8X8X7X7X^.^.^.m.^.^.^.m.m.L.L.W.m.m.^.^.^./.7X7X7X7X8X8X8X8X7X8X8X8XzXkX8X8X8XzXkXkX(.(.(.Y.b.m.b.v.v.v.m.m.L.L.J.c.U.Y.Y.Y.c.k.j.j.c.c.c.j.k.c.u.j.D.dX0.gXhX0.sXzXzXsXmXmX}.}.lXlX}.mXMXBXJXMXlXY H G G D G D D D D D D D D D D x a x x D a a x F D x a a x x x D D D D D x x x x x x x x x x x x x x x x D D D D D D D D D D D H H H H G G G A o.z.m.4X6X6X6X6XE.E.6XE.E.E.E.E.E.E.E.E.E.E.E.E.E.E.E.E.E.E.E.E.E.E.E.E.E.E.E.E.E.E.E.x.x.E.E.n.n.n.x.x.n.x.n.n.n.E.E.E.E.g...< x x x x l l l l l l l l l l l l l l 9 9 9 9 9 9 < < 9 9 < 9 < < < < < 3 < 3 3 l v o.l.F c i p p p p p p p p p p p 2 2 3 3 3 2 2 2 2 2 p p i 1 2 2 p z p p p p 3 < < < < 9 9 l 9 9 l 8 8 8 8 9 9 9 9 9 9 9 l z l l l l v v v v v v [ [ [ [ [ [ [ [ [ [ [ [ ",
"D H H ..[ v L o.o.o.X.} } } @.@.@.X.%.*.*.<.<.<. .<.<.<.8.8.9.9.9.8.8.9.8.8.6.6.7.6.6.8.9.9.9.1.F.F.'.'.}.}.}.4.4.3.4.4.4.$.$.#.,.3.4.,.4.3.3.3.,.1.8.>Xl.v : o 3 c k.Y C 3 - , < < < < , , , < < < 1 1 , - - - < , , , Z 0.w.#.z 0 y y 4.4.4.y y ! r r e r r ! ! ! y y y ! ! 2.2.2.2.2.3.2.2.3.3.3.4.3.3.3.3.3.3.3.3.3.3.3.4.4.4.3.0.0.0.0.9.1.p j k j s c x 2 p p i i p z b z l c j _ d.S._ K j i i l l z i i a l l i i i p x x x i i i i l c c c c c c z s c H D c B ( B s a p p p i l l i a a i a i a x c c c c c c x a x F c s F D G G Z.dXjXjXjXjXjXjXhXhXfXdXsX2X1XU.J.j.k.J.P.H.G.K.H.H.P.P.P.I.I.I.].{.{.{.{.{.{.{.{.oX{.{.{.+XoXoXoX{.{.+X@XlXlXvXNXNXMXmXlXlX@X@X@X@X@X@X+X+X+X+X+X+X@X@X@X+X+X+X+X+X+X+X+XkXlXlXvXcXcXwXzXkXkX(.(.(.(.(.(.(.(.(.(.(.(.(.(.8X8X7X7XqXqXqXqXqXqXqXqXqXqXqX7XqXqXqXqXqXqXqXqXqXqXqXqXqXqXqXqXqXqXqXqXqXqXqXwXqXqXqXqXqXqXqXqXqXqXqXqXqXqX7X7X7X7X^.^.^.^.^.^.^.^.^.7X^.^.7X7X8X7X7X^.^.^.L.L.L.^.L.L.L.L.W.m.m.~.^.^.(.(.^.^.^.7X7X7X7X7X7X7X7XkXkX8X8X8XcXkX(./.^.Y.L.v.m.v.v.v.b.b.L.L.L.b.c.L.P.P.J.k.j.g.j.c.c.c.j.V.H.y.j.z.<X0.dXhX0.dXdXzXT.{.@X}.}.}.}.}.mXmXBXBXmXsXD H G A D D D D D D D D D x x D a a x x x a a D F D x x a a a a x x x x x a x x x x x x x x x x x D D D D D D D D D D D D D D H H H H G G G G c h.b.m.m.W.W.W.n.E.4X4X4X4XE.E.E.4XE.E.E.E.E.E.E.E.E.E.E.E.E.E.E.E.E.E.E.E.E.E.E.E.E.E.E.E.E.E.E.E.n.n.n.x.x.n.n.E.E.E.E.E.g...9 z l l l l l l l l l l l l l l l l 9 9 9 9 9 9 9 < < 9 9 9 9 9 9 < < < < < < < l F o.z.B j j p p p f p p p p p p p p p p p 3 3 p 2 2 2 2 p 2 2 2 2 p p p p p p 3 3 3 < < < 9 9 l l 9 7 < 8 7 9 9 9 9 9 9 1 9 9 1 l l 1 l l l z z l l l l l v v v v v v v v ",
"L L X.o.o.Y Y j.Y L C %.o.:.>.<.<.<.F.1.1.9.8.8.9.7.9.8.6.6.6.6.;X5.5.5.5.5.5.5.5.5.5.5.D.1.4.0.,Xz.x.T.}.|.`.}.}.4.4.y $.$.$.$.,.3.3.4.Z.$.3.3.4.1.8.;Xl...p + < p t.h.P B = - - < < < < , , < < < < 1 - - < 7 1 1 , = s =.w.0.{ 1 w y y $.4.4.! r 4 e Q R r r ! 2.! y r y ! ! ! ! ! 2.4.4.4.3.3.3.3.3.3.3.3.3.4.4.4.4.4.3.4.$.#.e N { { 8 @ ; ^ _ ] ~ K K B C V B i p p z C z l l p V ( S.' ) K i i l i c x a x x x l p p a x D x i i i i i a a s a a z l a D H H D B ( B c a c p i i i i c a p p p c i i x c x x x x x c x c s c F G e.D o.,XjXjXjXjXdXdX<XD.D.K.~.v.v.m.v.j.b.J.J.G.H.H.H.G.K.K.T.T.T.{.{.{.{.'.{.{.{.{.{.{.{.{.{.{.oXoXoX+X{.{.+X+X@X@XlXlXlXlXlXlXlX@X@X@X@X@X@X@X@X@X+X+X@X@X@X@X+X+XkX+X+X+X+XkXkXkXlXkXcXcXcXkXkX(.(.(.(.(.(.(.(.(.(.(.(.(.(.(.8X7X7X7X7X7X7X7X7X7XqX7X8X7XwX7XqXqXqXqXqXwXwXwXwXwXqXqXqXqXqXqXqXqXqXqXqXqXqXqXwXwX7X7XqXqXqX7X7X7XqX7X7X7X7X7X7X^.^.^.^.^.^.^.^.^.7X^.^.^.8X7X8X8X^.^.^.L.^.^.^.^.L.L.m.^.m.m.~.^./.(.(.^.^.U.U.U.^.^.^.^.^.^.8XkX8X8XkXkX(.Y.m.W.v.v.m.v.v.v.b.L.J.J.c.c.c.c.b.b.b.j.j.j.c.c.u.u.u.c.H.I.C.h.h.D.<.9.9.0.dXdX1XU.U.F.{.@X[. XmXmXmX|.|.}.S.D H H F D D D D D D x x a a a x a a x x x a D D D x x x x x x x x x x x x a a a a x x x x x x x D D D D D D D D D D H D D D D D H H H H G H H c h.G.K.F.T.T.Y.U.U.1X1X1X1X1X>X4X4XW.W.E.4Xn.n.n.E.E.E.E.E.E.E.E.E.E.E.E.E.E.E.E.E.E.E.E.E.E.E.E.E.E.E.E.E.E.E.n.E.E.E.E.n.g.C 0 z l l l l l l l l l l l l 9 9 9 9 9 9 < 9 < < < < 9 9 9 9 9 9 9 < < < < < 9 < l c Y j.k R ~ n n n n n n b z z z z z z p z p p z 1 9 l 1 2 3 3 < < 3 2 < 1 1 9 0 0 9 9 0 0 0 l l l l < < < 1 1 1 l l l l l 9 9 < 9 < < 9 < < 9 < , , , , , , , , 2 * 2 , < ",
"Z.o.X.=.'.'.F.o.H D D 5.5.7.5.5.5.7.5.7.7.7.5.5.5.6.6.7.7.5.5.7.7.7.7.7.7.7.7.7.7.9.0.0.0.0.0.0.0.0.+.x.n.m.fXaX'.1.4.3.3.$.y  .+.0.0.3.N.F.'.3.3.4.>.,X;Xl.j.9 < - p Y t.y.- - , - < < < < - - < 1 1 , - < < 7 > 1 < @ u J 1.w.9.M i #.y y r 4.4.y y y y y 4.3.q.3.3.3.3.3.3.3.3.2.! y y y y y #.Q Q Q e w M w 0 0 0 l l O > 2 d 4 * > * 5 f m )._._.}.}.).).] V c i i p f g z c c C L L P ` ` i.B c l l i i a x x v c p i i x F c p c x x x x a i c c c l c H g.g.H c ^ V c a i i a l l a i i i a c i i x a x x x x x x c l i a F x a a x F o.sXK.Z.J.7X1XU.U.J.b.v.W.W.v.x.b.J.Z.V.V.G.H.K.Z.Z.K.K.I.I.I.].].{.{.{.{.{.].].{.{.oX{.{.+XoX+XoX{.{.oXoXoXoX{.{.{.@X@X@XlX@XlXlX+X+X+X+X{.{.{.+X+X+X+X+X+X+X+X+X+X+X+X+X+X+XkXkXcXcXkXkX8X(.(.(.(.(.(.(.(.(.(.(.(.(.(.(.(.^.7X7X7X7X7X7X7X7X7X7X7XwXwXqX7X7X7X7XqXqXqXwXqXqXqXqXwXwXqXwXqXqXwXqXqXqXwXwX7X8X7X7XwX7XwXwX7X7X7X7X7X7X7X7X7X7X^.^.^.^.^.^.^.^.^.^.^.^.^.7X7X7X^.^.^.^.^.L.L.m.^.^.m.^.m.m.Y.m./.(.(.(.(.(.8X(.^.^.^.^.^.^.^.^.7XU.U.L.L.v.n.E.v.v.v.x.v.b.Y.Y.U.L.L.L.b.c.j.g.g.g.g.j.u.u.u.u.u.P.{.OX}.S.T H l.D.,X<XdXdX1Xg.j.o.v.g.t.,.}.}.}.*X&XI.h.A D D x D D D D D x x x x x c x x s a i l x G G G x x a a a a a a x a a a a x x x a x x x x x x x D D D D D D D D D D G u.v.b.^.L.j.e.H H H D D G e.e.g.g.j.j.o.o.j.-.-.M.Z.Z.Z.Z.D.D.D.T.T.T.T.Y.1X1X7X7X4X4X4X4X4X4X4XW.W.W.W.W.W.W.E.E.n.x.x.x.E.E.E.E.E.E.E.E.E.E.E.n.g.c z p l l l l l l l l 9 l 9 9 9 9 < 9 9 9 9 < < < < < < < 9 < 9 < < < < < < < 9 9 x ..z.>Xj.o.H c c c B B b g h h h h b b b b b b M b b m n 0 0 0 z z z 0 0 9 0 0 0 0 9 9 9 9 9 9 9 9 7 9 0 z 9 0 9 7 8 7 7 8 7 7 ; 9 9 < 0 3 , 3 , < 9 9 9 9 9 1 1 1 9 9 < < ",
"j.Z.B.'.4.}.}.F.....+.5.5.7.7.7.7.7.6.7.7.8.7.7.5.6.7.7.7.7.5.5.5.7.7.8.5.7.7.6.;X8.9.9.9.9.9.9.9.0.9.v.g.g.F.aXdX<.F.4.3.4.$.#.*.$.4.3.1.>.A.'.3.3.4.1.;Xz.l.x < - , L t.y.c z , > , , < < < - , < , , < 1 1 < 1 1 , 7 > s P w.0.#.i b y 4.y 4.0.3.3.3.3.3.4.4.4.y 4.4.4.4.y ! y Q Q Q N N Q N Q N N N b w m b b b w 0 9 : < 2 3 6 3 3 w b V ] ).)._. X}.`.).d.K c l l z p f c c c J J J j K ^ ` K V g B i i i x c l l p i i x D x p c x x x x l l c c c p c H g.e.H F ( V c i z x l l i i l x x x i i a c x i a x x a a s c c x x x x x c F L V.j.j.b.9X0X0X8XU.J.b.U.m.v.v.k.V.V.V.V.V.V.V.V.V.K.T.T.I.I.].].].].].].].].].{.{.{.{.{.{.{.{.{.{.{.oXoXoXoX+X{.{.@X+X+X@XlXlXlXlX+X+X+XlXlXlX@X@X+X+X+X+X+X+X+X+X+X+X+X+X+XcXkXkXkXkX8X(.(.(.(.(.(.(.(.(.(.(.(.(.(.(.(.(.^.7X7X7X7X7XqX7X7X7XwX7XqXwXqX7X7XqX7XqXqXqXqXqXqXwXwXwXwXqXwXqXqXwXqXqXqXwX7X7X7X7XqXqXwXwXqX7X7X7X7X7X7X7X7X7X7X^.^.^.^.^.^.^.^.^.^.^.^.^.7X7X7X^.^.^.^.^.^.^.L.L.m.m.m.L.L.Y.m.^.(.(.(.(.(.(.(.^.^.^.^.^.L.~.^.m.m.m.b.v.v.v.n.v.v.v.b.m.L.U.b.b.c.c.v.v.j.g.e.g.g.g.g.e.e.u.k.I.I.].OX}.S.t.e.j.D.,X,X,XD.K.M.N.M.b.j.j.M.K.S.S.].{.K.j.a A D D D x x x x x x x c c c x x s s i l x G G G c x x a x x x a a a a a a a x x a x x x x x x x x x x D D D D D D D G e.j.v.b.b.e.e.G G H H G H H H g.g.g.g.g.g.j.j.g.g.x.x.x.j.j.j.j.j.j.j.j.z.z.z.b.J.J.U.U.U.m.U.U.U.U.U.U.U.U.U.^.^.W.W.W.W.m.m.n.n.n.E.E.n.n.n.n.n.H c z z l l l l l l l 9 9 9 9 9 9 9 < < < < 9 9 < < < < < < < < < < < < < < < < 1 1 l H ..>Xz.z.l.l.l.z.z.z.z.j.o.o.o.o...{ { { { C C N M b w M M b n n n n b g b f b z z z z z z z 0 0 0 9 9 9 l l 9 9 9 9 0 0 9 9 7 9 9 < 0 9 < 0 < < < < < < < < - - - < < < ",
"h.A.'.}.q.}.}.'...o.8.7.9.9.9.9.9.9.9.9.9.9.7.7.5.6.6.7.7.8.8.8.5.6.8.,X6.8.8.6.;X;X6.8.,X,X8.<.9.7.9.h.e.e.N.dXfX,XF.'.4.3.4.4.=.#.4.3.4.1.:.A.4.3.3.$.,X;Xl.H l , # B Y r.r.c 1 > > , , < < , , < , , < < 1 , 1 1 - ; - i F w.0.4.a i } $.y 4.4.3.3.3.3.4.4.$.$.y ! ! ! Q Q N N N M b w m m e m b b M b b m b b M w e e e w w 6 R Q Q } / ] 2.).).[. X).].].[.) B l l 3 3 p s s s V V Z V P / ` ^ V V V p i a i i l p p i i a x x p x x x x x z l l c c p s D H H H F ' K c i z z l i i i l x x i i i a c a i a x c a s B P L x x D D D c c F e.e.g.m.0X0X0XbXU.z.z.1XU.b.c.k.V.V.V.V.V.M.V.V.V.K.I.T.I.].I.I.].].].].].].].].{.{.{.{.{.{.{.].{.{.{.oXoX+X+X{.+X@X+X+XlXlXxXxXlXlXlX@XlXlXlXlX@X+X+X+X+X+X+X+X+X+X(.(.+X+XcXkXkX8X(.(.(.(.(.(.(.(.(.(.(.(.(.(.(.^.^.^.^.^.7X7X7X7X7XqX7X7X7X7XqXqXqXqX7XwXwXwXqXwXwXqXwXwXqXqXwXwXwXwXwXwXwXqXqXqXqX7X7X7XqXqXqXqXqXwXqXqXqXqX7X7X7X^.7X^.^.^.^.^.^.^.^.^.^.^.^.^.^.^.^.^.^.^.^.^.^.L.L.m.L.m.m.m.Y.Y.Y.m.^.(.(././.(.(./.Y.Y.L.L.L.L.L.L.m.v.v.v.m.v.v.v.b.b.b.b.L.m.b.k.j.j.x.g.g.g.g.g.e.g.g.g.g.g.u.V.].].].{.OX].s.e.g.D.,X,Xz.h.V.S.S.S.J.j.j.c.s.s.s.M.I.Z.j.a A D D x x x x x x x x x c c x x x a a x D e.e.G x x x c c c x a a a a a a a x x a x x x x x a x x x x x D D D D D D G e.e.g.j.j.e.e.G G G G G H H ..x.x.g.g.x.x.x.x.x.x.x.x.x.x.g.g.g.g.g.g.g.g.g.g.j.j.j.h.Z.z.z.z.Z.D.D.D.U.U.U.U.U.U.U.U.U.U.U.m.m.m.m.n.n.n.n.n.n.z.L l l l l l l l l l 9 9 9 9 9 9 < < < < 9 9 9 < < < < < < < < < < < < < < < ; , 1 l l x H l.z.z.z.m.m.m.m.z.z.z.z.l.z.z.l.+.+.+.+.+.o.o.o.X.} o.o.X.L Z C Z V B B B B B B B n n n b b b w 0 0 0 0 0 0 l l l z z z 0 0 0 0 9 0 9 9 0 9 9 < < < < < ; ; ; ; ; < < ",
"`.'.}.q.gXaX'.Z...*.4.3.3.3.3.3.3.3.3.3.3.4.7.7.5.:X:X;X5.+.<.D.z.8.8.,X<.9.9.8.;X;X;X;Xl.l.g.O.8.9.$.T I F }.0.0.dX,Xz.+.4.3.3.4.&.,.4.q.4.,.o.F.4.3.y 1.,X;X..L z , , p G y.F i 1 > > - < < < , < , , < , - > i 1 1 - + ; i 4.w.0.c a i 2 r r r Q Q Q N N h k W h w w b z z b C b b w w w e w w w b 0 0 0 w 8 w e ! ! ! 2.$.$.! 2.4.4.4.}.).2. X[.}.4.`.}.OX*XS./ p l i i s p b e $.$.$.1.=.&.&.W ^ K P Y F p i i i i p z c i i i i a x x x c z z l a a p p x x F D L a.^ B i p i i p p p p a i i i i p c a a a x i s J -.S.t.x x a D D c c c H H z.1X3X3X0X0Xv.v.m.8X1XU.J.V.V.s.V.Z.V.M.V.V.K.K.K.S.I.].].].{.{.{.{.{.{.{.].{.].{.{.].{.{.{.{.{.{.{.{.{.oXoX+X+X{.+XlXxXzXzXxXVXvXlX@X@X@X@X+X+X+X(.+X+X+X(.(.(.(.(.(.(.kXkX(.(.(.(.(.(.(.(.(.(.(.(.(.(.(.(.(.^.(.(.(.8X7X7X^.7X7XwXqXqX7X7X7XqXqXqX7XwXwXwXwXwXwXqXqXqXwXqXwXwXqXwXwXwXwXqXqXqXqXqXqX7XqXqX7XqX7X7XqX7X7X7X7X7X^.^.^.^.^.^.^.^.^.^.^.^.^.^.^.^.^.^.^.^.^.^.^.^.U.L.L.L.L.m.m.m././.U.m.^.(.(.(.(.(.(.(.T.Y.L.m.m.b.L.L.b.b.v.v.^.~.P.j.L.U.b.c.j.j.g.e.e.u.g.g.g.g.g.g.g.g.g.g.g.g.e.k.`.[.{.{.[.OX].j.H j.D.D.j.j.k.'.dXsXN.T t.c.t.r.H H V.V.k.a a a x x x x x x x x x a a s x x c a a D e.e.e.G F F F F F F F D x a a x a a a a a a x a a a a x x x x x x D D D D D D D D D D G e.e.e.e.e.e.G D H ..v.j.l.n.n.n.x.g.l.x.n.x.x.x.x.x.x.x.x.x.x.x.x.g.g.g.g.g.g.H H H e.e.g.g.g.g.g.g.h.o.h.M.Z.Z.D.D.U.U.U.Y.Y.U.U.U.m.h.C < 9 l l l l l l l 9 9 9 9 9 9 < < < < 9 9 < < < < < < < < < < < < < < < < - - < l c i > 1 i x x H ......g.l.l.l.l.;X;X>X>X>X>X4X5X4X5X5X5X5X>X>X>Xz.z.z.z.j.o.o.o.L L C C n m h h 6 6 6 6 r r 6 6 6 6 4 w w w w m w w w w 0 8 8 q 9 q 0 0 9 9 8 8 8 8 7 8 < # ",
"4.3.q.q.4.,.o.....g.g.0.0.0.4.4.4.4.4.4.1.Z.9.8.6.6.;X,X8.1.1.4.1.1.1.0.1.9.9.9.0.0.0.0.0.9.9.8.9.9.<Xr.t.F.fXdXdXMX2Xz...>.1.9.0.,.$.$.1.$.$.X.o.Z N y N v v v z 3 : - < z t.Y L c 1 1 - < < < - < , , - , - - i 1 , = ; , > J 0.w.1.z a A S A c c i 1 < 9 3 p j n w 5 p s c B C Z W ( ] ,.,.,.,.,.,.Q Q Q Q Q ! 2.3.3.3.3.3.2.2._._.2.! ).)._. X}.'.4.}.}.[.|.S.&.M N N Q / @.#.$.0.0.0.dXaXF.F.%.-.-.-.M.Y c c x x x c c c z i l D D D D F c c c x D D p l l i s c L a.) B p p g k K ^ K j u i a x c i i a x a a s K ` S.` J s D D D D F x x H H j.1XyXyX3X0X1X1X1XzX2XU.Z.k.t.s.V.V.V.V.V.V.V.V.K.T.sXmXlXlXlXsX{.{.{.{.{.].{.{.{.{.].].{.{.{.{.].{.{.{.{.+X+X{.{.+XlXzXkXkXxXVXVXmXmXmXmX=X@X+X+X(./././.(.(.(.(.(./.T.(.(.(.(.(./././.(.(.(.(.(.8XcXcXcXcXcXcXcXcXcXcXbXwX^.^.cXcXbXbXwX7X7X7X7X7X7XwXbXbXbXbXbXqXqXqXbXbXbXrXqXqXqXqXqXqX7X7XqXqXqXqXqXqX7X7X7X7X7X7X7X7X7X^.^.^.^.^.^.^.^.^.^.^.^.^.^.^.^.^.^.^.^.^.^.^.^.^.L.L.L.L.L.L.m.m.!.oXU.U.^.(.(././.(.(.(./.Y.L.m.v.m.v.v.m.v.v.g.(.+X+XK./.^.U.g.e.e.g.x.g.g.g.g.g.e.g.g.g.g.e.e.r.g.g.g.u.I.oX@X{.{.].V.G j.2X2Xz.j.j.1.aXdX1.A.F.2XB.Z.h.D e.r.y.D a a c x x a a x x x a a a a x x l a A G u.e.e.G F D D D F F D D a a a a a a a a x x a a x x D D x a a a D D D D D D D D D G e.e.e.e.e.e.g.g.c.e.e.x.m.n.n.n.n.n.n.n.n.x.x.x.x.x.g.g.x.x.x.x.x.x.x.x.x.x.x.x.x.x.x.x.x.g.g.g.g.g.e.e.g.g.e.e.e.H H H H g.e.r.r.L o.j.g.C z < 9 l l i 1 i l l i 1 1 < 9 < < < < < < < < < < < < < < < < < < < < < < < 9 < 1 l l l l l l l l 2 1 i 0 l l l l l z z z v v v [ ........O.O.l.z.z.;X;X:X:X:X:X:X:X5X6X6X6X:X>X>X>Xn.n.n.j.h.h.o.o.Y L J B n g g p p 3 3 5 3 3 3 : : 3 0 3 3 3 3 0 3 0 w w w w ",
"] 2.3.q.3.4.%...g.g.g.<.9.0.0.0.4.1.D.8.8.<.7.8.,X,X<X<X9.9.9.0.0.9.<XdX0.<X<X<XdX0.aXhXhXhX<X9.9.8.,XD.D.2XdXaXaXsXF.o.v L X.} #.N Z { { } N M z z z n 0 9 0 l 9 ; + - < < B T T J i 1 > , < < , , 1 1 # , , # 2 , - + 1 , , u $.0.w.z a a s i i i p z e N @.} N M m Q Q ( ! ! ! ! 2.2.3.3.}.}.}.}.).! ( ( ( ( ] 2.2.2.`.).2.2.2.[.).`.,.`.}.}.}.}.'.4.`.[.[.4.,.&.=.1.4.4.'.aXaX2XdXdXdXdXaX2XF.>.F.aX'.F.A.c c o.h.h.o.o.o.o.X.o.o.G G G F x l l D H H x l l 1 p c F a._ V f K V ^ ^ ' ( ^ j p i x p i i x x i i K ` N.a.K K K a x x x D D D x H j.1XCXCXCXCXzX0XzXzX0X2XT.K.K.V.V.K.T.T.T.T.K.V.K.sXlXMXlXlX+X+X+X+XkX+X+X+X].{.{.@X@X@X+X{.{.{.@X@X@XlXlXlX@X@XlXlXxXxXxXxXMXJXMXMXBXBXBXNXmX@X+X(././././.(.(.(.(.(./.(./././././././././././.(.(.8X8X8X8X8X8X8X8X8X8XcXwX^.^.cXwXwXwXwX7X7X7X7X7XqXwXbXwXwXrXbX7X7X7XwXwXwXwX7X7XqXqXqX7X7XqX7X7XqXqXqX7XqX7X7X7X7X7X7X7X7X^.^.^.^.^.^.^.^.^.^.^.^.^.^.^.^.^.^.^.^.^.L.L.^.L.L.L.L.L.L.L.L.b.oXoXU.Y.^.(.(.(./.(.(.(./.^.L.b.v.m.m.m.m.b.v.x.(.+X{.J.v.b.b.g.g.u.x.g.g.g.g.j.U.U.U.U.U.g.e.c.J.U.U.U.U.+X+XlX{.I.K.T.Z.D.2XdXD.z.2XdXdXfXaX{.sXsXF.F.S.I G r.t.D x a a x x a a a x x a a a a x x l a A e.u.u.e.G D D D D D D D a a a a a x s a x x x x x x D D D D D D F F F F G G G G e.e.e.u.u.x.x.x.m.1X7X>Xn.n.4X9X4Xn.n.n.n.n.7X>Xm.n.n.n.n.n.n.n.n.x.x.x.x.x.x.x.x.x.x.x.x.x.x.x.x.x.x.x.x.g.g.g.g.m.m.b.b.b.b.b.b.b.j.H o.Z.Z.z.:.%.3 l C X.X.X.X.X.X.X.X.C 1 9 < < < < < < < < < < < < < < < < < < < < < < < 9 < 9 l l l l 9 9 l l 9 l l l 9 1 9 i i p p 9 9 9 z z z v v v { *.<.<.<.D.D.D.,X;X;X;X1X>X;X;X>X1X>X1X1X>Xn.n.1X1X1X1X1Xm.m.m.U.U.U.U.U.g.g...D.D.B.:.c v C :.*.*.%.@.@.@.@.@.@.@.@.",
"_ ! 2.3.3.4.4.-.g.g.l.l.+.8.0.0.0.8.:X;X6.8.7.8.<X<X0.0.0.8.8.9.9.<X<X<X9.<X3X<X<X,X,XdX<X<X,X<X8.+.<.D.:.D.<.<.D.:.X.z z x l i < 7 l x 9 1 1 9 < 1 l u 1 , 5 i ; + o - < = 3 P o.L s i , , , , , , 1 1 # , , % > > % + > u 3 u Z 1.w.N p u p 2 < p N #.$.$.9.9.$.#.#.$.4.4.2.2.2.2.2.3.|.|.|.|.|.|.|.2.] ' _ p.d.).d.d.C.C.N.S.`.].S.S.F.aXaX'.'.'.'.,.S.`.].4.#.*.1.0.q.q.gXdXaXF.F.aXaXaXaX'.1.aXdXaXdX'.F.c F h.D.h.h.o.o.X.X.Z.j.e.e.e.D l i l D H H x l l 1 p c F i.' ^ V ] ( ^ ~ ] ] ] ^ s i i i i i x i p s -.N.N.^ P ` ` u x x c D D D a H j.1X0XCXCXCXzXzXzXsX8X2XU.T.T.V.V.T.T.T.T.T.Y.V.I.kXlXlXlXlXoX!.oX+X+X+XlXlX{.].{.+X@X+X{.{.{.{.lXlX@X@X@X@X@X@XlXlXxXxXFXHXMXVXBXBXBXBXBXNXmX@X+X(.(.(.(.(./././.(.(.(.(./././.^./././././.^.^.^.^.^././.^.^.^.^.^.(.(.cXwX^.^.cX8X7X7X7X7X7X7X7X7X7XwXbXqXqXrXbXqXqXqXqXqXqXqXqXqXqXqXqXqX7XqX7X7X7X7X7X7X7X7X7X7X7X7X7X7X^.^.7X7X^.^.^.^.^.^.^.^.^.^.^.^.^.^.^.^.^.^.^.^.L.L.L.L.L.L.L.L.L.m.oXOXY.Y./.(.(./././.(.(.(.~.~.L.m.W.m.m.v.b.v.x.(.+X{.J.x.x.v.g.g.g.x.e.e.e.g.j.U.U.U.U.U.j.u.b.U.U.U.U.U.T.+XkXT.c.u.T.Z.B.>.sXD.U.zXfXdXdXdXsX{.'.F.F.{.` H Y T x D D D x x x x x a a a a x x x a i a G e.u.u.e.G D a x D D D a a a a x x c c c c c x x D D A A D D D G G G I r.r.r.r.y.u.u.v.v.v.m.m.1X0XZXpXtX5X6X5XyX9X4Xn.n.>X4XCX0X1X>X>X4X9X7X4Xn.n.n.n.n.n.x.x.x.x.x.x.x.x.x.x.x.x.x.x.x.x.x.x.x.x.m.U.m.U.U.U.J.U.U.g.e...D.z.z.:.>.z x X.:.X.X.X.X.X.X.*.C 1 9 1 < < < < < < 1 1 1 < < < < < < 1 < < < < < < - 2 l l i l l 9 l l l l v v v l l l l l l l 9 9 9 9 < < < , 3 b =.@.} } } @.%.%.%.*.*.>.<.M [ <.<.<.D.,Xz.O.z.1X1X1X1X9X>X4X4X9X9X9X9X9X4X>X>X9X1X1XU.g.j.j.F.D.D.:.:.:.*.*.*.%.%.%.",
")._ ^ b ! 3.3.3.$.:.j.g.g.O.O.5.6.8.6.5.7.7.7.8.<X9.7.7.<X5.5.3X3X5.5.5.5.| | 8.+.[ [ <.o.v M :.v i C B.c 1 1 l l l 9 9 9 l i i 3 0 p p 3 1 1 1 ; , p 5 0 0 3 h g g , < < :   ; z L Y F a - % + = - - < - - 1 1 - - - , , & = u > m 0.y r Q ,.! 4.0.w.w.w.w.w.w.w.w.0.&./ / P V n n b C o.h.j.C.H.I.f.d.`.`.`.`.`.].].].'.F.F.F.F.T.F.D.D.T.F.S.h.o.o.A.1.F.<X'.o...o.o.T P A.;.W ~ ( 2.2.4.}.3.3.q.q.3.3.3.4.C F o.B.L G D x 9 i B.o.e.e.e.D l 9 9 x D s i x s s F x x P a.' ) 2.] / p R _ ] ` c a i i l l i i J -.N.^ ~ ~ -.T J s c x x x x D D F h.2XCXCXCX0XzXzX0XJ.U.U.k.K.T.C.M.T.K.V.V.T.K.V.T.kX+XoX+XlX+X{.{.{.{.{.+XlX{.].{.{.].].{.].].{.lX+X{.{.{.{.{.].+XlXMXMXMXmXNX-X-X-X-X-X-X=X=X@X(./.(.(.!././././././././././././././././.(.(.(.(.(.(.(.(.^.^.^.^.^.^.7XcXwX^.^.cXwX7X7X7X7X7X7XwXwXwXwXbX7X7XwXbXqXqXwXwXwXwXwXwXqXqXwXwXwXwXwXwXwXwXwXwXwXqX7X7X7X7X7X7X7X^.^.7X^.^.^.^.^.^.^.^.^.^.^.^.^.^.^.^.^.^.^.^.^.~.L.^.~.~.L.L.L.L.W.{.}.|.Y.~.(.T.Y././.Y.Y.(.^.^.W.n.J.L.v.v.b.v.x./.@X@XP.L.v.v.j.e.e.g.g.e.e.g.j.U.j.g.j.U.j.g.b.U.g.g.g.g.b.L.8XJ.v.v./.Z.Y o.sXF.D.,XdXdXgXdXS.N.o.i.i.a.S.N.M.o.a x F s x x x x x a a a x x x a a i a D e.u.u.e.G s D D G a a u a a a D G D A F F F F G G G G G G F G I I I y.s.s.s.y.p.f.H.Y.^.m.7X9X0XZXeX9X9XiXiXyX9XyXyX9X9XyXiXKXCXCXyXpXSXCXCX9X4X4X>X>X>X4X4X4X4Xn.n.n.n.x.x.x.x.x.x.x.x.x.x.x.x.x.m.m.x.x.x.x.x.v.U.v.g.j.U.g.H o.B.l l } X.< 9 1 < 1 < *.C < 9 9 9 < < 9 9 < , , < < < - 0 < , , < 9 9 - < , - 1 9 l a a x x x v D D D x v p p z v l l z l l l l 1 2 z 3 3 b *.v l i i z l l 1 1 < @.@.: : #.@.8 3 =.N : e =.N 5 N =.M z M { [ ..D.,X..O.l.z.z.>X>X>X4X4XeX9X4X4X4X4Xm.m.m.m.m.o.",
"2.4.&.} C ( ! 2.4.4.'.D.z.l.l.O.O.+. .6.6.7.5.6.,X6.5.6.,X| [ +.<.[ [ [ v v v <.X.z z :.L l q *.C z C :.l z 1 i i p 3 < , i i i < 1 1 = e e e e N Z m W V V / ;.' ] ( ( ( Q W m e g p c J p 2 1 1 > * & & & , , # # # % & % # u > 2 N w 5 h ( &.1.0.w.w.w.w.w.w.w.9.@.s p p s c p p l x H ..g.k.T.sXfXfXFXFXGXGXGXGXFXFXfXfXdX'.A.N.V.V.k.o.-.-.h.h.D.F.<.=.*.@.V V ^ ( ! 2.}.4.2.4.4.4.4.4.'.,.Q &.1.Z C -.B.l a o.:.c x x x 0 p :.T H D x l 1 i l x z z i a s s F x x J a.' ^ 2.( n i ^ ' d.J x a a i l x a i s c K K ` S.P J s a x x x x x D D F o.1X2X2X2XzXCXzX1Xm.m.m.k.K.T.V.M.T.K.V.V.T.K.V.I.kX+X+XlXlX+XoX{.{.{.{.+XlX].{.{.{.{.{.{.{.].{.lX+X{.].].].{.oX+X@XmXmXmX-X-X-X-X-X-X-X-X=X@X+X(.(.(.(././././././././././././././.^.^.(.kXcXcXcXcXcXcXcX(.^.^.8X8X^.7XcXwX^.^.cXwX7X7XwXwX7XwXbXbXbXbXbX7X7XwXbXqXqX0XbXbXbXbXwX7XqXbXbXbXbXbXbXbXbXbXbXbXcX7X7X7X7X7X7X7X^.^.^.^.^.^.^.^.^.^.^.^.^.^.^.^.^.^.^.^.^.^.^.^.L.b.L.~.~.L.L.L.L.L.{.[.&X{.+X(./.(.(.T.{.T./.W.^.W.m.L.b.v.v.b.v.x.^.+XlXT.L.m.v.x.g.e.g.g.g.e.g.j.U.j.e.j.U.j.e.b.U.e.e.e.c.b.J.(.U.v.v.Y.k.I P 2XD.D.2XF.aXdX4.S.i.i.T i.N.T.C.M.T a x c s x x x x x a a x x x x a i i a D e.u.u.e.e.s N.{.kXkXT.T.Z.h.Y G A A D D A a a a D A A A A A A G G G r.y.t.t.t.p.).(.(.7XqX5X5XyXuX5X4X5X5X5X5X5X5X5X5X5X5X9X9X9X5X5X5X9X9X9X>X>X6Xm.m.n.m.m.m.m.g.g.x.n.m.n.n.n.n.n.n.n.n.n.n.x.x.>Xm.g.g.g.g.g.j.U.j.H g.D.H x o.:.i 1 } X.l l l i i i *.C < 9 < 1 2 2 < < < < < 1 1 < < < < < 9 < < 9 0 0 < 7 9 l l 9 z l x x x v v v v v v l v v l l c z l l v l l l l l C :.z 9 0 2 2 < 1 9 9 0 @.%.3 < @.} < ; *.N 3 b =.M < M *.0 9 9 0 l z } =.0 0 0 z z v v [ [ { D.o.............l.l.z.z.",
"4.,.$.+...X.Z &.4.4.4.<.+.o...H <.<.<.,X,X,X,XD.D.O.[ ..+.[ v o.>.z z C v l l *.} l z :.C 1 z *.*.:.<.*.l l 2 X.-.=.=.@.: p z :.*.:.*.*.F.F.1.@.Z V m W K K P / / ' ] ] ] ] ;.( ! Q m V W V n n n g 3 : & & & & $ # # % & % % , > > 2 2 2 p n Z @.$.$.$.y 7.0.0.9.N M c N Z Z Z @.#.=.<.D.D.D.Z.F.aXdXfXfXfXFXjXjXjXjXjXjXjXgXdX4.] ,.S.A.,.,.,.&.=.>.,.,.#.#.Q ! ! ! 2.2.2.4.4.! ,.$.#.@.&.1.>.>.>.:.c a Y :.l a T :.:.:.:.o.z p >.P x l l 2 p p D x l l i i c c c x x B a.) k ( V z i K / ` c i i a i l x i i i a s J U ' B s a a x x x x x x D v ..m.1X1X2XCXCXCX0X9XU.b.j.K.K.V.M.T.K.V.V.T.K.V.K.kXkXlXlXlXlXlXlXlX{.{.+X+X].{.lXlXlXlXlXlXlXlXlX{.{.+XlXlXlXlXlX@X&X=XBXBXBXBXBXBXBXBXBXNXlXlX+X/.(.(./././././././././././././././.^.(.kX8X(.(.(.(.(.(.^.^.^.8X8X^.^.cXwX^.^.cXwX7X8XcXwX7XwXbXwXwXwXqX7X7XwXrXqX7X0XrXqXwXbXwX7XqXbXwXqX7XqXqX7XqXwXwXwXwX7X7X7X7X7X7X7X^.^.^.^.^.^.^.^.^.^.^.^.^.^.^.^.^.^.^.^.^.^.^.^.L.b.~.~.^.L.L.L.m.L.{.OX&X@X{.{.(.+X{.2X{.{./.^.L.L.L.L.b.v.m.b.v.x.L.+X@X{.L.v.v.v.U.U.U.U.U.U.U.U.U.j.e.j.J.g.e.b.U.e.e.j.b.b.b.T.U.v.v.Y.Z.Y L T.2X2XzXF.F.aX4.'.T.T.F.F.N.S.A.T.F.:.Z.B.B.B.:.L x a a a a x a a i i i a D e.u.u.e.e.A S.sXlXlXlXlXkXT.T.A.N.V.h.t.Y I F A D a D a A A A A A D G Y Y I G U d.K.U.m.m.>X4X9X9X4X>X>X4X4X5X5X5X5XeX5X5X5X5X5X5X5X5X5X5X>X>X4X6X>X>Xm.m.m.m.m.l.l.l.n.>Xm.n.n.x.x.n.x.x.x.x.g.g.m.z.....H H H Y D.Z.Z.Z.Z.x x C :.i 1 } *.:.:.:.X.i i *.C < < < < 2 2 3 , < 1 9 < 1 9 1 1 1 9 l 9 < 9 z l < 7 9 9 9 9 l l l l l l l l v v v v v x c x F c c c v l l v l v C :.v l l X.:.:.:.C z z } } 9 9 X.} 9 9 } M 9 z *.M < M *.*.*.*.*.< < M } : : @.*.*.=.=.=.=.=.=.M 0 { <.<.<.<.D.[ ..o.",
"*.*.<.<.+.......o.o.*.} } { v l *.%.L L L P } } } v x x v v v o.D.z l o.o.l 9 o.C 1 9 *.M < l M M C X.C 9 < , C X.Z @.@.0 z p X.X.o.X.X.Z.F.F.` J p p c s s x i l l L -.N.A.S.`.`.}.2.! ! Q ( ( ' P C 0 3 , , % & = = - - - , & > > u u u 2 % % % % u u p 0 { { M 1 z @.4.4.4.4.0.dXgXjXFXFXFX2XF.>.=.$.$.$.1.0.0.w.w.jXjXjXjXq.3.3.3.3.3.3.4.4.2.2.2.! 2.2.2.4.3.3.3.4.! Q 1.%.c l i i l l o.o.Y Y o.x a L :.i a L P Z C -.o.c p =.P z l 9 3 p s G F l l i i c c a x x s N.) j f p i i c B B i i i i l l l i x x a a c B s a i a x x x x x x D D x H v.U.U.2XCXCX0X7X>Xm.b.k.t.M.M.h.T.K.V.V.G.G.V.K.sXkXlXlXlX+X+X@XlX{.{.{.{.].].lXlX+X+X+X+X+X+X+X{.].+XlX+X+X@XlX@X=X-XBXBXBXBXBXBXmXNXNXmXlXlX(./.(.kX(././././././././././././././.^.(.kX(.^.^.^.^.^.^.^.^.^.8XcX^.^.cXwX^.^.bXwX7XwXcXwX7XwXbXwX7X7X7X7X7XwXrXqX7XrXwX7X7XbXwX7XqXbXwX7X7X7X7X7X7X7X7X7X7X7X7X7X^.^.7X^.^.^.^.^.^.^.^.^.^.^.^.^.^.^.^.^.^.^.^.L.L.b.L.L.m.L.^.^.^.~.L.m.m.L.{.OX&X*X}.{.oXOX{.U.+X+XkX2XU.L.L.L.v.v.v.b.v.x.m.T.{.{.b.v.v.v.U.U.b.b.b.b.J.b.b.j.e.e.g.g.g.b.U.g.e.U.Y.b.c.T.U.c.v.Y.K.r.Y V.U.2XzX2XF.'.'.I.I.F.F.T.N.N.N.F.Z.o.o.o.o.o.:.L a a x x x x a a i i l a D G e.u.u.e.G N.'.{.@XlXlXVXHXVXMXMXlXkXsXT.Z.h.F F a a a a A A a a a D D D D D D H H H H G j.m.1X7X4Xn.l.n.m.>X5X5X9X9XeX9X9X9X9X9X9X9X9X9X1X9X9X9X9X9X4X4X>X>X>X>X>X>X>X>Xz.l.l.l.g.g...H H H D D Z.o.x c l l l z } X.o.o.o.l i C :.l l v } Z Z %.} 1 2 *.C < < < 1 < 1 > > z z z p z z i i l l l l l p i l l l 9 9 9 l l l 9 9 i a l l z v v v H F D D H H v v v x v L v v ..:...v v ..o.o.o.L x x l l l l o.X.v v l l 9 z *.v 9 z { } } X.*.2 3 1 1 9 9 %.%.} { { { { { { e 8 e *.} N @.*.: : + ",
"l i i p 3 : : 2 a i 1 < 9 9 9 0 =.X.x x x l z l l i i i 7 9 9 { *.7 9 } X.0 0 =.} z C 1.#.N @.$.*.} C C L L o.......<.<.[ o.o.-.-.&.,.] _ S.}.'.&.( ( ) J F c z z z z c L o.Y h.k.J.B.A.S.' ' ` ^ Z M v z z p 3 3 3 , % % % >   O $ & 2 * : & > u % u u u % - - > > 0 M #.$.$.9.0.0.dXfXFXFXFXGXfXaX1.#.{ {  . . .{ { y y y y y y 3.3.3.3.3.3.3.3.3.2.#.Q Q m M b b z z l l o.X.i a a i p p s s s s p z l Z :.z c s p < 1 :.Z.G c :.Z D D D a c F H H D x l i x c x x x p ;.` k 1 i l l i i i i l a i l i i i x x i i x a i a x x c x x x x x D D G r.m.1XW.W.2X1X>Xm.1XU.k.k.M.M.M.h.T.K.V.V.V.G.V.T.kXkXkX+X+XoXoX+XlX{.{.{.{.{.{.lX@X{.{.{.{.].].].].].+XlXoX].{.lX#XNX-X-X-X=XNXNXNXvXvXlXlX+XkX(./.(.kX+X/././././././././././././.^.^.(.kX8X(.(.(.^.^.^.^.^.^.8XcX^.^.wXwX8XwXcXwX7X8XbXwX7XwXbXwXwXwXwX7X7XwXrXqX7XrXwX7X7XrXwX7XqXbXwXwXwXwXwXwXwXqXwXwXwXqX7X7X7X^.^.^.^.^.^.^.^.^.^.^.^.^.^.^.^.^.^.^.^.^.^.~.L.L.L.m.m.m.^.^.^.^.L.L.b.L.oXOX$X}.{.^.$X%X$XY.^.Y.T.{.T.I.Y.n.m.v.v.b.v.v.m.T.{.}.b.v.j.v.U.J.u.e.e.e.g.e.e.g.e.e.g.e.e.b.U.g.e.U.(.L.J.T.K.c.c.Y.K.r.H Y h.h.h.U.A.1.,.C.s.s.F.F.` ` N.M.h.a x x x c :.L a a x x x x a a i i i i a A e.e.e.e.e.G U i.f.f.d.f.I.].'.{.{.}.lXlXlXlXlXkXkXT.T.K.h.o.L D a a a a a A D D x F I F G H g.g.g.x.x.n.n.>X4X>X>X>X4X>X>X4X4X5X5X5X5X5X5X4X>X:Xn.n.n.l.l.g.g.........v D D x x x D x x x D c s M.o.c c x x x x x i i i i i i C :.l i 1 1 1 9 o.X.9 l :.C i l l l l l l l 9 1 - 1 1 1 < 1 1 1 3 p p p 1 9 9 1 p p p 1 l v F L H ..o.......v F v v v v v v v D H D D D x v ..D...v v v v v v v v x v x x x o.o.v x x x v C :.C l l l l l C :.1 1 < < 1 < @.} : : : : o o + = = w *.0 : M *.: : = ",
"1 1 1 2 2 : : ; , < < < 9 9 9 1 *.X.i l l l l z z z b M M w w #.=.M M >.>.N N 1.=.} } F.$.#.1.9.9.<.L X.-.h.X.X.o.o.<.1.*.>.,.A.,.4.2.2.] `.dX}.4.4.`.d.d.' / Z C C Z %.-.Z.j.v.n.m.1X2XsX:.X.T K Z Z Z P / -.;.;.&./ m b z i ; = # & , & & $ > u , > > > & - & > i i z w M N } #.#.#.=.1.F.F.'.1.=.@.{ { {  .8.7.7.8.9.9.y y y #.$.#.#.Q ! ! Q Q Q Q b n b p l l i i i i i -.o.c c c c c a c B B B b f f / >.b B B b 0 l M.J.e.x :.C D H H D x D H H D D i i a x x c x p ` ` K i i i l l i i i l l a i i i i l i i i a a a x x x x x x x x D D D I j.U.U.m.W.1X>X1XU.zXU.k.h.M.V.M.h.T.K.V.V.V.G.G.T.lXkX+X+X+XoXoX+XkX{.{.{.{.].].@X@X{.{.{.{.].].].{.].+XlX{.].{.lX@XNX-X=X=XmXmXvXlXlXlXlXkXkXkX(./.(.kX(././././././././././././././.^.(.kXkXkXkXkX^.^.^.^.^.^.(.8X^.^.wX0XcXbXcXwX7X7XwX7X7XwXbXbXbXbXbX7X7XwXbX7X7XbXwX7X7XrXwX7XqXbXbXbXbXrXbXbX0X0XrXrXbXqX7X7X7X^.^.^.wX7X^.^.^.^.^.^.^.^.^.^.^.^.^.^.^.L.L.^.^.L.L.m.L.L.^.^.^.L.L.L.L.W.oXOX$X{./.^.|.|.$XI.L.L.~.Y.T.T.Y.m.m.v.v.c.v.v.m.(.+X@XJ.v.c.c.U.J.e.g.e.e.g.g.j.j.g.j.g.e.e.b.U.e.e.U.(.L.U.8XU.c.c.T.Y.h.Y Y h.Z.Z.Z.D.F.F.C.s.s.T.T.M.` B.Z.Z.F c c a c :.L c c x a a a a i i i i i i a D e.e.e.e.G I y.I.S.S.d.d.d.S.I.S.S.'.{.{.{.{.{.{.{.{.{.T.T.T.K.Z.V.M.h.Y Y I F F F F D D H H g.g.g.x.x.n.n.n.n.n.n.n.n.n.n.n.n.>Xn.n.n.n.l.l.............H H D D D x x x x x x x x x x a x x c :.o.c c c x a a x a p l i i i C :.c l l l l v o.o.l i :.C i i l 9 l l z l l v v v l l z l v [ O.+.+.+.O.O.O.........[ ..o.j.z.z.z.l.l.l.l...............................H ..D.L v v [ v v C v v x v v x x z.o.x x H v v ..B.L x x x l l X.:.v v v z l i %.X.0 0 0 3 < : : 3 3 M %.0 ; M #.; ; : ",
", < 2 2 1 < < : : : 0 < < 9 l i C M < 0 z l 9 M =.=.1.1.1.Q #.1.4.#.&.1.1.&.=.F.1.*.*.aX<X<XaXdXdX<XD.F.T.T.,X,X*.*.1.aXaX'.}.}.}.}.}.4.2.}.gXdXdXdXmX[.).`.4.&.&.&.,.A.F.T.m.W.W.>X0XCXCX:.o.P P / / ( N.S.F.{.{.F.F.:.-.X...v - # % & & & # > 2 & , > > , , > > i i > > > > % % % % > 1 1 1 3 3 3 z v v [ +.9.9.9.9.aX9.<.{ N Z C c l x a a a i i i i i i i l i i a i p p :.B.:.B.B.o.x c L >.>.>.Z g j ' >.>.>.>.>.*.:.Z.J.e.D :.C H e.e.D x x x D D D i a x x F F c i ` ` ) l i i i l i i i i i l i i i x i i i x i i x x x x x x x x x D D x r.V.1XU.m.m.1X0X0XzXxXsXk.h.h.M.M.M.T.K.V.V.T.T.T.kXlX+X+X+X+XoXoX+XkXkXlXlXlX].].@XlXlXlXlX{.].].{.lXlXlXlX{.].{.lX@XmXmXBXBXMXMXxXzXxXxXkXkX8XkX(./.(.kX/./././././././././././././././././././.(.kX/.^.^.^.^.^.^.^.^.^.^.^.7X7X7X7X7X7X7X7X7X7X7X7X7XwXbX7X7XwXbX7X7XbXwX7X7XrXwX7X7XqXqXqXqX7XqXqX7X7X7X7X7X7X7X7X7X^.^.^.wXwX^.^.^.^.^.^.^.^.^.^.^.^.^.^.^.L.L.L.^.L.L.L.L.L.^.^.U.L.m.L.~.m.{.OX@XY.^.^.|.|. X[.L.v.v.v.U.Y.U.b.v.v.v.v.v.j.m.(.kXlXU.b.b.b.J.c.e.g.u.e.g.j.U.U.U.U.U.j.e.b.U.e.e.b.Y.L.U.8XU.c.J.8X2XT.D.B.F.2XsXT.sXsXfX{.t.t.T.T.T.F.{.{.T.Z.B.L x c :.:.:.:.:.c a a a i a a i i i a D D D D H G G s.{.'.F.A.N.a.p.s.s.` i.a.a.d.S.S.`.{.{.{.lXlXlXlXlXkXT.T.K.Z.M.T T I F H H H H g.g.g.g.g.x.x.x.x.x.n.l.l.l...........g.g.H H v v 9 z v v l l l x x x x x x x x x x D x x x i x x :.>.>.:.:.L a a F :.:.:.c a a L :.:.:.:.:.Z.Z.:.X.l l :.C l l l 9 2 3 0 0 v [ +.+.[ v { [ | O.:X:XtXtXtX:X:X:X:X:X:X;Xz.z.;X;X>X>Xl.>X>X>Xz.z.z.l.l.l.l.l.l.O.............o.D...v o.D.D.:.:.D.v v v v v v Z.o.D D D.D.D.D.D.o.D F o.v x o.B.D.D.:.:.x x o.:.:.:.:.C l i M =.=.=.*.0 , M #.+ = M ",
", + + + ; 9 9 9 < < 1 - < 1 3 b M N N Q Q Q Q #.1.$.$.1.F.$.4.0.dX$.#.{ { { { <.*.t [ ....+.z.+.z.z.m.U.1X1X<XdX<X,XF.4.'.'.4.4.4.,.'.'.fXxXlXF.S.'.}.4.2.2.}.}.}.}.}.`.`.A.1X9XyXxXPXPXHX`.).).2.2.2.).).d.d.S.T.2X1X1X>X1X<Xz.v i i u > i , & #   & > > > u > % ; + + i 1 1 1 1 1 1 1 1 1 1 > u i 1 - > > u u p w m B z l i i i > i i i 1 9 9 l l p s p p p p i i a x x x v L C C >.T A B B Z Z Z b 0 z b Z Z N Z C M L h.j.e.D :.C D D D s p p i a p p i x x D Y F F a J ` ' a i i i i i i i i i i l a i x i a x x i i i x a i x x x x x x x a -.F.sX2X7XwXzXAXAXCXsX2Xt.t.h.h.M.M.T.K.V.V.T.T.K.T.+X+X+X+XlX+X{.{.{.{.{.+XlX{.{.{.{.{.{.lX{.].I.].{.{.{.{.{.].{.lX@XmXmXMXMXMXxXkXkXlXxXlXkX(.(././.(.kX/.T././././././.~./././.~.~.~.~././././.(.kX(.^.^.^.^.^./.^.^.^.^.^.^.^.^.^.7X7X7X7X7X7X7X7X7XwXbX7X7XwXrX7X7XrXwX7X7XbXwX7X7X7X7X7X7X7X7X7X7X7X7X7X7X7X7X7X7X7X^.^.wX8X^.^.^.^.^.^.^.^.^.^.^.^.^.^.^.^.^.L.^.L.^.^.~.L.^.^.^.^.m.L.~.U.{.{.(.^.^.+X|.|.|. XY.W.v.v.v.b.c.v.v.v.c.v.v.j.v.U.(.lX8X^.U.J.j.e.e.g.g.g.g.j.U.b.c.b.U.g.e.J.U.g.g.e.e.e.r.U.U.c.U.kXY.J.k.t.h.Z.D.T.sXsXF.T.M.-.M.N.N.N.B.B.A.T B.L x x L L L X.:.c i i a a a a i i i a a a i i x F J K 0.0.0.<XaX<XF.D.Z.N.i.` U K K K ) _ ' ' _ d.S.S.I.{.sXkXzXxXnXnXnXcXkXT.T.K.V.H x c v v v v l v l l 9 9 l v l l l l l l i i i z l l x x l l l z z z z x x x x x x c z z z z z l C C C C :.X.l l v ........H H ..o.o.o.o.o.T L C C v +.,X8. .| | +.q : O $ v | +.+.[ q { | |  .5.:XtXtXtXtXtXtXtXtXtXtXtX:X5.O.;X:X:X:XtXtXtXtXtX:X:X:X:XtX:X:X:X:X;Xl.O...+.,X;Xz.z.,X..[ o.D.c c L l 9 9 o.o.v v D.o.o.o...v v ..D.v x C X.X.X.o.:.v v L X.o.o.B.o.x x D ..H H L c i C :.2 2 M ",
"% - < 7 < < < 3 3 < < 3 3 5 4 5 m Q Q r e e m N 1.N q M :.N $.0.0.#.e 9 v v [ <.+...o.;X;X;X;Xl.n.n.n.l.l.l.;X1Xz.D.D.B.A.F.F.F.,.F.sXsXfXxXxXsXT.T.sXA.,.,.`.,.,.,.F.D.D.D.D.1X9X2XzXsX'.] ] ' K ^ ^ ^ ^ K J L M.D.z.+.+.+...v i i a i i i l 1 - % 1 > > > 2 2 > > % - 1 1 1 , 1 1 2 2 1 , - u , > 1 i i u i i 2 > < 1 1 i i i i 1 i a p i i i i i i a a a c x c c c c c c c c c c >.P f f 5 3 3 0 0 0 0 z z f 5 3 3 p x D e.e.x :.C x x x p 2 p i a p p a c H H H F F a J ` ' p i i i i i i z i i i i i i a i i i a i i x x x a x x c x x x x x B.F.sX2X8X0XzXAXzXzXD.T.t.h.h.h.h.M.T.K.V.V.T.K.H.I.!.oXoX+XlXoX].I.I.I.].{.+X].].].{.].].lX{.I.I.I.I.I.].].].].{.lX@X@XlXxXlXxXxXnXvXvXVXnXlX(./././.(.kX/./././././././.~.~.^.^././.~./././.~.~.(.kX/./.(.8X8X8X8X8X8X8X8X8X^.^.wXwXwXwXwXwX7XwXwXwXwXrXbXqXwXwXbXwXwXbXwX7X7XbXwXwXwXwXwXwXwXwXwXwXwXqXqXqXqXwXwXwXwXwXwXwXwX8X^.^.^.^.^.^.^.^.^.^.~.~.^.^.^.^.~.m.m.L.^.^.^.L.^.^.^.^.Y.Y./.Y.T.{.^.W.^.{. X|.|. XP.J.b.c.v.v.v.v.v.v.j.c.c.j.j.b.L.T.^.Y.K.Y.c.k.e.g.g.g.e.j.U.j.e.c.U.g.e.J.U.g.u.g.u.g.e.U.U.J.Y.8XY.b.j.H G r.M.T.{.{.aXsXS.-.i.T T ` ` -.M.F B.L x a a a a L :.c i i i i a i a i i i a a i i x J U ) aXaX<X<XdXaX0.<X2XF.F.A.;.` U U U U U U U U ` ` ' N.N.S.S.S.'.{.].{.{.{.{.+XkXY c i z z z z z z z z z z v l l l l l l v v l l l x x x l l l l z x l l c c c c F F A D D G e.e.e.e.g.g.g.D.z.g.g.l.g.g.g.g.g.g.............L x l v [ 6.<X<X6.5.5.;XO.| [ | O.6.5.6.6.6.5.5.5.5.5.:X:X:X| t {  .;XtXtXtXtX:X:X:XtX3XCXCXyX3X3XyXyX3XyXyXyXtXtX:X:X>Xz.o.....o.,X3XtX:X3X;X6.<X<X{ M C {  .{ <.o.v v <.X.v v v v l v :.v l l l l l X.:.x x x x x D Z.o.x x x x x x x x x L Z.x l X.",
": 5 w e w w e e N Q Q Q Q Q 6 m m Z m e e M C Z >.M 9 C :.0 { 1.0.#.{ M o.o.o.<.<.O.+.:X:X:X;X:X:X>X:X;X;Xl.;X1Xz.z.D.D.B.D.F.F.>.K.sX2XfXdXsX2XT.2X2XF.D.B.B.>.:.:.D.z.z.z.z.;X;X,X,XD.;.^ K K F c c B B c c c o.o.X.v v z 9 < , 1 i i i 1 1 i i i i i , & > > u > > - > > - - , 1 2 2 1 1 - i , > 1 i i i 2 1 1 > < - - i i i i 1 i i i s i i i i i x s c c z z z z z z b b b b z >.@.b b b b b b b b 0 w b b w e M B c F Y Y C =.C a a l < 2 p i a p p a F H H H F c a B ` d.p i i l i i p z i i i i i i i i i i i i x x x x a a x x x x x x x D.sXsXzXsXsXzXCXzX1XZ.T.V.V.V.Z.V.Z.T.K.V.V.T.T.I.T.+X+XoX+XlX+X{.{.T.I.I.{.{.{.{.{.{.].].lX{.I.I.T.T.T.{.{.{.{.{.lX+X+XkXvXlXlXlXlXvXvXVXnXkX(.(.(.(.(.kX(./././././././.~.~.~.^.^./.~././.8X(.~.(.kX/./.8XkXkXcXcXcXcXcXcX8X^.^.cXcXcXcXcXwX7XwXbXbXbXbXbXqX7XwXbXbXbXbXwX7X7XbXbXbXbXbXbXbXbXbXbXbXbXwXwXwXwXbXbXbXbXbXwXwXwX8X^.^.^.^.^.^.^.^.^.^.~.^.~.^.^.~.L.b.b.m.^.^.L.L.L.^.L.L.Y.T.T.~.T.T.U.W.Y.{. X X X$X].H.v.b.v.v.v.v.v.c.j.c.c.c.j.b.b.K.U.Y.K.Y.J.c.r.g.j.j.j.c.U.j.e.c.U.j.e.J.U.u.e.e.c.c.j.U.J.b.U.Y.Y.J.b.o.Y r.M.T.T.{.sXlX{.F.Z.N.N.Z.B.Z.F.K B.L x x x a a L :.c i i i i i i a i i i a i i i i F Y U aXaX<X0XdXdXaXdXdXdXaXF.A.B.N.-.` U U U P K K K K ^ ^ ) _ ' ' N.d.S.S.F.{.{.+XF z 9 l l l l v z l v v z l l v l l l l l v l l v x x v v v v v v v v l c x c Y h.k.k.j.x.x.x.x.x.x.x.x.x.1Xm.z.z.z.z.z.l.l.l.g...H H H ........[ [ | +.<X,XO.O.O.+.O.O.5.5.6.5.5.6.:X:X5.5.5.5.5.5.6.6.|  .{ #.;XtXtXtXtX:X:XtXtXyXyXyX3X3XyXyXCXCXCXCXCXyXyX3X1X1X>Xz.l.+.z.<X3XtX3X3X:X:X<X<X .{ X.<.<.<.<.*.v v <.X.C v v v l v :.C { [ ..v v X.:.v v v x l x B.L x x v v F F F F F o.M.x x X.",
"r Q Q Q Q ! ! ! 4.4.4.4.4.1.N M M C z b =.*.:.:.:.C z M X.9 0 =.0.#.*.:.F.F.F.1.<. .6.5.<X<X9.3X3X3X3X3X:X;X;X1X1X1X,X,X,XD.D.D.<.D.F.F.F.D.D.1XU.1X,X1X;Xz.z.;X;X;X;X;X;X;XO.O.O.O.+.o.L l l c B v l l v D x x z l 1 # # # % $ O $ % 2 3 < - l x c a s p & # % > > > 1 > 1 - - 1 1 i i 1 1 - 1 1 1 - - - - , 1 1 9 3 , 1 i 1 1 p p p i 1 p p l z z z z z b f 0 z b f p 3 5 5 w 0 0 =.=.*.:.>.>.>.>.>.n 5 5 f B w @.>.>.:.:.B.B.=.*.Z i i i 1 2 p a a a a a F H H D D a i c ` d.p i i l i i p p i i a i i i i x x i i x x i x a i i a a x x x D D T.sX+XxXfXdX0XzX1Xj.Z.T.T.T.T.T.T.T.T.I.V.V.T.T.{.kXkX+XoX+XlXlXlXlXkXI.I.{.sXkXkXkX{.I.].lX{.I.I.kXkXkXkXkXkXkXlXlXoX+X+XlX+X+X{.@XlXlXxXlX+XT.+XkXkXkXkX+X/././././././.~.~.~.~.^./././.(.kX/.~.(.kX/./.(.cX~.~./.^.^.^.cX8X^.^.cXwX7XwXbXwX7XwXbXwXwXqXwXwXwXqXqX7X7X7X7X7X7X7X7X7X7X7X7X7X7X7X7X7X7XqXwXwXrXrXwXwXwX7X^.^.^.^.^.^.^.^.^.^.^.^.^.^.~.~.^.~.^.~.~.b.b.L.^.^.L.b.L.L.b.b.Y.T.T.~.(.T.J.U.T.].%X[.[. X[.H.x.v.c.c.k.v.v.c.j.c.c.u.Z.Y.Y.U.U.K.V.Y.L.J.k.j.U.U.U.U.U.j.e.j.c.e.e.b.U.e.e.e.U.U.U.U.b.k.k.h.T.2XT.U.J.D.F.F.S.F.sXxXxXxXsX{.sXkXsXsXsXB.:.L c x a a a c L x i i i i i i l i i i a a s s p H Y I aXaXhXhXdXdXdXdXdXfXdXaXaXF.F.A.A.;.' / ^ V V V K K J S S U K ^ _ _ ' ^ ' ' U D l l x l l x x x x x x x l l x x x x l l v x x D v v [ [ [ [ [ [ [ [ { l x x j.U.8XwX7X^.W.m.E.n.E.n.n.n.1X1X1X1X1X1X1X1X1Xj.g.H D x x o.D.D.D.D.D.D.D.:.X.i i 1 o [ O.5.:X6.5.5.5.6.:X5.| t q 7 [ O.;X;X;X;X6.tXtXtXtX>X>X:X:XtXtX:X:X:XtXiXSXDXDXZXCXCXSXpXyX3XyXtXtXtXtXtXyX3XtX3X3X:X;X<X<X8.<.,X<X9.9.1.*.t v <.<.*.*.*.C 3 C >.<.D.D.,X....<.<.<.*.*.{ < < *.M 9 0 *.:.:.:.:.:.:.:.:.l a P ",
"2.! r Q ! ! r r 4.4.$.! ,.$.N { } @.@.#.1.1.#.#.#.#.#.$.$.1.$.4.aX$.$.$.1.1.4.4.4.$.$.<.<.<.8.8.+.+.8.<X6.O.......o.o.o.o.X.X.Z / X.C v L o.M.M.o.o.+.+.+.6.+.+.+.+.O.O.O.......[ ..c x a x x x a s s s c v v v L L o.h.r.Y ........L i 1 1 l 1 - , 1 9 l n ( W 2 1 & & > , , > % 1 1 1 1 1 , 1 1 1 1 1 1 1 1 1 1 1 i 1 1 1 1 1 1 1 p z z c c c z p 0 9 9 9 9 < p z p p 5 5 5 3 3 0 M M C B m M e } >.M 8 w 6 6 , P :.C c B C w c c 0 e.G G G s p 3 s i i c x a i i c c a i P S.B i i l i i i i i i 1 i i i i i i i i a a a i i l x x x x c x x o.2X2X,X0X1Xm.U.U.j.h.M.C.C.M.V.M.M.C.C.J.G.K.T.{.{.+XlX+XoXoX+X{.{.{.+XI.I.{.{.I.{.+X{.I.I.lX{.I.I.sX{.].{.{.{.{.{.{.I.oXkXlX+X(.(.(.(.(.cXkX/./.(.(.(.(.(.T./././.P./././././././././././.(.kX(./.(.kX/./.(.kX/./././././.cX8X(.(.cXwX(.wXbXwXwXrXbX0X0XbXcXcXwXwXwX7X7X7X7XqX7X7X7X7X7X7X7X7X7X7X7XqXwXwXwXwXrXbXbXrX0XqXqX7X^.^.^.^.~.^.^.^.~.~.~.~.~.~.~.^.~.L.L.b.L.L.L.L.b.b.m.b.v.v.W.^.T.8XT.U.K.W./.oX X X X_.[.H.x.b.c.c.v.c.k.k.k.k.j.j.J.Y.c.b.Y.Y.H.K.P.K.V.K.T.U.b.J.H.G.j.j.j.k.k.U.T.k.k.k.b.k.b.b.c.k.k.r.c.c.b.j.r.e.r.Z.Y T Z.K.T.T.F.'.{.{.{.{.F.-.L x x c z z i l l i i i i i a a a i i i i i a a x F I K 2XdXhXhXdXfXfXfXfXfXhX2XT.T.1.T U i.X.-.N.] S.N.J / / Q C L L I c F Y ` ' ' ` l x x z z b z z z z l l l c x l l v 9 l x q { { t t t t v t t t q q q { M q 9 } B.T.sXzXxXxXxXxXxXzX8X2X1X1X>X>X>Xn.m.m.m.1Xl.x.g.g.H D o.o.v v c v c c c l i i i l i 1 1 1 i i i a i i 1 - 9 v O.:XtXtXtXtXtXtXtXtXtXtXtX:X:X:X:X:X:X:X:XtXtXtXtXtXtXtXtXtXtXtXtXtXtXtXtXtXyXyXtXtXtXyXtXtX:X3X3X:X5.5.5.:X3X3X:X6.<X3X3X<X<X+.| | +.+...o.<.v v [ [ [ [ :.*.z 0 *.M < 9 %.{ v ..........L x i C ",
"r Q Q @.#.Q Q N <.1.e { 1.D.o.+. . .$.<.aX9.$.$.$.$.1.1.$.$.$.0.gX0.4.4.4.4.4.4.4.4.$.$.$.$.$.1.1.<.9.<X8.<.,X<.<.{ v v v M C Z Z Z Z C L o.o.o.o.+.+.z.z.z.+.+.| | ..+.O.......o.o.x x i c l l l l i i i i i i c c c L H H ........o.l 2 , , - - 2 > < 9 3 m W ( f 2 > > > > , > 1 1 1 < 1 , 1 > 1 1 1 1 1 1 1 1 1 1 1 1 1 1 1 1 1 2 2 2 2 p p 3 3 0 0 z z p p 3 3 3 0 z z 3 3 3 5 b 0 0 0 5 f f b =.5 * f w e Z =.:.s s s s p i i < e.G G G D p p A a a s a a p i a s c i P N.V i i i p i i i i i l i i i i i i i a a a a x a i c x a x a x x h.T.T.D.2Xz.j.b.U.j.j.t.M.V.V.J.K.K.K.I.P.I.I.I.{.{.+XlX+X{.].].I.I.{.+XI.I.I.I.I.I.+X{.I.I.lX{.I.I.sX{.I.I.I.I.I.I.].{.oX+XlX+X(.(.(.(.kXnXcX+X(.!./.~././.P./././././././././././././././.(.kXkXkXkXkX/./.(.kXkXkXkX8X/./.cXcXcXwXcXwX(.wXbXwXwXbXbXnXbXnXbXcXcXcXbXrXrXwXrXrXwXwXwX7XwXwXrXwXwXwXwXbXbXbXbXbXZXZXAXZXbXrXwX7XwXwX8X8X8X8X8X8X8X^.~.~.~.~.~.~.L.L.L.b.L.L.L.L.L.L.b.b.b.b.v.L.Y.+XT.Y.T.m.Y.[. X X[. X[.I.v.G.c.c.v.c.k.k.j.j.j.j.J.Y.k.k.U.Y.H.K.K.K.V.V.T.b.j.V.C.H.r.j.j.r.y.Z.T.j.j.r.r.h.h.k.u.k.h.r.k.k.b.b.j.j.j.D.Y Y I r.t.t.M.S.F.].].].].' J a x a a a a a a x a a a a i i i i i i i i a i i F J K aXdXhXdXfXfXfXfXfXdXfXdX2XF.>.T J U L J J P ` ` F K ( ] / ( ` T L L Y ` ' ' ` l l x z b b b z b b z l l l l l l l v l l t t t t t t t t t t t t t q q M z 9 z C P -.B.B.B.A.F.F.T.T.T.T.8X8X8X8X8X7X1X1X0Xm.m.l.g.g...j.z.x x i i i i i l l l l l l 1 1 i i i i i i l l l l l [ | O.O.5.;X:X:X:X:X:XtXtXtXtXtXtXtX:XtXtXtXtXtXtXtXtXtXtXtXtXtX:XtXtXtX:XtXtX3XtXtXtXyXtX:X:X:X;X6.6.5.5.6.6.6.6.6.6.6.6.6.,X+.O.O.O.O.[ +.,X[ [ [ [ v l o.X.z z :.} 9 z :.C v v ..v v x l i 1 C ",
"w e N N @.*.*. .<.<.{ +.,X1X>X,X,X9.9.<XdX0.1.1.1.1.1.1.1.1.1.0.gX0.0.0.0.0.0.0.0.4.4.4.4.1.1.$.1.1.0.aX9.9.dX9.1.#.@.@.} *.:.:.>.>.>.:.:.Z.Z.h.o.+.+.+.+.z.D.<.+.+.+.o.o.o.X.o.o...x l i c p i 1 l l 1 p p p p p p l l v v H o.L L ..l 2 * * , 1 1 - , 1 1 p V ] W g > > > > , % 1 1 > 1 , > 1 1 1 1 1 1 1 1 1 1 1 1 1 1 i 1 1 2 2 2 2 2 3 3 3 3 3 3 p p p p f 3 3 3 z z z Z Z Z Z Q n 3 8 5 f j Q 1.Q Q =.1.1.aX1.>.s F T T Y C C z e.e.G G x i i A x x s a p s i s s F a K a.^ p 1 i p p i i i i i i i i i a a a a a a a x a a a a a a a a F D.T.D.z.1Xg.g.b.U.j.b.Z.K.T.T.2XT.T.{.+X+X+X+X+X{.{.+XlX+X+X+X+X{.{.{.+XI.I.I.I.I.I.{.{.{.{.lX{.I.I.{.{.I.I.{.{.{.{.{.{.oX+XlX+XkXkXkX+XkXnXvXlX+X+X(.(.(.(.T./././././././././././././././.(.kXkXkXkXkX(./.(.kXkXkXkXkX(.(.kXcXcXcXcX8X8XwXbXrXwXbXnXAXAXAXbXbXcXbXbXbXwXwXcXwXwXbXwX7XwXbXbXwXwXwXwXbXbXbXbXbXZXZXAXAXAXbXwXwXcXcX8X8X8X8X8X8X8X^.~.~.~.~.~.~.~.L.L.L.L.L.L.L.L.L.L.L.L.L.v.b.U.@XT.Y.T.m.T.[. X[.[.[.[.I.c.G.c.c.x.j.j.k.c.J.J.J.U.Y.k.k.U.T.P.T.T.T.K.K.T.k.r.V.H.H.r.j.k.k.V.K.K.r.r.k.k.Z.Z.J.G.Z.Z.Z.J.U.U.1XU.U.1X2XD.Z.h.r.r.r.h.Z.K.I.{.{.{.S.M.T L L L x a a a a a x L L L L L i i i i a i i p c J U aXdXdXdXfXfXfXfXdXdXfXdXaXaX-.I A K V B D J P K a K ( ,.( ] ' ' P K U / ' ' -.l l l z b M M z b b z l l l l q q l x v q t t t t  .t t t t t q y t 8 7 v q 9 9 z p s c B C C X.o.B.F.T.{.{.{.{.{.+X2X2X8XzX1X1X1X1X1XD.D.D.o.H o.o.L L C v l l l l l l l l 9 9 9 9 9 9 l l l l l l q q [ [ +.O.O.5.;X:X:X:X:X:XtXtXtXtXtXtXtXtXtXtXtXtXtXtXtX:X:X:X:X:X:X:XtX3XtXtXtXyX3X<X<X<X<X<X<X<X<X,X,X<X<X<X,X+.O.+.,X;X;X;Xz.+.+.,X<X6.+.+.+.[ [ +.o.X.X.<.X.l v >.C v v ..o.} { 9 - - M ",
"z l 9 l X.<.<.8.,X1X:X5XuXyXyXyX0X0XsXdXdX1.#.&.=.*.*.<.F.F.2X2XaX4.4.q.gXgXgXgX0.0.0.aX<X9.1.1.$.$.1.0.aXaXaX1.$.$.1.aXaXaXaX2X2X,X<X<X2X2X2XD.z.o.o...L o.D.D.B.B.:.c B B p p 2 p > u p s p 1 1 l 3 6 R R R R k f 2 , 3 3 3 3 2 2 1 i p > p c l 9 < , > p 1 3 R `.( p % % - , - - 1 > 1 - > 1 1 1 1 1 1 1 1 1 1 1 1 1 1 1 1 1 p z p z z z p p p p p 2 p p f f w w n n g j ;.>.>.=.%.V d % 1 b X.1.dXdXFXjXGXGXGXaX=.a I Z.Z.Z.>.:.L G G G D x c i F F x s a p s p s s Y a J ' ] g i i u p a i i i i u u i a a a a a a u u a i u u s s j j S ) T.Z.o...g.g.g.j.D.D.U.2XkXkXzXzXzXkXlXlXlXkXlXlX{.].{.lXkXlXlXlXkXkX+X{.I.I.I.I.I.I.{.{.+X+X@X{.I.I.T.I.I.I.{.+XkX{.{.{.+XkXlXlXnXnXvXvXlXnXnXvXlXkXkXkXkXkX(././././././.!./././././././././././.(.(.(.(.(././././.kXkX(.(.(.(.(.8X(.(.8XwXbXbXrXbXbXAXAXnXnXbXcXbXbXwXwXwXwXwXwXbXwX7XwXbXwXwXwX7X7XwXwXwXwXrXbXZXZXZXAXbXwXwXbX8X^.^./.~.~.(.kX/.~.~.~.~.~.~.~.L.L.L.L.L.L.L.L.L.L.L.L.L.L.L.L.@XT.Y.P.m.T.[. X[.[.[.].I.v.c.c.v.v.j.j.j.J.T.Y.Y.T.Y.k.k.U.T.T.+X{.{.T.T.K.j.r.C.T.I.r.h.D.K.K.K.D.r.Y Z.K.D.D.D.Z.D.T.T.8XzXCXAXZXbXZXZXzXzX8XJ.y.r.h.Z.Z.K.F.T.T.F.S.A.N.B.:.C a a a a i L :.:.:.:.-.a a i i i p p p F I t.aXdXfXfXfXfXdXdXdXdXdXaXaXaXT F F ` / T G J J j a K ' ,.&.,.N.,.( ^ K / ] ' -.9 l l M M M M M b b z l 9 9 9 q 9 v x v t t t t t t t q t t @ 7 y t 7 7 9 9 9 l l i a c c c c x x o.:.:.:.>.X.L P -.N.A.T.lXsXkXxXnXnXxXxXzX8XT.2X2XT.D.D.o.l i i i i i l l l 9 9 9 9 9 9 9 9 9 l l v v c x x x v v ....O.O.O.O.O.5.;X:X:X:X:X:X:X:X:X:X:X:X:X:X:X:X:X:X:X3X3XyX3X3X3XyXhXhXhXdXdXdXdXfXgXgXfXfXfXfXaXD...z.,X,X,X,X,X,X,X<X3X3X3X3X3X:XO.;X+.<.<.<...l l M l 1 < M %.@.} 7 X X M ",
"........O.,X| [ [ ..l.>X5XtXtXtXtX5X8XaXq.q.3.4.gX4.$.1.aX4.4.$.#.#.#.9.0.$.$.$. .{ { <.*.{ { <.{ q q v v [ [ [ | +.,X<X;Xz.+.+.O.o.o.+.....D.o.v l l 9 l } >.C B %.-.f b b n Q Q Q V n c c s s S _ 2.2.).).).2.2.! h * 9 3 3 z l v v L ........v 1 9 2 2 > 1 2 > W ] ] , % % - - - - > 1 1 1 > - > > > 1 1 1 - , 1 - - - 1 1 l z p 2 2 3 0 8 0 0 3 3 3 0 3 5 4 3 2 , , , , @.} e @.aXaXaXdXhXjXjXjXjXgXgX0.dX4.q.,.J F G Z.V.x z :.L D D H x x i i F F c s i p s a s F Y D J ' ] h p p g j B p p s B f f f g g b b b b n n B B j B B B C L v L o.g.g.g.l.l.l.z.z.z.1X2XzX2X2X2XT.T.I.{.{.].{.lX{.I.I.].].].{.{.].].I.I.I.I.I.I.I.I.].I.].].].I.I.I.I.I.I.I.I.I.].{.+X+X+X+X@XlXlXxXVXvXvXVXVXvX+X+X!.(.+XkX+X(.(.!.!.!.(.(.(.(.!.(.(.(.(.(./.(././././.(././.(.(.(.cXcX(.(.(.(.8X8X(.(.wXwXbXbXbXZXAXAXAXnXnXnXcXbXbXwXwXwXwXwXwXbXwXwXwXbXwXwXwXwX7XwXwXwXwXrXbXZXZXZXAXZXrXwXbXwX(.(./.~.~.(.kX/.~.~.~.~.~.~.~.Y.Y.Y.Y.P.L.P.P.~.~.P.P.P.K.P.P.@X{.(.U.U.T.].[.[.[.[.I.J.v.v.c.c.k.V.k.j.J.Y.k.k.k.k.k.k.k.G.H.I.I.I.C.C.t.r.G C.{.I.r.h.D.t.t.t.r.Y Y Z.K.Y Y Y Y r.h.T.zXZXKXDXZXiXyXyXyXyX0X0X0X2X8X2Xb.j.j.o.o.o.-.;.A.-.D.T c c c c c P >.c c o.:.c x x x c c c c F J U '.dXfXfXhXfXdXhXhXhXfXdXdXdXM.Y J ^ K J F s j j a U ' ;.Z / ' ] ] ^ K P ' ' -.9 l l z b n b b b n b 9 9 9 9 9 9 l v t t C M t t t q q t t t 8 t @ 7 7 - 9 9 z l i i a a i a i i o.o.v v D.o.l l l l l C :.C B -.F.;.B.A.F.T.T.zXzXkXkXxXkXT.U.Z.h.o.Y F x i i i i i 1 9 9 9 9 l l l x x x x x x x x v v v v [ ........O.O.l.l.;X:X:X:X:X6.6.8.6. . . .8.<X<X<X9.9.9.<XaXaXdXdX4.4.4.4.0.0.aXdXdXdXdXaX1.1.F.D.D.<.+.+.| | | | | [ [ q 9 9 9 9 < < , , & - # # - , ; ; : ; + + = ",
"........+.,X[ C q v ..l.z.;X:X:X5X5X1X'.4.4.4.4.gX4.4.4.aX1.$.$.#.#.#.1.1.{ { { { { v <.{ q { <.{ v v v v v [ [ [ O.,X,X....[ [ [ v [ [ v v <.} v z z z b @.1.Z V =.>.V C C n / ( ( ( / P L F F K ^ ] 2.2.2.2.).2.2.E f l z z x v ............H v 1 1 2 2 * 2 1 1 g ( S.2 % % - - - - > 1 1 1 1 , > - - 1 1 , - - - , - - 1 l l z 2 2 3 p 3 9 0 0 0 3 3 : : : : 5 5 5 w N } 1.1.1.1.fXdXdXgXgXjXw.gXgXgXq.4.aX4.4.&.J H G Z.V.l i -.L a x x i i i i c s a i i i s i s F I D J ` d.K B L J L Y Y Y Y Y P P X.X.-.-.-.-.-.:.:.B.B.M.Z.M.h.z.z.z.z.z.z.z.m.>X1XU.1X1X1X2XzXzX2X2X2XT.T.I.I.I.I.].lX{.I.I.I.I.I.I.I.I.I.I.I.I.I.I.I.I.I.I.I.I.].].I.I.I.I.I.I.I.I.I.].{.+X+X+X+X@X#XvXvXVXvXNXVXVXNX@X+X!.!.+XkX+X(.!.!.!.!.(.(.(.(.(.!.(.(.(.(.(.(./.(.(.kXkXkXkXkXcXcXcXcX(.(.8X(.8X8X8XcXbXbXbXbXbXAXKXKXHXHXAXnXcXbXbXwXwXwXwXwXwXbXcXwXwXbXwXwXwXbXbXbXbXwXwXrXZXAXAXAXAXAXrXwXbXcXcXcXcX(.~.(.kX(.~././.~.~.~.~.~.~.~.~.~.P.P.~.~.~./.P.P.K.P.P.&X@X{.Y.T.T.T.].].].].H.J.v.v.c.c.G.C.k.j.J.Y.k.k.k.k.u.k.k.k.H.I.I.I.C.s.y.G G C.{.I.Y h.D.t.t.r.Y Y Y Z.Z.Y Y I Y r.r.T.0XZXAXbX0X9X9X9XyXyXyX0X0X0X0X0X>Xz.z.z.j.j.k.Z.Z.h.D.o.F F F F c o.Z.c x o.:.c x x x c c c c F I U '.dXfXdXdXfXfXdXdXdXdXaX2XaXM.U I ( / P F B K J a K / / b J K ( ] ^ K P ' ' -.9 l l z n n b b b n b 9 9 1 l 9 9 9 v t t M z q t t q q t t t q t 8 < 7 - < 9 9 < 1 i a a a x l l o.o.l l :.X.l l l l l v :.l l X.B.C P X.-.:.B.sXsXT.T.kXkXT.T.T.K.Z.Z.Z.h.o.o.Y L c x z z z l i 1 i l l l l l l l l l v v v v v v ..........O.l.l.;X;X;X+.+.+.+. . . .<.8.8.8.8.8.8.9.9.9.aXaX1.1.1.1.<.1.1.4.4.4.dX9.$.=.*.X.{ { { [ v v v l q 9 7 7 ; ; - , , , , & - % % % # # - = = = = = = ",
"+.+.+.O.;X,X<.=.*.%.@.X.%.-.h.m.>X1X1XF.1.$.4.'.dX'.'.'.aX,.,.1.4.1.1.1.=.z l 9 l l l *.M 9 M <.o.o.+.z.+.+.z.z.....:.:.l 9 9 9 - 1 9 9 9 z :.Z N @.=.>.1.1.1.@.%.1.F.%.@.Z b / ;.,.] ] ] i.T Y H F J ^ _ 2.2.2._.2.2.k c x Y H g.l.....v l v l 1 1 > 1 2 , , 1 l % / `.z > % - - - - - 1 1 1 1 - - - - 1 - 1 1 - - , - , 1 z z 1 2 p z p < < 2 p p p 3 , & & $ 4 w N $.1.0.jXjXjXjXGXjXjXjXgX0.4.4.0.4.0.4.}.3.$.&.h.h.h.Z.M.0 a -.L i a i i i i i p s a u i a i i s F F D F U S.t.j.j.k.k.c.b.b.b.b.U.U.Y.2X2X2X2X8X8X8X8X0X0X0X0X0X0X0X0X9X9X9X9X0X0XbXbXbXnXzXzXxXxXxXsX2XT.T.T.I.I.I.I.I.kX+X+X+X+X].I.{.{.{.{.{.{.{.{.{.{.{.{.{.{.].].].{.{.{.{.{.{.{.{.I.].@X@X@X@XlXvXNXNXNXVXNXNXVXVXNXvXvX+X+X+XkX+X(.(.(.!.(.(.(.+X+X+X+X(.(.(.(.+XcX(.(.(.cXkXkXkXkX+X+X+XkX(.(.cXcX8X(.8XcXbXbXbXbXbXAXKXKXHXHXHXnXnXnXnXcXwXbXbXwXwXbXcXwXwXwXwXwXcXbXcXbXbXcXcXbXZXAXAXAXAXZXbXrXcXwX8XwXcX(.~.(.kX(./.(.kX/././.~.~.~./././.P.P.~.P././.P.P.K.Y.!.mX&X{.T.T.T.T.I.I.I.I.H.b.v.v.c.G.G.H.k.j.J.Y.K.K.P.K.K.K.K.K.H.I.I.{.T.I.M.G G C.{.T.Z.Z.U.t.r.M.Z.Z.Z.Z.Z.Y Y Y h.r.r.T.1X9X0X1X1X>X1X9XyXyXyXyXyXyXyXyXyX9X9X7X4Xm.m.n.x.j.U.j.G r.h.h.h.Z.Z.F D o.M.F F x x x x F F F I U '.dXfXdXdXfXfXdXdXdXfXD.B.F.N.I I A.B.-.J / ;.` c J P V l a c / ] / L P ' ' -.l l i b n n b b n g b l l p l i 9 l z t t z z z t t q q q t t t @ 7 1 7 ; ; < < , 1 i a a x F v l o.} 2 2 >.%.P X.X.o.o.o.:.v x o.o.l i v } } } >.-.C T F.F.K.T.T.2X8X8XkXkX8XT.T.Z.M.o.F c c z 1 , - - 7 7 9 7 7 7 7 9 l l v v v x v F v x H ..........[ { { ..{ { { { X.o.+.<.D.D.<.<.+.<.9.aX<.<.*.o.o.o.{ { { { 1.1.=.#.{ q = 9 { C M M M M N M M M M M M < < 3 M M M M M M M N 3 ; 0 M M M M ",
"@.{ | | +.<.*.=.1.1.8.<.1.$.e 6 e =.<.<. .[ [ { <.:.<.<.<.v q { X.} X.X.{ q q q [ [ [ ,X+.[ ..<.:.*.*.*.*.@.%.*.3 3 } X.1 9 l z z l +.[ l v >.%./ >.aXsXF.D.F.o.o.D.D.o.o.j.m.n.n.n.j.Z.C.p.` U L C H ..H L V R ~ ~ ( ` o.h.T J F L o.i p p * , 2 2 > > 1 l 1 1 1 l B P L 2 > - - - 1 1 - - - 1 1 - - - 1 1 1 1 1 1 1 < 1 1 1 i 1 z z p 2 p u u > * 5 e $.1.aXfXjXjXGXGXjXgXgXgX3.3.4.4.4.4.4.4.'.dXgXgXq.3.gX3.j X.Z.Z.Z.:.Z p D Z.T 1 i i i i a s 2 i a F x x i i F J F x x s s.G e.e.e.e.e.g.g.g.g.g.g.g.x.x.x.x.v.n.m.m.m.m.m.m.m.m.m.m.U.U.U.U.U.1X0XkXzXzXxXkXzXMXMXlXkXkXkXT.I.+X{.I.I.+X+X+X+X+X{.I.{.+X{.{.{.{.{.{.{.{.{.{.+X{.].].oX{.{.{.{.{.{.kX+X{.I.@XlX#X#XNXNXNXNXVXVXNXmXNXNXNXvXvXvXvXvXkX+X(.+X+X(.(.(.+X+X+X+X+X+X(.(.(.+XcX+X(.+XcX(.(.(.(.(.(.(.(.(.(.cXcX(.8X8XwXcXcXbXbXZXAXKXHXAXHXHXnXnXnXnXcXcXbXbXcXwXbXcXwXwXwXwXcXcXbXcXwXcXcXcXbXZXAXZXZXZXZXbXrXwX(.(.(.cX(.~.(.cX(./.(.kX/././././././././.P.P.P././.!.!.!.T.T.!.}.{.T.T.U.Y.Y.^.U.L.J.b.b.J.b.c.G.G.G.k.j.b.Y.T.T.T.T.T.T.T.T.H.].I.{.{.T.Z.G G C.{.T.D.D.D.r.r.Z.K.U.U.D.Z.e.r.I G e.r.T.7Xm.z.k.Z.J.U.U.U.U.m.U.g.g.U.U.g.g.e.e.e.e.D.j.H Y D.h.D Y Z.Z.Z.M.M.D x o.M.x x x x x x x x F I y.F.{.{.`.}.}.lX}.dXfXdXM.r.t.P J S ^ J P -.&.;.-.c L J B l x c C ] ( L L ' ' ` 0 i i b n m g b g h f l l p i < 9 v l q t @ 0 l i t q 9 1 + @ @ + 1 1 ; ; ; ; ; - < i i i i x [ | <.+.[ [ <.:.:.o.o.o.-.-.%.p i C :.a a X.:.o.o.o.X.1 1 %.M 1 < 2 z b C L -.B.Z.F.T.2X8X8X8X8XT.U.U.D.z.....H c c l i i i l l l l l l l v v [ [ [ [ [ [ [ [ [ [ | O.+.+.+.+.+.,X,X,X,XD.{ [ *.D.C C o.X.q 7 { M - % X.X.o.X.*.z - v *.X.X.X.X.X.} X.X.X.} %.Z # # : @.@.@.} } } } @.0 - b } } } } ",
"} { | | [ q 7 = 8 0 q q <.$.t N N N M q q 0 0 0 q q q q q q q } <.q q q [ q q q v v v <.X.l v z 0 9 < 0 : : M *.< < } X.< 9 l l l l :.{ v v <.X.C o.D.z...l.l.l.l.1X0X1X>X>Xn.E.n.n.n.m.z.h.Y J J v c D F F F c J J L Y o...C z c v v l i p , 1 1 1 , 2 l 1 1 1 2 1 z C L i > > - - 1 1 - - > - - - , , , , - , , < , 1 1 1 1 l z p 3 2 : w N Q 1.4.0.dXgXgXgXgXq.q.q.3.3.3.}.4.2.! ! ! ,.4.4.4.0.0.4.4.3.q.}.! A o.M.D D i , A D Z.T 1 i i a a s A 1 i s L F x i i J T J x a j ^ c x D s A D D F D D D D D H H H H H H H H e.e.g.g.g.g.g.g.j.j.g.g.g.v.Y.b.b.Y.8XY.(.lXMXlXkXlXkXT.I.+X{.I.I.I.I.I.I.+XT.I.{.kXI.I.I.I.I.I.S.S.I.I.{.{.].{.oXI.I.I.K.I.I.{.+X].].@X#XOXOX=X=X=XNXNXNXNXNXNXNXNXvXvX@X+X(.(.(.+X+X+X+X+X(.(.+X+X+X+X(.(.(.(.+XcX(.(.+XcX(.(.(.(.(.(.(.(.+XcXcXcX+X(.8XcXcXcXbXbXAXAXKXHXAXHXHXnXnXnXnXcXwXbXbXcXcXbXcXwXwXwXcXcXcXnXcXcXcXcXcXbXbXAXZXZXZXZXbXbXwX8X(.(.cX(./.(.cX(./.(.kX/././././././././././././.!.!.!.!.I.T.{.T.Y.U.U.7XU.U.U.m.m.b.m.b.b.b.k.k.G.y.j.j.j.j.k.G.H.H.H.G.T.T.H.].I.I.S.i.r.G Y a.C.C.r.r.g.r.r.Z.U.r.r.r.Y e.r.y.Y r.r.T.0Xm.g.G e.e.e.g.e.e.j.U.e.e.J.J.e.e.e.G H G Z.h.F F Z.Y x L Z.L c x a a a o.o.a x x a a a a a s c I ;.N.S.d.`.'.{.'.}.dXdXi.I J B A A K J J F C L J a P P V i a c B ] ( L L ' ' / 0 l l b m n n w h n b 9 9 1 i 9 9 l l q q @ 8 0 l t q 9 i ; + < ; 1 1 - - - ; ; - - 1 i a x F [ | <.+.[ [ ........[ v v v l l l C :.i a P o.i i i i i 1 *.C 1 9 9 2 0 z z z c B C X.o.-.Z.Z.Z.Z.K.U.U.U.U.U.U.J.J.b.j.o.o.H v v v l x x x v v [ [ [ [ [ [ | | ....[ [ [ [ [ { D.} v { <.v 9 { *.9 9 } X.9 - } { < - , , 2 z *.b < z *.< - - < ; - , , - - } } , - - # = = = ; - 0 @.0 - M @.- - # ",
"M v [ [ [ 7 ; X # ; , 0 *.*.t t { { N e w w 8 8 8 q q q q q q *.<.M [ [ [ q q q q q 0 *.M 9 9 0 3 : : : : : M *.< < } X.9 9 9 l l l :.} l v <...v +.,Xl.l.>X>X>X>X9XiXuX9X4XE.E.E.n.n.n.n.g.e.H F c c c F H H D H H ....H v z 1 v v l l 1 1 i 1 1 , 1 2 1 , 1 1 2 > z C T i > > - - 1 > - - > - - - , , - , - , , , , 1 1 1 1 l z 2 , 3 N $.1.4.dXgXgXjXgXq.q.0.3.3.2.2.2.! 4.4.! ! $.$.$.$.4.3.q.q.3.3.2.}.'.m A o.o.D a i 2 G D Z.t.1 i i c D D D 1 i s J D x i a J T I x c B V p i l p p i i i i i i i a a a a a a a a a D D D D G G D G G G e.e.e.g.U.j.e.c.T.J.P.kXmXlXlXlXkXI.I.+X{.I.I.I.I.I.I.kXI.I.{.{.I.I.I.S.I.I.S.S.I.I.{.{.].oXoXI.I.I.S.I.I.{.+X].].OX@XOX#X=X=X=XNXNXNXNXNXNXVXNXvXvX+X+X!.!.+X+X+X+X+X+X(.(.+X(.+X+X(.(.(.(.+XcX(.(.+XcXcXcXcXcX(.(.(.+X+XcXcXcXcXcXnXnXnXnXAXZXAXHXKXHXAXHXHXVXnXnXnXcXwXbXcXcXcXbXcXwXwXwXcXcXcXnXnXnXnXcXcXbXbXAXZXZXAXAXAXnXbX8X(.(.cX(./.(.cXcXcXkXkX/././././././././././././.!.!.!.!.I.I.{.Y.m.m.U.7XU.U.m.m.m.b.m.m.b.z.j.c.J.j.j.j.j.j.k.G.H.H.H.H.T.T.I.].].I.S.i.r.G Y a.C.C.r.r.g.r.r.Z.K.r.r.r.Y e.y.y.r.r.h.sX0Xm.g.I G G e.e.e.e.j.J.G G Z.Z.G G G G G G Z.Y A F Z.L a L B.F a a a i a X.o.a a i i i a a i i p A B P K U a.N.A.S.F.'.{.i.J J B F G U J F x c B c a T / / i a c C ] ( L L ' ' / 9 9 l w n w w w 6 n w 9 9 1 1 9 9 l l q q t 8 q z q q < 1 ; ; 1 ; - - - < - - ; - - 1 i x x H [ | <.+.[ | ............[ [ [ [ v { :.l i P o.i i i i l l *.C 9 9 1 < 1 2 1 1 < 1 1 1 z z B L L o.M.Z.Z.K.Y.Y.Y.^.Y.U.U.J.b.z.j.o.o.......H v [ [ ..............[ C C v v v l C >.z 9 M *.9 < M *.= ; { } - - X.C < < ; ; : w *.b 1 z *.< % - - ; = = & % - } } < - - - - = = = ; 0 @.0 ; M @.& & # ",
"< { { } Q Q : - , , 1 = N @.C } #.y e } <.<.<.<.$.$.<.<.<.<.<.<.<.q q 9 X.} } } { { { #.N : ; ; < 7 z } } } X.*.< < X.X.X.X.X.X.o.o.:.[ l x :.L ..U.0X0XiXZXiX9X5X9XyX9X1Xn.x.x.x.g.g.x.m.x.g.g.H H F :.Z.Z.J.J.U.U.U.o.i 1 1 ..<.:.} } , % 1 } } X.} 1 > p < 1 i 2 p C T i > 1 - - 1 1 - M } } } Z } } } } } } } } } X.%.X.z i C Z %.1.dXjXjXjXgXq.4.4.y ! ! E Q Q Q Z Z C 1.aXaXdXq.4.y e 4.}.|.|.|.3.3.4.A.o.h.M.o.D u P X.k.h.Z.r.1 i a F D D G 1 i L o.o.o.-.-.B.S.B.o.M.A.B.X.o.o.P X.o.o.o.c l a a a s a a a s s s s a a c c F F F D F G D F I Y D.h.Y h.T.T.T.lXmXlXlXlXlXI.I.+X+X{.{.{.{.{.+X+XT.I.T.{.I.I.I.{.{.{.{.{.{.{.{.{.{.oX@X{.{.{.T.T.I.{.+X].].@XvXNXNXNXNXNXVXVXNXVXVXVXVXVXNXvX#X+X!.(.+X+X+X+X+X+X(.(.+X+X+X(.(.(.(.(.(.(.(.(.+XkXkX+XcXcX(.(.cXcX+XcXcXcXcXcXnXnXbXbXnXAXAXHXKXHXAXAXnXnXnXnXbXcXcXwXcXcXcXbXcXwXwXwXcXcXcXcXcXcXcXcXcXbXbXAXZXZXAXAXbXbXbX8X(.(.cX(././.(.(.(.(.(././././././.!./././././.P.!.!./.!././.+XW.n.n.m.m.m.m.;Xm.m.m.>Xm.z.m.m.U.Y.Y.U.U.U.U.V.G.H.H.H.H.T.T.{.{.{.{.S.i.Z.Z.Z.F.T.T.Z.K.K.Z.K.K.T.r.r.r.Z.L.Y.T.T.T.T.sX0Xm.e.H H H g.j.j.h.Z.Z.D D o.Z.h.h.h.h.M.h.Z.Y D H Z.H D Y Z.o.o.o.c x i L o.i i i i i i i i i i i & & 1 i a X.X.B.B.S.{.T.F.B.J Y r.t.N.B.Z.B.U J a B.A.A.X.i p C ] ( J L ] ] / 7 9 9 0 5 5 5 w Q &.%.} } } } } } o.} } } #.#.$.$.t 9 z { } } P { { { X.M - - 9 1 1 1 i a x D | | 8.,Xz.z.+...[ ..+.z.+.+.+.O...+.<.o.X.:.:.p p Z X.P X.*.C i i i i 1 1 1 l l C X.X.X.} { } } } } } } %.%.%.>.D.F.T.2XkX8X8X8X8X8X7XT.T.U.Z.j.j.j...H x x 2 < , 1 < < 1 1 1 z *.b 3 M *.} } *.*.< < { } < 9 } } } X.} } { } #.0 # 0 *.9 < z { { } { { { { %.} - - Z Z Z Z N w = 0 @.8 ; w @.N N N ",
"0 %.} } @.*.3 , C } - + e { { } %.Z < 9 *.*.} } } } } } } } } } } 7 < < } } } } } } } } q ; - < 3 3 M =.%.&.X.X.< 1 { o.*.>.:.:.o.o.X.C z z l x H j.1X7X7X7X4Xn.n.>X1Xx.n.n.n.n.m.m.>Xm.n.....z.z.g.e.Z.M.h.z.z.+.o.%.B i i u l.+.X./ %.1 1 < Z Z o.L 1 : ; < 1 1 > c P c 1 1 % - 1 1 - - Z %.} } Z Z Z } } } } } } } X.%.:.z i L :.=.0.jXaX4.4.S.,.@.Q / @.@.@.@.#.$.0.0.0.0.q.0.4.$.e r ! }.|.|.|.|.`.] T o.X.o.h.h.G D h.M.X.X.X.L a a a a a L B.c a L B.o.o.X.-.-.B.Z.M.A.F.o.o.X.o.o.o.o.o.:.c a a a a a a a a a a x x x x c c D F F F G G G G G G r.Y G j.K.T.T.lXmXmXlXkX{.I.I.+X+X{.{.{.+X{.{.{.I.I.I.I.I.I.T.{.{.{.{.{.{.{.{.{.@X#XlX{.{.{.sXT.I.{.@X{.oX@X=XNXNXBXBXBXBXVXNXNXVXVXVXVXvXvX+X+X(.(.(.(.(.(.(.(.(.(.(.+X(.(.(.(.(.(.(.(.(.(.+X+X(.+X+XvX(.(.cXcX+X+XcXcXcXcXnXbXbXbXbXAXAXHXKXHXAXAXnXbXbXcXcXwXwXwXwXcXwXbXcXwXwXwXwXcXcXcXwXwXwXwXwXrXbXAXZXZXAXAXbXbXwXwX(.(.cX(.(.(./.(.(.(.(././././././././././././.!././././.!.oX@X+X/.Y.b.b.v.v.v.v.v.x.x.x.j.j.j.j.b.U.U.U.U.T.c.G.T.+XI.I.T.T.{.@X@X{.S.V.F.Z.M.F.T.T.Z.K.K.K.K.K.U.j.k.K.+XsXsXlXzXxXxXFXzXm.e.H G H j.Z.h.h.h.h.H H j.h.h.h.h.h.h.h.h.Y D x x x x F o.o.o.o.c a i L o.i i i i i i i i i i i 2 X.X.i i -.-.X.X.P %.;.;.-.` -.N.A.F.S.B.F.U U s &.A.'.B.c C / ;.( V P ` -.-.i i p b f g 5 5 &.=.%.} } } } } } X.} { {  . .*.=.t q { *.{ { } } } } X.} - - < - - - i a x v ....+.<.D.D.z.O.| O.D.z.+.,XD.| | 5.+.o.o.+.+.[ [ <.<.X.P } b 1 i 1 1 1 z *.z < C *.} } } X.} } } } } } } } } } } } } %.>.C C Z X.%.:.D.D.T.T.T.(.8X2Xo.c 1 1 1 1 9 9 9 9 9 9 9 9 9 9 z } } } } } < < ; - - < { } } } } } { } } 9 - - - - - M %.} } } } } } } M - - @.} Z N @.0 ; 0 @.8 # 0 N N N N ",
"3 @.0 < M *.0 1 C } = - - - < , } C - 7 *.M - < < < < < ; - - < - - < < < < < < < < < g b z 0 2 2 p V ;.g p < < 1 9 l z M M M M v l z 0 0 0 z l x ..g.m.m.m.m.m.m.1X1Xm.m.m.m.z.z.x.x.g.g.D x o.z.H H z.h.F x l l l z i i l c ..v 1 V %.1 1 > 1 1 1 1 , , , < < - 1 B T z 1 - % 1 1 1 - - Z X., - - - - > > 1 1 1 1 < 2 C :.z p P *.#.4.q.4.$.#.1.1.@.} =.$.$.1.9.9.$.$.$.$.y 4.4.! ! ! ! 4.}.}.3.}.}.] K F x i i a A D D h.o.i i i i s s a a a J :.c a L Z.x x l s c F L J ^ ' i i i i a a a c :.c i a a a a a a a a a a x x x c D D F F F F F G G G G r.r.Y e.r.c.K.{.lXlXlXkX{.I.I.I.I.H.I.I.I.I.I.S.I.S.S.I.I.I.I.{.I.S.I.I.I.I.I.I.@X#XlXI.H.I.{.T.I.{.lXoXoXoXOXOX=X-X-XNXBXNXNXNXNXVXVXvX#X+X+X(.(.(.(.(.(.(.(.(.(.(.+X+X(.(.(.(.(.(.(.+X+X+X+X+X(.(.kXcX(.(.cXcX+X+XcXcXcXcXnXbXbXbXAXAXAXKXKXAXAXAXbXbXbXbXrXwXwXwXwXwXwXbXbXwXwXwXwXwXwXcXwXwXwXwXrXbXbXAXZXZXAXAXbXbXcXwX8X8XcX(./.(.(.(.(.(.(.(./././././././././././././././.!.oXoX@X@X+X!.L.J.b.b.v.v.v.v.v.v.j.j.j.j.v.U.c.j.J.T.c.G.{.+XI.I.H.H.I.].@X{.S.M.F.M.F i.C.V.r.r.y.t.h.j.k.b.K.T./.(.{.}.sXxXxXGXzXm.e.G H H j.Z.G G F H H H G D D D D D D D D D D x x x x a a a a a a a i L o.i i i i i i i i i i i i X.X.i i -.Z i i i u p p j B K P / ' ' S.F.` U c b / ,.' / Q ( ] ( V P / -.%.1 2 3 3 3 5 5 5 %.&.0 < < 1 1 < < 3 9 9 q q q M #.q 8 { *.7 ; ; - - - } { - - - - - - i a x v ....[ | ......O.| O.,X+.O.+.D...[ | [ v s [ | | [ <.+.l i 2 2 1 i i 1 1 z *.z 1 C *.< < 2 2 1 1 < < < < 1 1 1 1 ; ; < 0 *.z < z b b M C X.o.M.M.Z.K.D.L l 1 1 1 9 9 9 9 9 9 9 < < 9 9 < < < < < < < < ; - - - - - - - - - - - - - - - - - - M %.- - - - - - - - - - @.M - < @.0 # 0 @.8 # # = = # # ",
"3 @.0 , M *.0 < Z @.+ - > 1 1 - } M - 7 *.M - - - ; - - ; - - - - < < < < < < < < < 3 W ^ W B p p g ( ,.g 1 - < 9 9 9 9 9 9 z v C v 0 0 0 0 z z l v ..l.j.v.b.m.m.1X2Xm.z.z.j.g.e.H H H D i i X.o.x H z.Z.F c i 1 i i l l v ..v 1 , C *.1 > > i i ; : 3 2 b 0 7 + 8 C T 1 1 - % 1 1 > - - Z X.- , - - , > , , 1 1 1 , 2 b *.z i P *.$.0.q.4.$.$.0.0.=.X.9.9.0.0.0.0.$.$.y #.r Q ! 2.4.4.}.}.|.}.2.4.F.C x D a a i i i a a M.o.a i i i a a a a a J :.c a L Z.D x x s c c F L P ^ i i i i i i i c :.c i i i i i a a a a a a a a x c c D D F F D G G G G G y.r.e.e.r.c.P.{.lXlXlX+X{.I.I.I.I.I.I.I.I.I.I.C.C.S.S.S.S.I.I.{.I.I.I.I.I.I.I.I.OX#XmX{.C.K.{.{.].oX@X+XoXoXOX#X=X-X-X-XBXNXNXNXNXVXVXvX#X#X+X+X(.(.(.(.(.+X+X(.(.(.+X+X(.(.(.(.(.(.kXcXvXvXcXcX(.(.kXcX(.(.cXcX+X+XcXcXcXcXnXnXAXAXAXAXAXKXKXKXDXAXZXbXrXrXrXwXqXqXqXwXqXbXbXbXbXbXbXbXbXbXrXwXbXbXbXbXbXZXbXZXAXZXbXbXbXbXcXcXcX(.(.(.8XcXcXcXcX(./.(./././././././././././././.!.!.oX@X@X+X+XP.P.P.L.L.b.b.v.v.v.v.v.v.j.c.Y.b.j.J.T.G.H.{.+XI.I.K.H.I.].@X{.S.M.K.M.G i.C.V.j.r.y.h.k.k.V.J.T.T.~./.oX@XsXxXFXGXhX1Xg.H D H j.Z.G G G H H H D D D D D D D D D x a x x x a a a a a a i i i L o.i i i i i i i i i i i i X.X.i i -.L i i i i u u u i p j V ' S.}.{.N.` c M X.;.' ] ] ( ] ( W / / &.%.- < < 3 3 3 3 5 %.&.3 < 1 - < < < < 9 9 q v q M @.q 7 { <.9 7 ; - ; - } { - - - - - - i a x v [ | | [ [ ......O.+.,X+.O.O.D.....O.....S [ | O.[ <.+.l i i 3 < i i i 1 C *.z 1 C *.1 1 1 1 1 1 1 1 < < < < 1 < 9 9 < z *.0 < , , , < < 2 p p p B L X.z 1 9 1 1 9 < < < < < < 3 < 1 1 < ; < < < < < < - < - - - - - - - - - - - - - - - - - M %.- - - - - - - - # # @.M - ; @.0 # 0 @.8 # # # # $ # ",
": @.: # b %.3 , C X.a 2 } } } } %.N ; < } M - 9 } } } } } } } } } < - - < < < < < < < V / ' ] _ ~ ~ ^ ;.z 7 9 0 9 1 } X.%.%.%.%.-.o.o.:.:.:.X.v x ..D.D.D.D.D.o...h.Z.H D G D D D D D D x p p X.=.*.%.;.>.o.o.D.B.:.%.-.:.D.D.Z 2 > L X.%.%.1.=.,.1.F.1.$.4.$.e % c F F > > - - 1 1 1 - - Z X.- , } } } } } b 1 1 1 2 1 z *.z 1 C $.dXgXq.0.9.0.w.9.t { { { { Q Q Q E 2.3.3.3.4.4.4.}.}.}.}.}.2.( -.>.x x L M.M.X.X.< - i o.h.a a -.-.-.-.-.-.-.:.:.c a L Z.Z.Z.M.o.:.M.o.P P V i i i p -.-.X.o.:.c i i i i i i i i i a a a a a a a a a s A F F D D G G y.r.e.e.y.c.P.{.lXlXlXkX{.T.I.I.I.I.I.I.I.S.C.I.I.I.I.I.I.I.].{.{.{.{.{.I.I.I.{.lXvXvX].I.I.kXoX].oX@X+X+X@X@XOX=X-XBXBXBXBXBXVXVXVXNXvX#X+X+X+X+X+X(.(.+X+X+X+X(.+X+XkXkX8X(.(.(.+X+XcXkXkXcXvX+X+XkXcX(.(.(.+X+XcXvXcXcXcXbXbXbXAXAXAXAXKXKXDXDXAXZXbXrXrXrXeXeXeXeXeXeXrXeXeXeXeXeXrXrXbXrXrXrXbXrXrXbXbXbXbXbXbXbXwXbXcX8X8X(.(././.(.(.(.kXcX(.(.(.(.(.(././././././.!./././.!.!.oX@X#X@X+XI.I.P.P.L.J.b.c.c.c.v.v.v.c.b.T.b.g.J.T.H.I.+X+XI.I.{.{.{.@XlX{.S.h.K.h.G C.T.T.U.U.K.U.T.T.T.J.I.{.A.S.I.].[.OX&XMXzX1Xm.G D D r.h.G G G Y H H h.h.h.h.h.M.M.h.-.o.o.o.L a a c o.o.o.o.o.i i L o.i i x a i i i i i i i i X.:.-.%.:.P i p X.X.-.-.-.X.X.X.%.P ( }.}.}.}.}.'.F.F.B./ V &.&./ V P %.%.} 9 9 9 0 0 b 0 w @.*.3 < } } X.} } b < 9 z v q M *.0 7 { <.*.*.#.{ ; - } } - - - - - - i a x v | | | | [ [ D.D.D.D.,X+.O.O.,X..[ +.,XD.:.<.O.O.[ <.o.l i %.%.%.%.%.%.X.*.:.z i C :.X.X.X.X.X.X.} , , , < 3 , 3 } } } } *.z 1 1 1 1 < 1 1 < < < < < z 9 9 9 1 1 1 < < < : 3 3 3 3 3 3 3 : : < < < < < < < < - - - - - - - - ; ; - - - - - - M %.} } } } - - < } } } @.M = ; @.0 # 0 @.} } } } # # # ",
"3 @.: % b @., , , , , p %.:.} N M 0 - 1 1 - - 9 %.M M M { { M } *.< - - < < < < < < < < z n ( _ _ ~ j i 1 9 M *.1 1 X.X.X.o.o.o.o.j.h.j.h.h...D D ..Z.j.o.h.Z.H D h.j.D D j.h.D D D D D x l 9 C { C C X.C c L F.F.Z.:.X.o.o.o.>.V n X.D.1.1.1.1.=.;.F.0.4.$.m 5 p I c l > 1 > 1 > M %.- - Z X.- , X.} C C %.C 1 1 *.B 1 0 *.z 1 z $.0.q.w.0.0.w.1.=.m #.! 4.4.4.3.3.2.2.4.4.2.] ] ] '.`.4.,.N.U F Y B.s s L M.T P Z < 1 i x D a a :.o.P P P o.o.P P c a L h.h.o.o.L o.o.L o.P j -.L i p :.X.L L L z i i i i i i i i i i a a i a a a a a a a D D D D F G y.r.e.e.u.c.P.+XlXlXlXlX+XT.I.I.I.I.I.I.C.I.I.I.I.I.I.I.I.S.I.I.].].{.{.I.I.I.{.@X@XlX].I.].lX+X].].{.{.+X@XlXOX=X-XNXBXBXBXNXNXNXNXvXvX#X+X+X+X+X+X(.(.+X+X+X+XcXcXkXkX+XkX8XkXkX+X+XcX+X+XkXvX+X+XkXcX(.(.(.(.+XcXcXcXcXcXbXbXbXZXAXAXAXKXDXAXAXAXZXbXrXrXrXrXeXeXeXeXeXeXeXeXeXeXeXeXrXZXrXrXrXbXrXrXrXrXbXbXbXbXrXrXbXcX(.(.(.(./././././.(.cX(.(.(.(.(.(.(.(./././.!./.(.(.(.(.!.+X@X=X@X@XoXI.I.H.H.G.G.c.c.c.v.j.j.c.b.T.b.k.J.T.H.I.I.I.I.I.{.{.{.{.{.{.S.t.Y I G M.T.T.Z.Z.Z.Z.Z.K.T.h.K.T.'.'.'.{.&X X[.mXlX8Xn.e.H D G D D G h.D.G D h.Z.o.o.o.o.o.o.o.o.o.o.F a a L :.o.L o.:.i i L o.i i X.X.i i i i i i i i C P P P P B i p *.X.Z Z Z C C X.-.V ^ `.}.}.}.}.}.'.{.{.S.( Z / Z n P %.%.P 1 i 1 < C =.0 3 @.%.3 < X.X.{ Z *.M < 9 *.{ q { <.q 7 M } { } %.@.< < } } - - - - - - i a x v [ | | [ | | ,X<.+.:.+.| | O.,XO.[ +.,X;X+.6.| [ [ [ v l i %.} C X.X.Z C C C z i v } L X.X.C C C C , , , *.N , 3 *.} M M M 0 < < 1 1 < < < < < < < < < < < < < < < 3 3 3 3 3 5 5 w 5 5 5 5 3 < , < < 1 < < < - - - - - - ; ; ; - - - - - - ; 0 M M M } } ; ; ; M M M M 0 = ; @.0 = 8 M M M } @.= = # ",
"3 @.: # b @.; % % - - i X.-.z ; < - , 1 , - - 0 *.9 - - - < - M *.- - - - - - - - - ; # < 0 V ( ) U s i i l C :.l l o.o.x D D D D H H H D D D D D H z.H D Y h.D D j.j.D D j.j.D D H D x x l l l 1 < 9 l 1 p B F.D.T B l v v o.F.%.@.@.<.<.=.*.@.@.W 4.0.$.#.b p F F l 1 > 1 1 1 1 b %.- , } } - - X.C > 1 *.C 1 2 *.B > 0 *.v 1 , $.4.0.0.0.0.0.,.,.Q 4.3.3.3.3.3.3.2.,.] ] ] ] ( ( `.,.( W J D x Y B.j s L :.a i p p i a x F a a :.L a a a c a a a a x x D D D x a x c a -.P p -.L i p -.B i i i i i i i i i i i i i i i i a a a a a a a a a D D A F G y.r.r.r.y.c.P.+XlXmXlXlX+XT.I.I.I.I.I.I.I.I.I.I.I.I.I.I.I.S.C.C.C.C.T.{.S.I.I.I.oX+X+XI.].oXlXoXI.I.I.I.I.@XlXOX=X-X-X-X-XNXNXNXvXvXvXvXcX+X+X+X+X+X(.(.(.(.+X(.(.(.(.(.kXcXkXkXkX+XkXcX+X+X+XvX+X+X+XcX(.(.+XcXcXcXbXcXwXwXwXbXbXZXHXAXAXKXKXKXAXAXAXbXbXrXrXrXeXeXeXeXeXeXeXeXeXeXeXrXrXZXrXrXbXbXrXrXrXbXZXZXZXbXrXwXbXcX(.(.8X(.(.(.(././.(.cX(.(.+X(.(.(.(.(.(././././.!.(.(.!.+X+X@X=X@X@X+XI.I.I.H.H.G.G.c.c.c.j.j.c.b.T.J.k.K.T.G.H.I.I.].I.{.{.I.].].].S.t.r.I G M.T.C.r.r.r.j.j.D.T.h.K.T.{.'.{.sXmX}.}.&XlX(.n.g.H H H D D D h.Z.H D h.Z.D D x x x x x a a x a a a c :.c i L :.i i L o.i i X.X.i i i i i i i i i i i i i i i z :.C 1 1 1 i i b %.B K d.`.`.`.).`.`.S.{.'.;./ / / V P &./ P 1 2 2 < M *.0 3 @.%.3 < %.} < < *.M - 9 *.M 9 M =.w 7 9 9 < < { @.< < } } - - - - - ; i a x v [ | [ [ |  .,Xo.v v [ [ [ +.,XO.[ +.,XO.| O.| [ [ [ v l i %.b - l l 1 1 1 1 1 1 1 1 i i i 1 1 1 , , ; , *.Z 3 3 *.b , ; , , , , 1 1 1 < < - < < < ; - < < < < < , 3 5 5 5 5 5 5 w w w w 5 3 : , 1 - - - - < - - - - - - ; ; - - - - - - - - - - - - M } ; ; ; # # # # # = ; @.0 = = = = = w @.# = # ",
"3 @.3 $ b @.3 , , : = + Z X.J I J z 8 ; ; - - 0 *.0 7 7 7 ; ; M *.- ; ; ; ; ; ; ; ; ; + # - < v H e.G A D D j.D.H e.z.b.e.e.e.g.x.g.H H D D D D x H Z.H H j.z.H H j.J.H D j.j.H H D x i i c c c B B z l i > p B.;.P B n V %.<.<X<.<.=.1.<.o.[ } &.,.4.1.@.9 i D Y i - % 1 1 1 1 - z X.1 < } } - 1 X.C > 1 %.C 1 p *.B 2 b *.l p 6 4.4.4.0.0.$.,.}.3.3.3.3.3.3.).d.] ) / W R ! ( W W S.] ( B x D D T B.s i X.:.z c c J F c F F a s M.L a c c c c c a i a x c c c c x c c B -.J i -.P p z -.B i i i i i i l l p z z a i i i i a a a s s s a a c D D A F G y.r.r.r.y.c.P.+XlXmXlXlX+X+XI.I.I.I.I.I.I.I.I.I.I.I.I.I.I.I.I.C.C.C.I.{.C.I.I.C.I.oX+X].].oX+XI.I.I.I.].oX@XmXOX=X-X-X-X-XNXNXNXvXvXvXvXcX+X+X+X+X(.(.(.(.(.(.(.(.(.(.(.cXcXkXkXcX+XcXcX+X+X+XvX+X(.+XcX(.(.cXcXcXbXbXbXwXwXrXbXbXAXKXHXHXKXKXKXKXAXAXZXbXrXrXrXeXeXeXrXeXeXeXeXeXeXrXrXrXZXZXZXZXZXrXrXbXZXAXAXAXZXrXwXbXcX(.(.cXcXcXcXkX(./.(.cXcXcXcX(.(.(.(.(.(./././.(.(.(.(.+X+X+X#X=X&X@X+XoXI.I.K.H.H.G.G.c.c.k.k.k.G.T.H.f.K.T.J.G.I.{.].].+X{.I.].].].I.M.t.I I M.T.C.j.j.j.j.j.Z.T.j.K.T.Y.K.D.,XdXdXgXgXlX8XW.g.H H G D D F h.Z.G D h.M.F D D D F c c c c c x x x L :.c i L :.x l X.X.i i X.X.i i i i i i i i i p p p l i i p :.C p 2 1 1 2 C -.B K S.'.F.,.2.`.`.`.}.'.S.I.S.d.a.' ' ( W 3 3 3 9 } =.z b @.*.< 1 X.C - < *.M < 9 %.q < M *.z 7 < < - < N @.< < } } - - - - - ; i i x [ [ [ { {  . .9.} z v ......z.,XO...+.,X| O.O...[ [ [ [ l i %.C < l l 3 2 3 < , , 1 < i p z l 9 9 < , , : =.@.w M =.M 3 3 : : ; , < < 1 9 9 < - < < < - 9 9 1 < , < 3 w w w w 5 w w w w w w 5 3 , 1 - - - - - - - - - ; ; ; ; - - - - < < < < < - - - M } ; ; ; # # # # # # ; @.0 = = ; ; ; M @.# # # ",
": M : $ b @.@.@.@.} = O N @.%.B.A.F.B.=.#.M - 9 %.%.%.%.%.7 ; M *.- ; ; ; ; ; ; ; ; ; < , - - x H e.x.u.g.e.x.v.g.e.z.D.:.*.*.*.<.B.D.Z.:.:.:.:.:.:.:.F x o.h.M.h.h.h.D D j.j.G F c p c B J c c B.D.A.A.:.c C A.F.A.>.*.X.*.1.<X,XF.'.Q Q ,.Q '.4.4.1.@.1 l v D x 1 > , 1 1 1 - - z %.*.*.%.} - - X.C > > %.C 1 2 Z z 2 m %.n R ! 3.3.4.4.}.2.).4.4.3.2.2.! W K K J B n g 5 >.,.,.,.`.' V j L M.-.B.B.c x L :.*.:.Z.Z.Z.Z.:.c a s B.:.:.:.:.:.:.:.L a i L :.:.:.:.:.:.>.A.` B u :.:.:.:.-.B i i i i i C :.:.:.:.-.i i i i i a a a a a s a s s A D F F I y.r.r.e.y.k.P.lXMXMXlXlXlXkX+X{.{.{.F.I.I.I.I.I.I.I.I.{.{.{.{.I.C.f.I.{.{.{.{.f.I.I.+X].I.I.+XI.I.I.@X@X@X@XvXOX=X=X-X-X=XNXNXvXvXvXvXvX+X+X+X(.(.(.(.(.(.(.cXcX(.(.(.8XcXcXcXkXkX+XcXvX+X+XkXcX(.(.kXcX(.(.cXcXwXwXwXwXwXbXbXbXZXAXKXKXKXKXKXAXAXAXAXZXZXrXrXeXeXeXeXeXeXeXeXeXeXeXeXrXrXrXrXrXrXrXrXrXZXZXbXbXAXZXrXrXbXcXwX8XcX8X(.(.cX(./.(.(.(.(.(.(.(.(.(.(.(.(./.(.(.!.(.(.+X+X#X#X&X&X@X+X+XT.I.K.K.H.H.G.G.G.c.k.k.G.Y.H.H.I.{.{.T.{.{.I.I.+XkXkXlXlXsX{.T.F.M.I M.T.T.U.U.U.j.j.D.T.z.U.U.U.U.1X2XdXfXhXgXdX2X7Xm.g.H G D D D Y h.F D o.Z.Z.Z.Z.Z.B.B.B.B.:.:.:.:.:.:.:.c i L :.:.:.:.X.i i C C i i i i i i i i i :.:.:.:.L i i %.%.*.*.C 1 i B %.-.>.'.aX0.1.,.sXsXsXaX'.,.d.`.d.d.S.A.;./ i 1 > < C =.=.=.*.*.< 1 } C < < *.M < < Z 0 < z *.9 < < < < < M } - - M M - - < - - - i i x [ [ [ <.<.8.8.9.} z l +.D.D.,X,Xo.o.<.1.1.1.<.D.D.,X<.v 9 u %.%.%.:.:.%.%.%.b & - b %.%.*.*.*.*.*.*.- ; : =.=.=.=.=.N 5 5 w w 3 N *.*.*.*.X.< < < < < - < < - - , : 3 5 w e 6 5 5 w 5 5 w 4 5 3 , < - - - - - - - - - - - - - - - - - 0 @.%.@.@.0 - - M @.@.@.} # # # 0 : # ; @.0 = 0 @.@.@.@.@.= # : ",
"$ $ $ $ 3 w w w Z } # = w w w M Z %.;.;.>.M - < M M M M %.< ; M *.; ; ; ; ; ; ; ; ; ; - - - - i D e.x.g.e.e.H H H D L L Z Z Z Z X.o.o.o.L L L L o.L L x D H Y o.o.o.o.H H H H H F c c B B c c x o.o.X.>.o.l c %.%.X.} X.%.=.1.1.4.1.#.Q ! 2.! ,.&.#.N b < v c x 1 1 > > 1 - - - - l M M M M z - - X.C > 1 %.C 2 2 2 1 i B *.W ( 2.2.2.2.4.}.2.2.2.! ! W R h g s p p 3 g 5 5 >.,.( ] ,./ B j K P J L L c c F L C L L P L L L a a s L L L L L L L L c a a L :.L L L o.L P -.P c u C C C C C z i i i i i C :.L C X.-.i i i i i i a a a s s a s s s A F F r.y.r.r.r.r.k.P.lXMXFXxXlXlXlXkXkXsXsX{.{.I.I.I.I.I.I.T.{.{.I.I.I.C.f.I.I.I.I.I.f.I.I.lX{.I.I.+XI.I.].@X+XoX@X@XOX=XNXNX=X=XNXNXvXvXvXvXcXcX+X(.(.(.(.(.(.(.(.+X+XcXcXcXcXcXcXcXkXkXkXcXvXkX+XkXcX(.(.cXcX(.(.cXcXwXwXwXwXbXbXbXbXZXAXKXKXKXKXKXDXAXAXDXZXZXiXiXeXeXeXeXeXeXeXeXeXeXeXeXrXrXrXrXrXiXiXrXrXZXZXbXbXAXZXrXrXbXcXwX8XcX8X(.(.cX(./.(.(.(.(.(.(.(.(.(.(.(.(.(.(.(.!.+X+X+X#X#X=X=X=X@X@X+XoXI.I.K.H.H.H.H.G.G.G.G.G.G.H.H.I.].].I.T.T.H.H.I.{.{.{.{.{.{.Z.K.h.I i.S.I.k.J.U.j.r.K.T.m.U.U.D.U.2X2XdXhXhXq.aXsX7Xm.g.H G D D D D G F D L o.Y Y L L L L L L L L L L L L L x i c L L C C C i i i i i i i i i i i i i C C C %.L i i C C C C z 1 1 z B V / A.0.0.9.>.T.'.'.'.'.4.`.`.`.S.A.,.,./ c z p 2 z M M M M M < 1 X.Z < < *.M , < < < < z *.9 - < < < < M } - - - , - - , - - - i i x [ [ [ <.<. .+.<.{ z l o.+.+.+.+.{ %.=.$.$.$.*.+.<.+.+.[ 1 2 C C M C C b b b 3 - % b %.M C C C C M M - ; : N N N N N w 4 5 w w w N *.N M } } , 1 , < 1 , < < , - - & 3 5 5 6 5 5 4 4 5 5 5 4 : : , , - - ; - - - - - - - - - - - - - - 0 *.M M M ; # # 0 e e w w = = = @.w = ; @.0 # 0 @.M w w w # # M ",
"# # # # # # # # M Z # : : : # X = 5 K a.F.Z , - # & - 0 *.; ; M *.; ; ; - ; ; ; ; ; ; - - - = , s H g.e.H D z z l 1 2 3 3 p p c F c c c c c a x x D D D D D D H H H ......o.L F F c B B c a a x D x c -.X.i z b v z 0 Z ( &.&.] 2.] 8 ! 2.2.E R 5 p 1 9 9 L s 1 # 1 > > 1 1 - - 1 1 - - - - - 1 1 X.C > , %.C 2 2 2 1 i C >.( ! 2.2.2.2.4.`.! ! R h d i 1 2 2 2 , , * 5 5 g >.( R W ! n c B k j p l a s F F x x i i a a a a a a s a a a a a a a a c x a L :.i a F D x c P P c i i i i i i i i i i i i C -.p i P -.i i i a a i i a a a s a a s s A D F I y.r.r.e.r.k.I.lXFXFXxXxXxXxXzXfXfXfXdXsXT.T.T.T.T.T.{.{.I.H.H.H.f.f.f.I.f.I.I.S.].].+XI.H.I.+X].I.].@X].].oXOXOXOXNXNX=X=X=X=XvXvXvXvXcX+X+X(.(.(.(.(.(.8X(.8XcXcXcXcXcXcXkXkXkXkX+XcXcXkX(.kXcX(.(.cXcXcXcXcXcXwXwXwXrXbXbXAXAXAXAXKXKXHXKXKXKXAXAXDXZXZXiXiXiXrXrXeXuXeXeXeXeXeXuXiXiXiXiXZXZXZXiXiXrXZXZXbXbXZXZXrXrXbXcXwX8XcX8X(.(.cX(./.(.kXkXkXkXkX(.(.(.(.(.(.(.(.(.(.+X+X+X#X#X=X=X=X#X@X+XoXoXI.I.I.H.H.H.H.H.H.H.H.H.H.H.I.].].I.I.T.s.s.C.I.I.I.].I.I.t.D.M.I t.s.s.r.k.U.h.t.K.2XU.m.D.D.1X2XaXdXw.w.q.aXsX7X1Xg.H G D D D D G G G D D D x a x x x a a a a a i i i i i i i i i i i i i i i i i i i i i i i i i i i i X.L i i i i 2 1 1 1 1 1 > u J N.0.0.9.z.U.F.4.4.4.'.'.`.`.`.,.,.,.&.P P B p 2 2 1 - - , < 1 %.} < < *.M - , , < < M *.9 - < < < < M } - - , , - - , , - - 1 i x [ [ { <.+.[ v } C v l ..[ [ | [ { @.#.#.y y { { { | | [ 1 1 , 2 1 i i 1 > - - - & b %.1 2 2 1 1 1 - - & ; : 3 : : : : : 4 w 4 w N *.0 - M } , < , < < 1 < < - - - , 3 5 5 6 4 4 4 5 3 3 5 4 : : , , - - - - - - - - - - - - ; - ; ; ; 0 *.< # # # # # # # = # # = # # @.w = : @.0 = 0 @.3 = # # # # M ",
"& : : : : 3 & $ N @.0 , : : = o O * j ' F.%.b 0 3 ; ; b *.; ; M %.; ; ; ; ; - ; ; ; ; < ; + + + 9 l c z p , 9 < 1 < 1 1 l l x D H x l i i l x x x H ..j.g...g.z.g...z.z.z.j.D F J B n g p a F o.h.L L o.o.i f R E E 2.2.2.2.2.2.! m 0 h W ( v z 3 3 z c D l 1 > > , , , 1 1 1 > 1 1 1 > - 1 0 l l X.C > , %.Z z z z g p B F.2.2.] _ ~ S / &.p : 8 l i i 1 2 < * 1 1 2 p f g ,.] ] ] V V K K K K V C c x D G Y Y c z < 1 i a s a p c c c c c a a a c c a L :.a A G D x c -.P C c z z i i i i i i z z c Z -.p i P -.c c c c a a a i a a s s s s s A F F I y.r.r.r.r.y.I.MXFXFXxXxXxXxXfXdXfXfXfXxX+XkXkXkXsXsXsXlXI.C.I.K.I.I.I.I.S.I.].].[.].kXT.I.I.@XoX].].@XoXoXoXOXOXOX=XNX=X=X=X=X=XvXvXvXcX+X+X(.(.(.(.(.(.(.(.8X8XcXcXcXcXcXcXcXkXkXkXcXvXcX(.kXcX(.(.cXcXcXcXcXcXwXwXwXrXbXbXAXAXKXKXKXKXKXKXKXKXHXAXDXZXZXZXiXiXiXrXiXiXiXiXrXrXiXiXiXiXiXZXZXZXZXZXiXiXZXZXZXbXZXbXrXrXbXcXwXwXcX8X(.(.cX(.(.(.cXcXcXcXcX(.(.(.(.(.(.(.(.(.(.+X+X+X+X#X#X=X=X#X@X@X+XoXoXI.I.I.I.I.I.I.I.H.H.I.I.].].].].].].{.I.C.k.M.i.C.I.I.I.h.D.M.T N.C.s.Y k.T.h.t.T.sXU.z.Z.F.,X,XaXq.q.q.gXdXaX<X1Xg.H G G D D D D G G D D D x x x x x x a a a i i i i i i i i i i i i i i i i i i i i i i i i i z z z z -.P i i i > 1 1 z z z z p p K f.0.0.aX>X9X0X2X1.1.,.&.] ,.4.`.`.`.4.4.4.,.-.P Z b < 0 0 9 0 } C < < *.C z 0 0 3 - z %.M 0 0 < , , C } 0 0 0 9 - - , , - - i i x [ { { <.+.[ c P X.X.[ +.o.+.O.+.{ { M #.$.$.{ [ v |  .[ 9 , 2 b z F c i i 1 1 , , b %., 1 1 1 1 1 < 9 0 0 w w : : : : : 4 e e e } *.7 - N @.0 z 2 9 1 1 < - ; - - , 3 5 6 6 6 4 5 w 3 3 3 : : : ; < - - - - - - - - - - 0 0 0 0 0 ; ; 0 @.; # ; 0 0 0 8 8 = = : 3 3 : @.w # : @.0 = 0 @.w : : : O O M ",
"3 @.@.@.@.@.; # M @.@.@.@.N # = $ $ * Z F.F.A.=.%.8 ; z %.9 ; M @.< < - # - ; - % - 1 - - ; + = < l Y p 2 a l l l 1 2 2 i c x H H x x D H H ........g.l.l.l.l.l.g.j.j.g...H D F B B B B p i c >.F.sXF.>.&.R R ] 2.E ! A.,.,.,.,.&.%.*.=.=.=.%.%.%.*.:.X.l 1 1 - 1 > > - 1 1 1 1 - 0 b - - Z %.X.%.%.C > , %.*.*.*.:.V g / A.A.,.>.n 2 2 Z %.%.%.%.} 1 1 , , 2 , 1 2 p d f g ,.`.`.A.,.>.B.A.A.A.B.B.B.x D H h.B.:.*.9 1 c T T c i c :.:.:.P a i c L c a c L a F H x a c A.A.>.-.-.L i i i i i z :.:.:.:.:.l i P :.:.:.:.X.i i a i a a a a s s c A F F r.r.e.e.e.r.V.I.MXGXGXMXxXxXxXfXxXxXxXfXFXfXxXMXxXlX{.{.{.I.H.I.{.{.{.{.{.I.I.{.@X@XlXlX].I.].@X].].].@X@X@X@X@XOXOX=X=X=X=XNXNXNXvXvXvXcXcXcX+X(.(.(.(.(.cX8X8XcXkXcXcXcXcXcXcXcXkXkXcXnXcX+XkXcX+X+X+X+X+X+XcXcXcXcXbXbXbXbXAXAXAXAXKXKXKXKXKXKXDXDXDXZXZXZXZXiXiXiXiXiXiXiXiXiXiXiXiXiXiXZXZXZXZXZXZXZXZXZXZXZXZXbXrXrXbXcXwXwXcX8X(.(.cX(.(.(.cX(.(.kXcX(.(.(.(.(.(.(.(.(.+X+X+X+X#X#X#X=X=X=X@X@X@X+XoX].I.I.I.I.I.I.I.I.I.{.{.{.@X@X].].@X@X{.{.{.I.i.s.s.C.C.M.F.A.A.T.T.C.y.C.T.V.t.K.2XD.Z.Z.F.1X,X<XgXdXdXq.dXaX<X1Xm.g.D G D D x A A F x x x x x x x a a a a i i i i i i i i i i i i i i i i i i i 2 i i i i i i X.:.:.:.:.C 1 i C z i z :.*.*.*.%.%.B.{.dXdXdX7X0XzXCXfXsXS.] ] ] ] ] ] ] ] 4.,.4.`.`.`.,.( 1.F.<.*.*.{ > - %.*.%.*.*.v 1 v %.%.*.*.0 - , C *.%.%.%.} - - - , , , 1 1 i l v v <.D.<.>.:.F.F.F.<.<.D.,X,X| | [ <.<.<.D.[ [ [ +.{ 2 2 b *.*.*.} i i c L c i c L a a i 1 1 1 } %.@.*.=.} : : : : : w =.=.=.=.=.0 - Z *.*.*.*.} < < < - - , , , 3 5 5 5 3 3 3 3 5 5 5 w 4 5 - - - - - - ; ; ; ; ; # @.@.@.@.@.0 # : M = # M @.@.@.@.} = = } @.@.@.@.w # : @.0 = 0 @.@.@.@.@.O O 0 ",
"3 @.w 3 M @.; # : : 3 : Z N # & $ # $ n / ,.` P %.8 ; 0 %.9 ; M @.- ; - - ; = = - - , - = = 7 = - 9 G z p i l l l 1 2 i i c D H H x x H ....g.g.g.g.j.z.z.z.l.g.g.g.g.H H H F c B B c s s i p -.D.D.:.Z Z m W ,.] R W >.Z b b p p p b b z 3 3 z z l X.X.i 1 - - 1 1 1 > - - - - > b %.- - Z X.l z z 3 > , b z z z >.V g V V n b 3 , , , 2 z z z %.Z , , , , , , 2 2 p 5 g g ( ] ( L V V V V K K K P B.x D D F J c z 1 i c Z.M.c i i c c c c a a C :.c a a a a c F x a c B.B.B p -.L i i i i i z :.C z z z i i z c c c X.X.i i a i a a a a s s s s F F r.r.e.e.e.r.G.!.FXGXGXMXxXxXxXfXxXxXxXfXFXfXfXfXxXsX{.{.{.I.H.I.{.S.S.{.{.I.I.{.{.oXoXoX].I.].@X].].].].].oX@X#XOXOX=X=X=X=XNXNXNXvXvXvXcXcXcX+X(.(.(.(.+XcXcXkXcXkXcXcXcXcXcXcXcXkXkXcXnXcX+XkXcX+X+X+X+X+XcXcXcXcXbXbXbXbXZXAXAXAXAXKXKXKXKXKXKXDXDXDXAXZXZXZXiXiXiXiXiXiXiXiXiXiXiXiXiXZXSXZXZXZXZXZXZXZXZXZXZXZXbXrXrXbXbXwXwXcXwX(.(.cX(.(.8XcX(.(.kXcX(.(.(.(.(.(.(.(.(.+X+X+X+X@X#X#X=X=X=X&X@X@X+XoXoX{.].I.I.I.I.I.I.I.{.T.I.{.@X].].].].].I.{.I.s.i.i.i.C.s.M.i.t.N.T.C.s.H.T.C.t.K.2XD.D.Z.F.T.F.2XdXdXdXq.dXaX<X1Xm.j.D G D F c A A F x x a a a a a a a a a i i i i i i i i i i i i i i i i i i i i i i i i i i X.X.z z z p 1 p :.C i l :.C z z z z V N.0.0.<XW.2X0X0XfXsXF.] ] ] ] ] ] ] ] ] ] ,.,.`.'.,.,.'.F.>.%.} M p 9 w z p b *.q 1 1 b 0 z z < - , 0 0 0 9 } } - - - - , , 1 1 < 1 9 l C } C M z C X.*.M [ [ +.D.| | [ ....[ ..[ ..[ +.o.2 > 2 z 0 0 9 i i v :.c i i i i i i 1 1 1 } } 0 w =.} : & : ; , 0 =.N e e w ; - 0 0 0 0 } } < , , < , - - , 3 5 5 4 3 3 2 < 5 5 4 5 5 4 - & - - - - ; ; ; ; ; ; @.M 8 w @.0 = ; # = = e @.8 8 N } = = } } 3 3 3 ; # ; @.0 = : : : : M @.O O # ",
"3 @.: # w @.; # # # $ # N N # = $ $ X 5 m ,.` V %.7 = 0 %.8 ; N #.  . + 7 + X = < - % ; X X 7 = = ; D c z z i i i 1 1 1 i x D D D x D H ..g.g.j.j.z.z.z.m.z.l...H H H H H F c c B p p p p p p %.%.c B B z z v :.{ 9 z %.f , , , > > , , , > > > > 1 X.} 1 1 1 1 1 1 - > - - - - - b %.- > Z } - > , , , , 2 1 1 p >.Z f 3 > > & & , 1 , > 1 , 1 X.Z , , , , , 2 , 2 p f g h W ( W c j p p j j j j L B.x x D a a i 1 1 i s M.o.a i i i x c c c c C :.c x c D a a D D x c B.>.s 1 -.L i i i i i z :.z i i i i i i i i i X.X.i i a a a a a a s s c s F G r.r.e.e.G r.G./.HXHXHXMXxXxXCXfXzXxXxXfXFXMXkXsXsXT.T.{.{.I.I.I.{.C.S.{.{.I.I.{.+XoXoX].I.I.].+X].I.].].].].@X#XOXOX=X=X=X=X=XNXNXvXvXvXvXcXcX+X(.(.(.cXcXcXcXcXcXcXcXcXcXcXcXcXcXcXcXcXnXcX+XcXvXcXcXcXcXkXcXcXbXnXnXnXbXbXZXAXKXKXKXKXKXKXKXKXKXDXKXKXAXZXZXZXZXiXiXiXiXiXiXiXiXiXiXiXiXZXAXSXZXAXAXAXAXAXAXAXZXAXZXbXrXbXbXwXwXcX8X(.(.cX(.(.kXcX(.(.cXbX(.8X8X(.(.(.(.(.+X+X+X+X+X#X#X#X=X=X=X=X@X@X@X+XoXoX{.I.I.I.I.I.I.].+X].I.I.{.].[.].].].].{.T.C.p.i.i.i.V.V.V.i.M.F.S.s.H.{.K.V.T.sX2XU.K.F.K.T.F.aXaXaXdXsXdX<X2XU.k.H G G D F F D D x x a x x x a a a a a a a a i i i i i i i i i i i i i i i i i i i i i i i X.X.i i i i i p :.C i z :.z 1 2 2 , j ' 9.0.9.W.1X<X<XdXxXsXA._ ] ] ] ( ( ] ! Q Q W ,.'.] ,.'.'.A.,.,.&.N N e 9 2 p *.q - , : < < < - - - , - , - } } - - - - , , 1 1 1 1 1 - - 9 9 9 1 z z C z l v o.D...[ [ ....v x [ ..O.<.o.1 > > 1 - - - - - z *.0 - < < < 9 1 < 1 1 } Z = : =.Z : & , , , 0 *.w 4 4 3 : - < < < - } } , , , < < - % # * 3 4 4 * : * * * 4 : : 4 4 - - - - - - ; ; ; ; ; - @.M ; 8 @.0 ; = = = = w @.# # M } # # } N = = = = # ; @.0 # # # # # w @.O # # ",
"3 @.: # w @.; # 3 w w 0 N N # # 0 w 3 w m &.A.;.=.8 ; 0 %.; # M *.- - - - # X + + + + = : o O < = O D a 2 : p 2 2 1 1 l x D H H D H H g.g.g.l.l.j.j.g.g.v.x.g.e.H H H F F c c c c p p z z B b %.*.C C M b b b %.b > 3 %.3 % , b b b z , , , , , > 1 X.C - > 1 1 1 1 - > - - - - - b %.> > Z X.b z z z 2 2 1 , 2 f >.Z b 3 3 , , z b z z z z , , X.Z , , , , , , 2 2 p f g h ( ( P B B u i c L P K X.:.c a c B c c B i i i o.X.i i B C L L T J c C :.L L L Y c x F L L L B.B.c 1 :.P i i i i i c :.L C c b B B B p i i X.X.i i i i a a a a s s c s A A I t.r.e.e.c.L.(.nXzXzXnXzXzXfXsXsXsXfXfXxXkXT.T.kXT.+X+X{.I.f.I.{.I.S.].{.I.I.{.@X@X@XoX].I.].+X].I.I.].].].oX@X@X=X=X=X=X=X=XNXNXNXvX#X#X#X#X+X+XcXcXcXcXcXcXcXcXcXcXcXcXcXcXcXcXcXcXcXnXvX+XkXvXvXvXvXcXcXcXnXnXnXnXAXAXZXAXAXKXKXKXKXKXKXKXKXKXKXKXKXAXAXZXZXZXZXZXiXiXiXiXiXiXiXiXpXZXZXDXDXDXDXDXAXAXAXAXAXAXAXZXbXrXbXbXwXwXcX8X(.(.cX(.(.kXcX(.(.8X8X(.8X8X(.(.(.(.(.+X+X#X+X+X#X#X#X=X=X=X=X#X@X@X+XoXoXoX{.].I.I.I.I.].@X].].{.{.I.I.[.[.].].{.T.p.p.C.C.C.V.C.C.S.T.{.S.p.C.T.C.V.T.T.K.K.Z.`.S.S.F.F.'.'.sXsXaXaXhXT.V.G H F D D D D D x a a a a a x a a a a a a a i i i i i i i i i i i i i i i i i 2 1 i i i i X.X.c b c B B C :.C i c :.c i z B B P A.<X0.<X4X1X,X<XdXkXkXzX{.4.! ] ] ] ] ] ( / ( ,.F.W R ,.A.,.,.`.`.>.$.$. .} } F.:.L M e - # < 0 0 M M z , - } } - - - - - - , , 1 1 - - - z z z z , , 0 M z c X.:.v v [ o.o.o...[ ..O.D.+.9 > z z z 0 0 < ; 0 #.M 0 0 0 ; ; 0 z z z } } = : =.N & % , > - 9 #.N e N M M z z < - - } } < - - - - - - - : 5 5 6 6 6 6 5 4 : : : 4 4 - - - - - - ; ; ; # ; - *.M # 8 @.M 0 0 ; = = w @.= # M } # # } } 0 0 3 = # ; @.0 # # # # # w @.0 0 0 ",
"= 0 ; # w @.; # M @.@.@.@.N # # } @.@.@.&.1.F.F.>.8 - < z ; # M @.- - - , - - - # + + - : : $ 1 < 0 F c z 0 b z z 2 l l x H H D D H H ..g.g.g.g.g.g.g.g.g.g.g.H H Y H F c c p p p p p p p 2 2 P %.%.%.%.%.%.%.%.b > p %.p > z %.%.%.%.3 , 2 C b > > } C % > - > 1 - - - - - - - - M %.> > Z %.%.%.%.Z 2 2 C b d g ;.%.%.@.%.p , b %.%.%.*.X.> > X.Z > , , , , , 2 2 p f h R ] A.>.-./ i i C >.>.>.:.:.c i L :.:.:.:.c a i c c i a :.:.:.B.B.P c C :.:.B.B.M.F x o.Z.B.D.A.>.p 1 :.Z 1 i Z z i z :.:.:.:.:.:.:.:.z i i X.X.i i i i a a a a s s s s A A I I r.r.u.b.^.8XzXzX2XzXkXfXfXdXlXlXmXdXlX+X/.T.kXkXkXlX+XI.I.I.{.I.S.{.{.I.I.{.@X@X@X@X].I.I.+X].f.I.I.I.].oX@X#XNXNXNX=X=X=XNXNXNXNX#X#XvX#X#X+XcXcXcXcXcXcXcXcXcXcXcXcXcXcXcXcXcXcXcXnXcX#X+X+X+X+XcXcXcXcXnXnXbXbXAXAXAXAXAXAXHXKXKXKXKXKXKXKXKXKXKXDXDXSXZXZXZXZXZXZXZXiXiXiXiXpXZXZXZXZXZXZXZXZXZXZXZXZXZXZXAXAXbXbXbXbXwXwXbXwX(.8XcX8X(.kXcX(.(.(.(.8X8X8X8X8X(.(.(.+X+X#X#X+X#X#X#X=X=X=X=X=X@X@X@XoXoXoXoX].I.I.I.I.I.].I.I.{.{.I.I.{.@X@X{.{.{.f.f.T.T.T.T.F.T.T.{.{.S.p.s.C.s.C.T.T.Z.V.C.`.`.`.'.sX'.'.sXaXaXaXhXT.k.G F D D D D D D x x a a a a a a a a a i i i i i i i i i i i i i i i i i i i i i 1 1 i i 1 X.:.:.:.:.:.:.:.:.C i c :.z i B :.-.>.F.2XaXaX7X1X,X<XdX{.T.0XsX`.! ] ] ] ] ( ( ( ( ,.'.( ^ ,.A.A.F.F.,.$.#.1.<.<.$.1.F.F.A.1.C 0 M *.*.%.%.%., - } } - - - - - - - - , , , , < %.*.*.} - - 0 *.%.%.*.*.l l { :.:.<.D.[ [ [ o.[ 9 1 *.*.X.%.%.0 - z *.*.*.*.%.- - M %.%.%.%.} = : =.N & , C 0 - 9 @.#.=.=.=.*.%.*.< - - } } - - - - - - - # : 4 5 6 6 6 6 4 5 4 : 4 4 4 - % % - - - ; # # # # - @.M # 8 @.@.@.@.0 = # w @.# # M } # # } @.@.@.N # # ; @.0 # # # # # w @.@.@.@.",
"# # # # w @.; # M } : $ = ; # # } N : $ : Q ;./ B = - , - = ; M @.% - - - , , , - - ; 7 3 3 : < z z F B c v V m n z z l x D D D D H H H ....g.g.g.Y H H H H H H L F F c p p p 2 2 2 2 1 , > > , 2 2 2 , , 2 2 2 , > p %.p > z %.z 2 2 , , 2 Z Z , > } C % > > > - - - - > > - - - M %., > 1 1 3 2 X.Z 2 2 %.Z f d p < , z %.0 > b %.2 2 Z X.> > X.Z , , , , , , * 2 p p h R ] C c p s p i C >.P c c c c a L :.l c c c c i i i i a :.P c C B.L c c a x F o.:.F c o.Z.o.o.P V p 1 %.Z , p %.b 2 u p p p p p p p p i i i X.X.i i i a a a a a s s c s A A I I r.e.u.L.^.8XzX8X8XkXsXlXmXmXmXmXmXlXlX+X(.T.T.Y.(.+X{.I.I.I.{.I.S.{.{.S.I.I.].[.OXoX].I.I.{.I.f.I.I.I.].].oXOXOX=XNX=X=X=X=XNXNXNX#X#X#XcX#X+XcXcXcXcXcXcXcXcXvXcXcXcXcXcXcXcXcXcXcXnXvXcXcX#X+X+XcXcXcXcXnXnXbXbXAXAXAXAXAXAXHXHXKXKXKXKXKXKXKXKXKXDXDXSXSXZXZXZXZXZXZXZXiXiXiXZXZXZXZXZXZXZXZXSXZXZXZXZXZXZXAXAXbXbXZXbXwXwXbXwX(.8XcX8X(.cXcX(.(.(.8X8X8X8X8X8X8X(.(.+X+X+X#X+X#X#X#X=X=X=X=X=X@X@X@XoXoXoXoX].I.I.I.I.I.I.I.I.{.+XI.S.{.{.I.I.I.I.I.f.{.I.a.i.i.i.i.a.a.a.a.p.s.s.C.T.T.V.V.C.`.`.'.{.dX'.'.aXaXaXaXhXT.k.G F D D D x D D x x a a a a a a a i a i i i i i i i i i i i i i i i i i i i i i i i i i i i i p p p l l z z i i z :.z i b :.z C =.2XaXaX7X2X<X<XdXT.P.2XsX'.] ] ] ] d.( ( ( ( ,.`.( ( ( ( ^ W ,.;.$.#.,XD.<.<.$.=.-.B.F.:.C } =.0 3 M X.1 , } } - - - - - - - - - , , , , < < < < - - 9 %.b 3 < < , < C o.l l v v v [ [ v 9 1 *.C < 0 %.z - < < < < M %.- > M } < < < < = : =.Z : , %.z - - < 3 w w 0 8 < < - - - } } - - - - - - - - : 4 4 6 6 6 4 4 6 4 4 4 4 4 - % % - # - ; ; # # # # @.M # # ; ; ; ; = = # w @.# # M } # # ; ; ; ; ; # # : @.0 # # # # # = ; ; ; M ",
"# # # # w @.& # M } # X # # $ # } M : # $ m ` T c # < < < + X M *.; + X X . O ; 8 w e q c c b M M v a c c l / W V m z z c x a a a D D H H H H G I I Y H F c c c c p i i 1 1 1 1 2 2 1 > > > > > > % % > > > > 1 1 1 p X.p > z %.2 > > , , , Z Z > > Z M % > > > > - - > - - - - - M %.> - > , 2 , X.Z 2 2 *.Z g 5 > , , z %.2 > b %.> > C X.> > X.Z , , , , , , 2 2 p p h R ] B c s s p p P B.P s c c x l C :.i a c F F c z l i i :.C i c :.L a a a a A Y :.c a o.T.Z.Z.K g p 2 %.Z 2 p *.b 2 p p p p i i i i i i i i X.X.i i a a a a a s a s c c F G G G G e.u.^.7X0X0XkXkXlX}.}.|.mXmXmXmXmXmXkX(.T.T.P.(.+X{.I.f.I.{.I.C.I.{.I.I.I.].].].].I.I.I.{.I.I.I.I.I.].oXoXOXOX=XNX=X=X=X=X=X=X=X=X#XvXcXcX+X+XcXcXcXcXcXcXcXvXvXcXcXvXvXcXcXcXcXvXnXvXvXvXvXcXcXvXvXnXnXnXnXbXbXAXAXAXKXHXKXKXKXKXKXPXKXKXKXKXKXKXDXDXZXSXZXZXZXZXSXZXZXpXpXpXZXZXZXSXDXDXDXDXDXDXDXDXDXAXZXAXAXZXbXAXbXwXwXbXcXwX8XcXcX(.cXcXcXcXcXcX8X8X8X8X8XkX8X8X+X+X+X+X+X+X#X#X=X=X=X=X=X&X@X@XoXoXoXoX{.I.I.I.I.I.I.I.I.T.+X].I.T.{.I.I.f.f.I.f.{.I.a.a.i.i.T U ) i.i.i.s.s.C.T.T.K.V.V.F.`.`.F.dX'.F.aX2XaXdXhXY.u.e.D G G A s s s x x a a a a a a a i i i i i i i i i i i i i i i i i i i i i u i p i i i i i i i i i i i i i i i z :.z 1 b %.p z %.2X'.'.7X0X<X<XsX+XP.Z.2X{.].] `.).]./ ' ' ( ,.`.( ( ( ^ ^ ^ A.;.$.$.,X<.<.<.$.$.&.B.2XB.%.>.1.z 3 M X.1 1 X.} - - - - - - - - - - - - , - - - - < - 9 %.z - - - - - M %.% - 1 1 < 9 9 9 1 1 *.M # 3 %.z - - , , , M %.- - M } % - - - = : =.Z * : %.z - - - : : : : ; - - - - - } } - - - - - - - % * * 4 4 4 4 : * 6 6 4 4 4 4 - , % - # # ; ; ; # ; # @.M # = # = = = = = = w @.# # M } O O O # # # # # # : @.0 # # # # O O O O X M ",
": M M M N @.& # M } # # w M M b } M & # M Q B.N.-.M M M M e M } %.; : 8 e e e e e N y e l x v #.N q A D c M W m m n f p p s s c c x x c c c c c c c c c z p 2 , , , 1 > 1 - - % % % % % % > > M C M C C z > , C C C Z %.p > z %.C C C Z , , Z %.C C X.C > > > > % - > > - - > > > M %.C C C 1 , 1 X.Z 2 2 :.Z f 3 M M M Z %.2 > b %., > M } , , X.Z , , , , , , 2 2 p p h W ,.-.o.-.o.X./ ;.B.P c L L F l C :.X.o.X.P c a P X.P P :.C i c :.L a a F o.h.h.Z.a a o.T.M.M.K j p i %.Z i p -.B p p p i 2 c L L L L L i i X.X.i i i a a a s s a s s s F F F G G e.u.^.wXZXbXzXxXxXmXmX&XmX}.gXgXmXmXsXsXkXsXT.+X+X+X{.].{.{.I.C.I.{.S.I.].{.@X@X+X].I.I.+XI.I.I.].oX+X@X@XOXOX=XNX=X=X=XNXNXNXNXNX#X#X#X#X#X+XcXcXcXcXcXcXvXvXvXvXvXvXvXvXvXvXcXvXvXvXvXvXvXcXcXvXnXvXnXnXnXnXnXAXAXAXHXKXKXHXKXKXKXKXKXKXKXKXKXKXDXDXAXZXSXZXZXSXSXZXZXZXZXZXZXZXZXZXDXDXDXDXDXDXAXDXDXAXAXAXAXZXbXAXbXwXwXbXcXwXcXcXcX(.cXcXcXcXcXcXkXkX8X8X8XkXkX8XkX+X+X+X+X#X#X#X#X=X=X=X=X&X&XOXOXOXoXoX].I.I.I.I.I.{.{.{.{.{.I.I.T.{.C.f.I.I.I.I.{.I.a.a.S.S.S.C.C.S.N.C.K.K.T.T.T.V.V.V.V.S.S.F.4.F.T.sXsXdXfXzXL.u.e.D G G A s a a x a a a a a a a i i i i i i i i i i i i i i i i i i i i i i i i 2 i i i i C C L P P C i i L L C Z %.z 1 b *.Z %.,.sX'.F.7XzX<X<XsX+XI.B.U.T.{.] ).).`.` ' ' / ,.F.A.S.A.( ^ W ,.;.( 1.aX9.+.B.F.'.A.F.,X<.o.<.F.{ M } } - 1 X.} - - - - - - - - - - - - M M M M C M M M *.0 - - ; - % M @.M M M M - - C { C Z %.M % 3 =.M < < 0 M M { @.- - M } # - - - = : =.Q : 3 @.0 - - - : : e N N M C M - - } } - - - - - , > , 3 5 5 5 4 4 3 : 6 4 4 4 4 4 - , & # # ; ; ; # # # # @.} M N M 3 # : M M M } @.# # M } O O e M M M M 0 # ; @.0 # O 3 M M M M X X M ",
": @.@.@.@.@.& # M } # # N @.@.@.@.M & = @.&.F.D.>.@.@.@.@.#.*.*.*.w e e N #.{ N e N y e z z N #.N e c c c m h g g 5 f p p s s c c c c c z z p p p p p i 2 , , % % % > > > - % % % % % % % > > Z %.%.%.%.C > 2 %.%.%.%.%.3 > z %.%.%.%.%., , Z %.%.%.%.C > > > & % - > > > > > > > M %.%.%.%.2 , 1 %.Z 2 p =.Z 3 3 %.%.%.%.%.3 > 2 z , > C X.> > X.Z , , > , , , 2 2 p f h W A.B.B.B.B.>.>.A.>.P c L L c l C :.:.:.:.o.i a -.:.:.:.:.L a c :.L a a L Z.Z.Z.Z.a a P D.T T K J s i -.L i p -.B u p X.p i C :.:.-.-.%.i i X.X.i i i i a a s s a a a s F F F G e.e.x.7X0XAXAXxXxXMXmXmX}.mX}.}.gXmXmXlXkXlXlX{.{.+XlX+X{.{.{.I.C.I.{.S.I.{.@X@X@X@X].I.I.+X].I.I.{.@X@X@X#XOXOX=XNX=X=XNXNXNXNXNXNX#X#XvX#X#X#X#XcXcXcXcXvXvXvXvXvXvXvXvXvXvXvXvXvXvXcXcXvXcXcXvXvXnXvXvXvXnXnXnXnXAXAXAXKXKXKXKXPXKXKXKXKXKXKXKXDXDXDXDXAXZXZXSXSXSXSXSXZXZXZXZXSXSXSXDXAXZXAXAXAXAXDXDXAXAXAXAXZXZXAXbXbXcXbXcXwXcXcXcX(.(.(.kXkXcXvXkXkX8X8XkXkXkX8X8X+X+X+X+X#X#X#X#X=X=X=X=X=X&X&XOXOXOXoX].].].].I.].+X+X{.{.{.I.I.{.{.C.a.].{.{.{.{.I.p.a.T.T.T.T.T.T.F.F.T.T.sXsXsXV.V.V.V.S.S.'.4.F.T.aXsXdXfX0Xv.e.G F D F s a a a x a a a a a a a a i i i i i i i i i i i i i i 1 i i i i i i 2 1 1 i i i i X.:.:.:.:.Z i l :.:.:.%.*.z 1 b *.*.>.F.sX'.F.9XzXhXhXlX+XI.S.Z.K.`.d.).`.] ` ' ' / ,.F.F.F.F.( ^ W A.;.^ 1.aX8.o.M.T.sXF.F.,Xz.+.<.<.} { *.} - 1 X.} - - - - - - - - - - - - } @.%.%.%.%.@.@.*.0 - - - % # M %.%.%.@.} & - } %.%.%.%.M - 0 =.M 8 7 M *.*.#.#.; ; M @.; - - - = : =.Q : : @.w - 9 } w : N =.*.%.%.} - - } } - - - - - , > , 3 5 5 4 4 4 : : 6 4 4 4 4 4 - % & # # - # # # # # # @.@.@.@.@.0 = 0 @.@.@.@.@.# # M } O O } @.@.@.@.w # ; @.0 O O w @.@.@.@.X X M ",
": @.: # # # # # M } X # N N $ # X X = = @.Z U J i X + + + 8 e M { { #.y y #.#.e 8 e N N M M #.Q N N b b B m 5 5 5 5 5 3 p p p z z p p p p p 2 2 2 , , % & % % % % % , , > - % - - , > > > % % Z Z > > } C > 1 X.b - > > , , > > > > C %., , , , > > > > > > & & > - > > > > > > > > > > , , , 1 , %.C p p >.Z 2 2 %.z > > > & % > > , 2 Z %., , X.Z , , > > , , 3 3 3 f k ~ >.X.s B c s p B j s s L F c i i a a i L X.i i o.o.i i a a F H Z.L a a x x D D x a a P Z.J I K K B i -.L i a -.c i c -.z i C :.p i Z %.i i X.X.i i i i a a s s a a s s A A c I e.r.v.wXbXDXAXxXxXMXfXdX}.mXmX|.|.*XmX}.{.lXlX{.+X{.lXI.I.I.C.I.C.].{.I.I.{.{.].].@X].I.I.+X].I.I.].].].OX@XOXOX=XNX=X=XNXNX=X=XNXNX#X#XvX#X#X#X#XvXcXvXvXvXvXvXvXvXvXvXvXvXvXvXvXvXvXvXvXvXvXvXvXvXnXvXvXvXnXnXnXnXAXAXHXKXKXKXKXPXKXKXKXKXKXKXKXKXDXDXDXDXSXSXSXSXSXSXSXSXSXSXSXSXSXDXDXDXDXDXDXAXAXDXDXAXAXDXAXZXZXAXbXbXcXnXcXwXcXcXcX(.+XkXkXkXcXnXkXkXkXkXkXkXkXkXkXkX+X+X+X#X#X#X#X#X#X=X=X=X&X&X&XOXOXoX].].].].].].+XI.I.].I.I.C.{.{.C.s.T.{.C.C.d.a.p.a.T.S.a.i.i.i.T t.t.t.T.T.T.V.V.Z.V.I.{.}.'.F.T.F.T.dXfXqXv.e.D A F F s a a l a a a a a a a a i i i i i i i a i i a a a a i i i i i i i i i i 1 i i i i X.X.i 1 X.C 1 p :.C i 1 1 1 1 1 1 1 b A.sX'.F.4X,X<X<X{.I.H.K.C.C.S.`.].`.' a._ ^ / ( ^ ( ^ ^ ^ ^ W A.,.h =.aXD.o.o.F.F.&.*.+.;X;X6. . .{ *.} - < X.} - - - - - - - - - - - - } M - - , - % % - - - - - # # - , , < M } , - } Z % & - - - 0 =.M 8 7 7 ; ; = = ; ; M @.= - - - = : =.@.: 3 @.w ; 0 #.w : N =.3 - C } - - } } - - - - - - - % : : 4 4 4 4 : * 6 4 4 4 6 4 - % & = # % # # # # # # # # # 3 @.0 = w @.; # # # = = M } O O } N # # @.w # ; @.0 O O O O X w @.X X b ",
": @.: $ $ $ $ $ M Z X # N N $ $ # # = = @.Z J c i q { #.#.{ e q l 7 8 e #.N e 8 e e N N y y y 8 e y y e 5 f f 5 5 5 5 5 f p 2 , - - - - % % # # % & - - % % - , , & % % # % % % % % % & > , > Z Z > > Z C > 2 %.b > > > > > > > , , C %.> > > > > > > > > % % & > > & % % > > > > > > , , > > < , %.C p g ,.V & < %.z > > , 2 p p 3 2 2 Z %.1 1 X.Z , , , , > , , 3 3 f k W -.P p j c p p c p i a F c a u p s a i Z %.i a M.o.i i i D G r.D.Y i i i i a a i i a P Z.Y T U J j s Z.h.D F Z.L x F B.F x C -.i i L %.i i X.X.i i i i a s s a s a s s J J s G G r.v.wXnXKXxXxXdXfXgX|.|.&XmX}.}.}.lXlXI.@XlX{.@X@XlXH.H.H.H.I.I.].{.I.I.{.{.].].@X].I.I.{.I.f.I.].].].OX@XOXOX=XNX=X=XNXNX=X=XNXNX=X=X#XvX#X#XvXvXvXvXvXvXvXvXvXvXvXvXnXvXvXvXvXvXvXvXvXvXVXVXVXVXVXvXnXVXHXHXHXHXHXHXHXKXKXKXKXPXKXKXKXPXPXKXKXKXDXDXDXDXDXAXSXSXSXSXSXSXSXSXSXSXSXDXDXDXDXDXDXDXDXDXDXAXAXDXDXAXAXAXnXbXbXnXcXcXcXnXnXnXnXnXcXcXvXnXcXcXcXkXkX8XkXcXcXcX+X+X+X#X#X#X#X#X#X#X#X&X&X&X&X&XOXOXoXoX].].].].+X].I.I.I.I.S.I.{.S.I.T.T.p.a.a.f.f.f.T.C.` i.i.t.T i.s.t.T.kXvXT.V.h.M.J.'.}.F.T.U.,XF.aXdX^.x.H x a F F x D D x a a a a a a a i i i i i a a a a a D D D G F G e.e.e.e.G G G G G G A a p i X.X.i 1 X.C 1 p :.C 1 1 1 1 1 1 1 1 b A.dX'.F.n.<X<X2X{.{.T.J.I.I.I.`.`.N.T ] ( ( W ~ ( ( ( ^ ^ W V ,.;.W ^ F.D.,XD.aXA.` o.+.5.5.5.|  . .1.@.; - } } - - - - - - - - - - - - } M - - % - , ; - - - # - - - < - % - M } , - } } # % - - # ; @.0 # & & , , , , , , N @.; - - - = : #.@.: w =.M : w #.w : N =.: - M } - - } } - - - - - - % % = 4 4 6 6 4 4 4 6 6 4 4 6 4 - $ $ # # % # # # # # # # # # 3 @.0 = 0 @.; # # # # = M } # # } N # # @.w # ; @.0 O O O X X w @.O X b ",
": @.: # X w N N @.Z % X N N % = O O $ = @.:.-.o.C q { #.1.$.#.@.e e e y y N N N N e e e e r r e e r r 6 4 5 3 * , * * * 2 , , , - - & & % % % % - - - - - % - & & & % & & & & % % % & > > 1 1 Z Z > > } C > 2 %.} Z Z Z 3 > & b Z Z %.%., - M Z / Q ! r 6 % % > > > > - - - - - - z Z } Z } Z , , %.C p g ;.m , 3 =.V 3 3 V %.%.@.Z Z Z %.X.> , X.Z , , , , , , 2 2 3 d W ] A.-.X.%.X.X.X.X.X.X.X.-.-.X.P X.X.i i L -.i a M.o.a i X.h.b.J.U.Y a i i a a x l i i P Z.I Y Z.N.M.M.J.j.e.e.U.b.b.Z.D.Y D Y Z.D D Y -.P X.-.X.i i i i a s s s s s s s s A A I r.r.v.8XbXAXnXzXsXfXmX}.}.}.}.}.}.}.}.lXF.{.lX@X@X@XlXI.H.H.C.S.f.].{.I.I.{.{.].].@X].].].+X{.{.{.oX].].@X@XOXOX=XNXNXNXBXNX-X-XNXNX=XNXNXNXNXNXvXvXvXvXvXvXvXvXvXnXvXvXNXvXvXvXvXvXVXvXvXNXVXVXVXVXVXvXnXVXHXHXHXHXHXHXHXKXKXKXKXKXKXKXKXPXKXKXKXKXDXDXDXDXDXDXDXSXSXSXSXSXSXSXSXSXSXDXDXDXDXDXKXDXDXDXDXDXDXDXAXAXAXAXAXbXbXnXcXcXcXcXcXcXcXnXcXcXvXnXcXcXcXcXkXkXkXcXcXkX+X+X+X+X#X#X=X=X#X#X&X&X&X&X&X&XOXOXOXoXoX].].].@X].I.I.{.{.{.{.{.I.I.{.{.d.d.f.S.I.C.{.I.S.S.C.` ) N.I.C.{.zXxX+XK.Z.Z.Z.F.'.'.F.U.2XaXaXdXW.j.G D a D D c D x x a a a a i a a i i a a x D D G G x l l x G e.e.e.e.e.e.e.e.e.e.e.G D F D c o.X.i 1 X.C 1 p *.X.X.X.X.z 1 1 b } =.'.dXF.F.4X<XdXdX{.I.P.J.I.`.`.S.N.a.i.] ( ) ^ ] S.S.A.,.,.W V A.;.W K F.2XD.F.'.B.;.%.<.<X,X,X8.9.9.,X@.; - } } - - - - - - - - - - - - } } } } N Z } } Z } } N Z Z Z } Z - - M } # # } { # = Z } Z } #.0 : ; ; - - - - - & M @.& - M } } } *.N : w =.@.@.@.#.w : N *.3 - M } } } } } - - - - - - - # & * : 4 4 4 4 4 : 4 4 4 6 4 = # # # # = = = = = # = = = = 3 @.0 # 0 @.; # O O # # M } # # } N O O @.w # ; @.N N N N ; X w @.X X M ",
": @.: # X w N N N M & . N N % # } M $ = Z o.o.o.C e t $.1.*.@.@.e e N N e e y y y e e e e e e e e w 4 4 : : - - - - % % % % % & - - & & & & & % & - - - & - & & & & & & > > > % % % & > 1 i 1 Z Z - > > > > 2 Z Z Z } %.3 > & b Z Z Z Z > - Z %./ ] 2.E E * & > > > > - - - - - - M %.} Z %.X., 2 %.C f g ;.m 2 3 f f f f Z %.Z Z Z Z Z } C , , > , , , , , , , 2 2 3 d W ] A.-.X.%.P P X.X.X.%.%.%.X.P X.X.:.i i i i a a a a a i :.o.k.b.J.Y l i i i a a i i i a F F Y K.Z.Z.M.v.g.e.e.b.m.b.b.Z.G D Y Z.G H Y o.o.X.X.P i i -.P a a s s s s s s c A A I r.r.u.8XzXAXbXzXsX}.}.}.}.}.}.}.}.}.mXfXF.T.T.+X@X{.{.I.H.T.T.I.f.].{.I.I.I.I.].].@X].].].+XoXoX+X@X].].OXOXOXOX=XNXNXNXNXNX-X-XNXNX=XNXNXNXNXNXNXvXvXvXvXvXNXNXNXnXNXNXNXvXvXvXNXNXVXNXNXNXVXNXvXNXNXVXVXVXHXVXHXHXHXHXHXKXKXKXKXKXKXKXKXPXKXKXKXKXDXDXDXDXDXDXDXDXDXSXSXSXSXSXSXSXDXDXDXDXDXDXKXDXDXDXDXDXAXAXAXAXAXAXZXbXnXnXnXcXcXcXcXcXcXnXcXcXvXnXcXcXcXcXcXkXcXcXcXcXkX+X+X+X+X#X=X=X=X=X&X&X&X&X&XOXOXOXOXoXoXoX].].@X].].].{.@X@X@X{.].].{.{.d.d.{.{.I.S.].I.I.].S.' i.C.T.K.T.kXxXkXT.K.K.J.A.F.'.F.U.2XaXdXdXv.e.e.D a a s c a a a D a a a i i i i a a a D D e.e.G x i 1 x D e.e.e.e.e.e.e.e.e.e.e.G G G G F o.o.i i 1 1 1 p X.X.X.X.*.z 1 1 C X.=.F.sXF.F.7X<XdXdX{.I.K.b.s.d.`.S.a.` t.] ( ) ( ,.F.A.,.S.A.W V A.;.V B F.<X<.>.N.-.=.=.<.<X,X,X<.9.9.1.Z - - , - - - - - - - - - - - - - M } } } Z Z } } } } Z Z Z Z Z } @.- - - # # = % % # : #.} Z } @.8 : < ; ; ; ; - - & : = # # N @.} } } M : w @.@.@.@.@.w : N #.3 = M } } } } M - - } M - - - - & * * : : : : : : : * 6 4 : $ % # # $ = = # # # # = @.w = # = = # w @.; # w @.# # M } # # O O # # @.w # ; N N N N @.: X X X X X w ",
": @.: # X # # # # X . % Z N X + } M % $ , G A a p e N #.1.e e e y e e e 8 8 8 e e r y 8 8 : : : : : & & > > - - - - % % % - - - - & & & & & & & & & , - & & & & & & & & & > > % % & > > 1 1 1 Z Z - > > > > > > > > 3 %.3 > , > > > 1 > > > } / 6 E Q E E 5 1 > & > > % - - - - - M %., , Z X.> 2 %.P g g ,./ z p 2 2 2 , > > , > > > , , , , , > , , , , , , , , 2 5 d W ( W p i z u i i u p p p p u i i C :.i i i i i i i i i 1 :.C D G G x i i i i i i i i i a a F I K.Z.I G e.e.e.e.e.e.G D a a s L Z.G e.G D D a a i i i -.P i p s s s s s s c F G I r.r.u.8XbXAXbXzXsX}.}.}.}.}.}.}.}.}.mXmX{.S.I.!.+X{.{.S.I.T.{.I.I.].{.I.I.f.R.].].@XoX].].].].].].@XoXoXOXOXOXOX&X=X=X-X-X-X-X-XNXNX=XNXVXNX=XvXvXvXvXvXvXNXNXNXNXVXNXNXNXNXNXNXNXNXVXNXNXNXVXNXNXVXVXVXVXVXHXHXHXHXHXHXHXKXKXKXKXKXKXKXKXPXKXKXKXKXKXDXDXDXDXDXDXDXDXDXSXSXSXSXSXDXDXDXDXDXDXDXKXDXDXDXDXDXDXAXAXAXAXAXAXnXnXAXnXcXcXcXcXcXcXnXcXcXnXnXvXvXvXcXcXcXcXcXcXvXvXlX@X+X+X#X=X=X=X=X=X&X&X&X&XOXOXOXOXoXoXoXoXoX@X].].].].].].].].].].@X{.I.C.{.{.].`.d.a.a.S.S.N.i.C.T.t.V.T.kXkX(.T.P.L.K.F.S.K.U.D.2XsX0Xv.e.G D a a s c a a a a a a a a a a s c F F e.e.e.G D a i 1 i D G e.e.e.e.e.e.e.e.e.G G G G F F o.o.i i i 1 1 1 1 1 1 z *.z 1 1 1 1 n ( F.F.F.1X<X<X<X{.T.T.<.N.S.S.C.] ' T ] ] ' ( ,.`.~ W ,.A.V V A.&.h B F.2X<.%.` -.>.=.{ ;X;X5. .$.$.<.< - - - - - - - - - - - - - - - - - - - - - - - - - - - - - - - b @.- - - # # = % - % : %.M 1 : : 1 , > - - * * : = : : = # # N } - - = = ; : : : : : : : : N *.3 ; - - - - - - - - } M - % % # & * * : : : * * : : * 6 4 : $ # % # # = = # # # # = @.w = # = # # w @.; # w @.# # M } # O O O O O @.w # O X X X 0 @.: X X X X X X ",
": @.: # X # # # # X   > Z N o O Z b # 1 i G p 0 8 e e N $.e e e 7 : : @ 4 4 4 : : : : - - % % % - > % > > > - % % % - - - % % % - % % % % % - & & & & & - - % % & & & & & & > % % , , > > 1 1 Z Z > > > > > > > > > 3 %.3 - - - > > 1 > > * @.] r r 5 r E 6 , > > > > > - - - - - M %., , Z X.2 , X.Z g f &.C , , 2 > > > > > - > , , , , > > > > > > > , , , , , 2 5 f m ( m i i p i i i i p p B p i i a L :.i 1 1 1 i i i i i i *.C a a x i i 2 i i i i i i i a a a F Z.Z.I I e.e.e.e.G D a i i i 2 C :.D e.e.e.e.G D a i i -.P a p s s s s c s s A r.r.r.e.u.8XzXCXbXzXsX{.}.}.}.}.'.'.}.}.mX&X@XS.H.K.I.T.{.I.I.{.{.I.I.{.{.I.].].].].].@X@X].].].].].].@XoXOXOXOXOX&X&X=X-X-X-X-X-X-XNXNX=XNXVXNXNXvXvXvXvXvXvXNXNXNXNXNXNXNXNXNXNXNXNXNXVXNXNXVXVXVXVXVXVXVXVXHXHXHXHXHXKXKXKXKXKXKXKXKXPXPXPXPXKXKXKXKXKXKXDXDXDXDXDXDXDXSXSXSXSXSXSXDXDXDXDXDXDXDXKXKXKXKXKXKXKXKXKXKXKXHXAXAXnXAXnXnXnXnXcXcXnXnXnXnXnXnXvXvXvXvXvXcXcXcXcXvXvXvX#X+X#X#X=X=X=X=X=X=X&X&X=X=X&X@XOXOXOXoXoXoXlX].].].].].].].].].].@X{.I.S.{.I.a.d.d.d.d.p.a.a.i.H.T.s.s.C.Y.Y.Y./.T.Y.T.T.F.T.U.,X9.,X1Xj.e.G D D x s s a a a a a a a a a a A D G G e.e.G a i i i i i a x G e.e.e.e.G G G G G G F F F F h.h.c s a i 1 1 1 1 1 z *.z 1 1 1 1 n ( F.F.F.1X<X<X2X].{.(./.C.N.Z.2XA.;.T ( W ~ ] S.F.^ W ,.A.V V A.;.V j F.<X+.*.-.D.>.=. .5.;X5. .$.$.<.< < - , - - - - - - - - - - - - - - - - - - - - - - - - - - - - b @.- - - # # + - - % * *.C < e e 8 4 4 4 : 4 : : - - - ; = = { } < ; ; = = = = = = = = = = M #.: & - - - - - - - - } M - % # = & * * : : : : : : : * 4 4 : $ # % % # # # = = = = # @.w # = # # # w @.; # w @.O O M } # O O O X O @.w O X O O X 0 @.: X X X X X X ",
": @.@.} } } Z Z } } { Z @.N O $ Z } } o.-.M.=.$.N 4 4 Q $.$.$.$.@.= = = : : : = $ & , - - # # % % % & - > > % % % % - % % % % % - & % % % % % % % & & & - - % % & & & & & & & % % , 1 > > > > C Z > > Z } } } } b > 3 %.p > z } } } %.} & > ( 4.2.] @.Q E R * & > > > > - - - - - M %., , Z Z 2 , X.P h f &.%.} } %.X.X.} } < - z } } } } Z > > > - - > , , , , > 2 5 p m ( W p i i -.-.-.%.-.-.>.-.B a c L :.%.X.X.X.-.-.o.o.X.%.*.M i a a i 1 i i a i i i i i L o.-.M.D.Z.Y I b.J.J.Z.-.-.-.%.%.%.%.%.:.F G e.e.e.e.h.M.h.-.:.P a p s s s s s s s F r.r.e.e.u.7X0XCXzXzXsX{.{.}.}.}.`.`.{.].}.}.{.I.K.C.I.T.{.I.I.{.{.I.I.{.+X{.+X@X@X@X@X@X@X].].].].].].@XOXOX&X=X=X=XNXNX=X-XNXBXBXNXNXNX=X=XNXNXNXNXNXVXVXVXNXNXNXNXNXNXNXNXNXVXNXNXNXNXNXNXNXNXVXVXVXVXVXVXVXHXHXHXHXHXHXHXHXHXKXKXKXKXKXKXKXKXKXKXKXKXKXKXDXDXDXDXDXDXDXDXSXSXSXSXDXDXDXDXKXDXDXDXDXDXKXKXDXDXDXDXDXAXAXAXAXAXnXnXnXnXnXnXcXcXvXvXvXvXvXvXvXvXvXvXvXcXcXcXcXvXvXvX#X#X#X#X#X=X=X=XNX=X&X&X&X&X&X@XOXOXOXOXOXoXlX@X@X@X@X@X@X@X@X@X@X@X+XI.I.{.{.T.T.{.{.{.T.S.a.i.C.T.T.T.T.T.K.P.Y.P.L.K.K.F.T.U.,X,X1X1Xu.e.D D D x a s a a a a a a a a A A D G G e.e.G D i i i i a a a x G e.e.e.G G G G G G F F F F F h.h.F D o.-.X.X.X.C 1 z *.z 1 z X.X.>.'.sXF.F.1XhXdXsX@X{.T./.C.b.m.7XT.B.K ( ( ( _ ,.S.^ k ;.;.V V >.;.K g >.2X,X,XF.2XaXF.8.;X;X;X9.0.0.<X} < - , - - - - - - - - - - - - - < - - - } } } } } } } } 0 - - b @.} } } } } } } } } @.*.C 3 e e 8 4 4 8 8 4 : ; 7 7 M @.@.@.@.N # = @.@.} } } } } } @.@.@.@.#.: & - < % % M } } } @.M - # # = : * * : : : : : : : * 4 4 * $ = % % # # # # # # # # } w # = ; = # w @.; # w @.# # M @.} } } } } } @.w O O = # X 0 @.: X 0 N N N N ",
"= M M M M M M M M M M M M w & $ e e C L T X.#.y e : 4 m #.#.#.#.#.: ; = - - % % & & & = $ # # $ $ $ % % & , - % % % - % % % % % - % % % % % % % % % % % - - % % & & & % % % % % % 1 1 , > > > > > > > } } C Z %.b > 3 %.3 > b %.C C / %.- - E ! ! ! @.( E R * % > > > > - - - - - b %.1 , , , 2 , X.%.h 5 Z M b M C C C Z %.0 > M %.C M } } > > > , - > > , , , > 2 5 p m ( ,.P i i M.-.P P P X.%.P c a c F P L C L P X.X.P P L X.} b i i i i i i a a a i i i i X.-.L T M.Z.Y I J.J.h.o.L P Z Z Z Z Z Z L a D k.m.e.e.k.Z.h.o.P J a p s s s s s s s F r.r.e.e.u.^.0XzXzXkXsX{.{.}.}.}.`.S.].`.`.`.{.T.T.K.K.T.{.I.I.{.{.I.I.I.{.{.{.{.@X@X@X@XOX].].@X].].].@XOXOX&X=X&X=XNXNX=X-XNXBXNXNXNX-X-X=X=X=XNXvXVXvXNXNXNXNXNXNXNXNXNXNXNXVXNXNXNXNXNXNXNXNXNXNXVXVXVXVXVXHXHXHXHXHXHXHXHXKXKXKXKXKXKXKXKXKXKXKXKXKXKXKXDXDXDXDXDXDXDXDXDXDXDXDXDXDXDXDXKXDXDXDXDXDXDXDXDXDXDXDXDXAXAXAXAXAXnXnXbXbXbXcXcXcXcXcXcXcXvXvXvXvXvXvXvXcXcXcXcXvXvXvX#X#X#X@X#X#X=X=X=X=X=X&X&X#X&X&XOXOXOXOXOXoX@X@X@X@X@X@X@XOX@X@X@X{.{.].].].].S.S.S.S.I.S.S.p.p.C.I.I.K.T.T.V.G.J.H.J.J.K.K.U.U.,XD.U.U.e.G D D D a a a a a a s a a s A D D G e.e.e.G D a i i i a a a i i G e.e.G G G G G G F F F F F D D G G D M.-.L X.*.C 1 z %.z 1 z *.Z %.'.dXF.F.>X<X<XsX{.{.I.P.U.m.n.W.T.F.W ' ' ' ( ;.A.K V V V k k ;.;.K g %.D.D.D.F.2XF.F.,X;X;X,X<X9.9.<X*.< - , - - - - - - - - - - - - - } M - - @.} M M M M M M 0 - - 0 M M M M M M M M M M Z Z b 3 r e 8 8 8 : 8 8 : 7 7 7 { #.} { N w . X #.@.M M M M M M M N N N N ; & M } # # Z } M M M 0 - # = = & * * * * : : : : : * 4 * * $ # # ; = # # # # # # # # # # : @.0 # 0 @.; # w @.O O 0 M M M M M M M M 3 X = @.0 X 0 @.: X w @.M M N ",
"X X X X X X # # # # # . O $ > $ X # i a a : ; = + = & > & & # M @.= = , - - - - - # # # # # $ # $ $ $ # # = - % - - % % % % % % - % % % % % % % % % % % - - - % & & & % % % % > > 1 2 , > > > > > > > } C > , %.b > 3 %.3 > m %., > V %.& - 6 r E E @.( E E * % 1 > % % > - - - - b %.1 , , , p , X./ 6 * % - 1 , > % % z %.0 > b %., , M } > , , , - > > > , , , 2 3 p m ( A.X.i i B.P p p p p p i i i a i i i i i i c c s a i i i 2 i i i i i a F D D x i i i L o.a a F Y T I Z.h.D u 1 2 2 , 1 1 i 2 u i a j.J.e.e.b.b.e.G D a a s s s s s s s A G r.r.e.e.e.^.8XbXzX8XT.S.S.}.}.[.S.S.S.`.S.S.N.Z.T.S.S.I.{.S.I.{.{.].].].].I.].].oXOXOXOX[.].].@XoX].@X&XOXOX&X=X$X$X=XNX-X-XNXNX-X=X-X-X-X-X=X=XNXvXVXvXNXNXNXNXNXNXNXNXNXNXNXNXNXNXNXNXVXVXVXVXVXVXVXVXHXVXVXHXHXHXHXHXHXHXHXKXKXKXKXKXKXKXKXPXKXKXKXKXKXKXKXDXDXDXDXDXDXDXDXDXDXDXDXDXDXDXKXDXDXDXDXDXDXDXKXKXDXKXDXAXAXAXAXAXAXAXnXnXnXnXnXcXcXnXnXnXnXnXvXvXvXvXvXvXcXcXcXkXvXvX=X=X#XlX+X#X=X=X=X=X=X&X@X@X@X&X&X&XOXOXOXOXOXoX].].].].].[.[.].].].].].].].].].C.s.t.p.f.d.d.d.d.f.a.p.I.{.s.V.V.s.G.K.K.Z.Z.Z.<.:.z.v.e.G A D x a a a a a c a a A D D G G e.e.e.e.D a a i i i p i i i i D e.e.e.G G G G G G G G D D G G G G G M.o.a c *.C 1 z %.z 1 z *.i b ,.sXF.D.m.<X<XT.{.+XT.F.4X4X5Xm./.K./ r.U K V / A.B B B B B j ;./ j k V X.z.z.Z.D.>.>.<.;X;X,X<X9.$.9.*.< - 1 - - - - - - - - - - - - - } M - - @.M - - - - - - - - - - - - - - % % O # - & * 2 2 3 r e 9 9 9 7 7 ; - % : : N #.8 8 : : : = #.N = = = = = = # # $ $ = = = M } = = } } ; - - - - = = = = $ $ : : : : : : : * * * = $ # # ; = # # # # # # # # # # : @.0 # 0 @.; # w @.O O # # # # O X X X X X X = @.0 X 0 @.: X w @.X X e ",
"X X X X X X # # # # # X # % % O % , a i 2 ; = = = , , - # # - M @.% # O O O O # # - - - % % % % % % % % % % % % - - - - - - - - % % % % % % & & % % % % - % % % % & & % % % % > > i 1 > & & > > > > > } C > , %.b > 3 %.3 > z %., % M &.6 6 6 E E R @.( E E 3 > > > > - > - - - - b %.1 , , , p 1 X./ h * % % , , > > % z %.3 - b %., , M } , , , - - , , , , , , 2 5 p k W A.-.p p :.P c p p p p i i i i i a i i i i i a a i i i i i a i i i a x F G H D i i i L :.a a F Y Y I Z.M.F a 1 2 2 1 i i i p i i a h.J.e.e.b.J.e.e.G D a a s s s s s s G G r.r.G G e.^.8XrXzX8XT.S.S.].}.].S.S.S.S.C.N.i.C.{.I.f.I.{.S.I.].@X].].[.].].].oXOXOXOXOX[.[.oX@X@XOX@XmX&XOX&XNX&X&X=XNX-X-XNXNX-X-X-X-X-X-X=XNXvXvXVXNXNXNXNXNXNXNXNXNXNXNXNXNXNXNXNXVXVXVXVXVXVXVXVXHXHXVXVXHXHXHXHXHXKXPXPXKXPXPXPXPXKXKXKXPXPXPXPXKXKXKXKXDXDXDXDXDXDXDXDXDXDXDXDXDXDXDXKXDXDXDXKXDXDXKXKXKXKXKXKXKXKXKXKXHXHXHXAXAXAXAXnXnXnXnXnXnXnXnXvXvXvXvXnXvXvXvXcXkXvXvXNXNXNXvXkX#X#X=X-X=X=X=X&X#X&X=X&X&X&X@XOXOXOXOXOXOXOXOXOXOXOXOX[.[.[.[.].].].].I.d.a.p.a.f.f.d.d.d.d.d.].{.C.s.s.i.i.i.` M.B.B.F.D.h.j.e.G D D a a a c a a c a a D D D G G e.e.e.e.x i i i i i i i i i a D G G e.e.e.G G G G G G G G G G G G G Z.o.x c *.C 1 z %.z 1 z *.l b ,.sXF.D.z.<X2XT.+X+XT.T.W.>X9X9X7XT.aXi.) ^ V &.>.j B B B B j >.&.j V V L o.z.Z.D.>.>.,X;X:X;X9.$.$.9.*.< - 1 - - - - - - - - - - - - - } M - - @.M - - - - # # - - - - - - - - - - X = # % * 2 i 3 r e 7 t q q q 9 9 < , , M } = ; : 0 3 : #.N ; 7 7 7 ; ; = = = = = = = M } = = N N # = - - - = = = # $ $ = = = = : : : o * $ = # # = = = # # # # # # # # # # : @.0 # 0 @.; # w @.O O X X X X X X X X X X X = @.0 X 0 @.: X w @.X X e ",
"# : # X w @.@.@.@.; # O N @.@.@.%.-.-.*.*.@.@.@.@.0 - - : = - M %.# # O O O O # # - - - % % % % % & % % % % % % % % % } @.@.@.@.@.@.@.b % % 0 %.@.@.@.%.@.%.3 % % % & % % % % > 1 i 1 > & & & Z %.%.%.%.C > , %.%.%.%.%.3 > 0 Z > % M &.,.,.,.E E R Z Q E E 3 - > > > - > - - - - b %.%.%.%.%.=.%.*.%.R 5 3 , , , > > - z %.%.%.%.%., , M %.%.%.%.Z , > > > > > , 2 3 p g R A.-.i p :.:.>.>.:.:.:.:.C a i L :.:.:.:.X.i i o.-.:.:.:.C a a i i i x G G H D i i i L :.x c I T Y I D.M.L c B %.%.%.-.c i C %.:.:.Z.Z.e.e.v.c.e.e.r.Y D s s s s s s A G r.r.G G G e.L.^.wX0X8XT.S.S.S.].`.C.d.d.a.a.a.i.C.T.S.f.].{.{.+X@X@X].[.[.[.[.OXOX&X=X&X@X@X@X@XlX@XOX@XmXmXmXmXNX&X&X=XNX-X-XNXBXBXBXBXBXBXBXVXNXvXvXVXVXVXVXVXNXNXNXNXNXNXNXNXNXNXNXNXVXVXVXVXVXVXVXVXVXVXVXVXHXHXHXHXHXHXHXKXKXKXKXKXPXKXKXPXPXKXKXKXKXKXKXKXKXDXDXDXDXDXDXDXDXDXDXDXDXDXDXKXDXDXKXKXDXDXKXKXDXDXDXDXDXAXDXAXAXAXAXAXnXnXAXnXnXnXnXnXnXnXnXnXvXvXvXvXnXvXvXcXkXvXvXNXNXNXvXvX#X#X=XNXNX=X=X&X&X&X&X&X&X&X@XOXOX@XOXOX@XlXlXlXlXOXOXOX@X@X@X@X@X@X@X@X{.{.{.T.T.S.d.S.S.S.f.].{.C.s.i.i.` ` ` i.N.B.A.B.h.h.e.G A D a a a D a a a a M.Z.Z.Z.Z.J.K.K.j.G i C :.-.:.:.:.:.:.c a D G G e.e.e.e.e.e.G G G G G G k.D.Z.Z.Z.o.a c *.%.%.%.%.z 1 z } 1 b ,.sXsXsX1X<X1X^.+X+XT.{.E.>X1X9X7X8XfX;.' ( / ;.A.>.B.B.B.>.>.>.&.j k Z J o.o.B.D.:.>.,X<X<X<X9.$.$.9.*.*.%.%.} - - - - - - - - - - - - } M - - @.@.@.@.@.@.@.@.0 - - b @.@.@.@.} - X } @.@.%.%.C 2 r e 7 [ t q q q q 9 < < { { + = 0 w 3 : #.{ 7 8 M *.*.#.*.0 - M @.#.#.@.} = = M M # = 3 3 & = = $ $ $ $ = = = = = : o o $ = $ $ # $ = # # # # # # # # # # # : N : O 0 @.@.@.@.@.X X X X X X = @.@.@.@.@.@.@.@.0 X 3 @.@.@.@.@.X X e ",
": @.: X w @.e w w $ # # N } 0 b C L C b w w w e @.< X 8 #.+ + M #.O # - - 1 - % # O O - - - - % % & & % % % % % % % % z b b b b b b @.b % % 3 b b b b b b b , % % % % % % % % 1 i i 1 > % % & Z } b b b p > , b b b b b , & - - % % 0 ! ! ! Q E E h < 5 r R 2 - 1 > & - - - - - - 0 b b M C C C M C Q ,./ =.b & & > > , 9 M b b b b - - 0 b b b @.Z , , > > > > , 2 3 p g R A./ p 2 C C L L C C C X.C c i L :.L C X.X.i i o.o.C L :.B a a l 1 i a F G D x i i i L :.F F M.B.I J B.B.L c p B C Z :.z 1 C *.Z C T h.e.u.u.u.e.e.J.k.G F F s s s s F I r.e.G G G G v.^.^.7X8XT.I.S.S.N.a.C.a.d.p.a.a.N.C.C.f.f.].{.{.].].[.].].].].OXOXOX@X@X@X@X@X@X@X@XOXOXOX&X&X&X&X&X&X&X=XNX=X-X-X-X-XNXNXBXBXNXVXNXvXvXNXNXNXVXVXNXNXNXNXNXNXNXNXNXNXNXNXVXVXVXNXVXVXVXVXVXVXVXVXHXHXHXHXHXHXKXKXKXKXKXKXPXKXKXPXPXKXKXKXKXKXKXKXKXDXDXDXDXDXDXDXDXDXDXDXDXDXDXKXDXDXKXKXDXDXKXKXDXDXDXDXAXAXDXAXAXAXAXnXnXnXAXnXnXnXAXnXnXnXAXnXnXzXvXnXvXnXvXvXcXkXvXvXNXNXNXvXvXvXvXNX=X=X=X=X#X@XOX@X@X@XOXOXOXmXOXOX@XlX@X@XOX[.[.[.@X@X@XOXoX{.{.{.[.[.I.K.T.C.a.S.{.S.S.].{.C.s.s.s.s.V.V.s.i.i.` M.k.k.G A A D x a a D a a a c L Y o.h.h.h.h.Z.h.D i z C L C C C C C c a a a D G e.e.e.e.e.e.G G G G G h.Z.o.Y L L s i C C C C C i 1 1 1 1 b ;.aX{.T.>X,X1X^.I.T.T.{.v.W.^.4XqXzXfX4.4.4.,.;.;./ P P P P P P Z p g ,./ F o.:.>.-.*.<.:X:X;X8.$.$.1.M M M X.} - - - - - - - - - - - - } M - - b b b b b b b b < - - b @.b b } } - O } } w M *.C 2 r 6 = [ q q q q t q q q { { 7 ; { N + + #.{ q q e { { { *.w : M *.M M e w = = # = = = } N & $ $ = = = = = = = = = $ $ O # # # O # $ $ # # # # # # # # # # # # # O # ; w w w w w X X X X X X # w w w w w w w w ; . = w w w w w X X e ",
": @.: X w @.& # # % % # N N # u a i ; % X O % 3 @.: O w %., $ e @.# # # # $ $ # # # # O O # $ O $ $ $ # $ $ % % # # % % % % % % % % @.b % % % % % % % % % % % % % % % % % % % 1 i i 1 > % & & Z Z > > > > > > > > > > > > & & 4 & % & R R R * 6 6 * * * 4 6 , > 1 & & - - - - - - - > , , , , 2 1 1 5 ] m %.M > > > - - - - - - - - - - - - - - } Z & , > > > > 2 2 * p g W F./ > & i i i p i 1 1 c z i 1 C :.a i C X.1 i X.X.i l :.B a z l < 1 i s x i i 1 i i L :.F F M.B.F A B.-.B p > 1 p z %.z 2 M *.3 p A G e.u.u.u.r.u.U.c.G G F s s s A J r.e.G A G G G v.v.^.U.Y.Y.C.` ` ` i.s.p.p.C.f.d.S.S.S.S.].I.I.].].].oXoXoX].oXoXOXOXOXoXoXoXoXoXOXOXOXOXOXOXOXOXOXOX$X&X=XNX&X=X-X-X-X=X-X-X-X=XNXvXvXvXNXNXNXNXVXNXNXvXvXNXNXNXNXNXNXNXNXVXVXVXVXVXVXVXVXVXVXHXHXHXHXHXHXHXKXKXKXKXKXKXKXPXPXKXKXPXKXKXKXKXKXKXKXKXDXDXDXDXDXDXDXDXDXDXDXDXDXDXKXDXDXKXKXKXKXKXKXDXDXDXDXAXAXKXAXAXAXAXnXnXnXAXnXnXnXnXnXnXnXnXbXbXzXvXvXnXvXvXvXkXkXkXvXvXNXNXNXvXlXlXvX=X=X-X=X=X@XOX@X@XOX@XOX@XmXOXOX@XlXOXOX[.[.[.].@X@X].].].].].I.I.S.C.S.{.s.p.S.{.S.f.I.{.H.H.H.H.C.V.C.H.C.f.a.M.T I G A A a x a a F a a a a a a A A A A A B.L i i i i i i i i i i i 1 i i x G e.e.e.e.e.e.G G G G D h.o.c a p p p i 1 1 1 1 1 1 1 1 1 1 b ( F.F.D.z.,X1X^.I.T./.~.b.c.c.m.T.sXfX{.`.`.`.,.( m g j j B c s z i Z F.F.c C %.>.;.%.| :X:X5. .$.$.<.9 < - } } - - - - - - - - - - - - } M - - - - - - - - - - - - - b @.# # M } , O } N X ; *.C 3 r e 7 [ q =   + ; = 8 q { <.[ q *.{ ; 7 <.{ q 7 = + X ; @.8 ; M #.8 7 8 8 ; ; - = = # } M % # # # # # # = = + O + O O X O O # O $ $ # X # # # # # # # # # # # # # # O O O # X X X X X X X X X X X X X X X . . . . . X X X X X X X e ",
": @.: X w @.3 : : 3 & X N { l A c , O $ : : 3 b @.: O w %.* $ M @.# # # # # # # # # # O # # # $ $ $ = 3 3 3 3 3 3 3 3 3 3 3 3 3 % % @.M 3 3 3 , % % % % % % % % % , 3 3 3 3 , i a i > % # # % C C & & % % % % 3 h g 5 f 3 3 3 5 * & & 6 6 5 * * * * & & * 2 > > , > > - > - - - - < 0 z z z z z z z n W 5 X.M , > 3 2 < < 3 3 0 0 0 0 0 0 0 - - } Z , , & & > > , 2 * p g m S./ > > z z p c z p i z c c z Z :.i i Z X.1 i X.X.i i :.C i i i 1 1 1 i i i i i i i L o.c c -.-.s s B.-.L c c p p c :.b p C %.b z F J Y r.r.r.Y e.J.k.G G F F A F F I G G A A G G G u.v.b.L.J.J.i.i.i.p.a.a.a.d.C.S.S.S.S.S.].].].].].oXoXOXoXoXoXoXOXOXOXoXoXoXoXoXOXOXOXOXOXOXOXOXOXOX&X&X&X=XNX=X=X=X-X-X=X=X-X-X=XNXvXvXNXNXNXNXNXVXNXNXNXNXNXNXNXBXNXNXNXNXVXVXVXVXVXVXVXJXJXJXJXJXJXHXHXHXHXPXPXPXPXKXKXKXPXPXPXPXPXKXKXKXKXKXKXKXDXDXDXDXDXDXDXDXDXDXDXDXDXDXDXKXDXDXKXKXKXKXKXKXDXDXKXKXDXAXKXKXKXKXAXnXnXnXAXnXnXnXnXbXbXnXnXbXnXvXvXvXnXnXnXvXkXkXkXvXNXNXNXNXNXvXlX#X=X=X=X=X=X&X@X@XOX&XOX@X@XmX@XOX@XlXOXOXOXOX[.[.@X@X].].].].].].].I.I.].{.C.i.C.T.H.C.I.{.C.C.H.H.C.C.C.I.I.C.C.a.i.U I F A F F F I I J J F J J J F F F s s B.P c c c a i i i i i i i 1 i p c I Y Y r.G G G G F D D x o.o.a p i i i i z z z z z z z z z i g ( F.F.D.z.,X1X^.T.T.(.~.L.b.c.m.T.{.sX@X`.`.`.,.;.W V V V C B B B p #.aXaXC C :.D.>.:. .:X:X;X .$.1.1.0 < < } } - - - - - - - - - - - - } M - - 0 0 0 0 0 ; - , 0 0 0 M @.- - M } , O } N # : *.C 3 r r 7 [ q + . X # # ; ; { *.q q  .} q q <.@.q 0 : = O : @.3 = M @.0 0 8 0 0 0 0 0 < ; } M ; = = + O X O O O O O O O O X # # # O # # # # # = # # # $ X O O # X X X X O X X X X X O X X X X X X X X X X X X X : : : : : # X X X X X b ",
"= w = X w @.@.@.@.} $ . N @.:.M.X.X   * @.@.@.@.@.: # 0 @.; # M @.O # # # # # # # # # # # # # # # # 0 @.@.@.@.@.@.@.@.@.@.@.@.M % % @.@.@.@.@.0 - < b , % 3 b - % M @.@.@.@.N a A i > % # % % Z Z * * b 3 & : @.,.,.,.,.&.%.@.%.* & 3 M , , b b , 5 b 0 , > % * * > - - > > - - - b %.%.%.%.%.%.%.*.X.6 * %.b - 1 %.%.%.%.%.%.%.%.%.%.%.%.} - - } Z - - & & > > > , 4 f f h S./ 2 > %.-.%.-.-.B i B -.-.%.%.%.1 u P %.i i B B i i :.C 1 1 1 i 1 1 1 u i i i i i X.o.i p J P j B B.B.B.B.:.J s c P s p C -.-.-.:.:.:.B.B.M.F G h.Y G F F F F F G I F F A A F G G r.j.c.b.G.s.s.i.p.a.d.d.d.d.S.S.S.`.].].].].].].oXOXOXOXOXOXOXOXOXOXoX].].oXOXOXOXOXmXmXmXmXmXOXOXOX&X&X&X=XNX&X&X=XBXBXNXNX=X-X=XVXnXVXBXBXNXNXNXNXNXvXNXNXNXNXNXBXNXNXNXNXNXVXVXVXVXVXVXVXVXVXVXVXHXHXHXHXHXKXHXKXPXKXKXKXKXKXKXKXKXKXKXKXKXKXKXKXDXDXDXDXDXDXDXDXDXDXDXDXDXDXDXKXDXDXDXDXDXDXDXDXDXKXKXKXDXDXKXKXAXAXAXAXAXAXAXnXnXnXnXnXbXnXnXnXnXnXvXvXvXVXnXnXkXcXkXvXNXNXNXNXNXNXvX@X@X=X=X=X=X=X#X@X@X&X@X@XOX@XOXOX@XlXlXlXmX@XOX[.@X@X@X@X@X].].].@X{.{.{.{.K.s.C.T.C.H.T.{.C.C.H.H.H.H.I.I.I.I.I.a.p.i.I I F I Z.Z.Z.Z.B.B.B.B.B.B.B.B.T s s B.B.B.:.:.B u s L s i c C i i Z -.:.:.B.M.F F F F c c a a X.X.i i C c i p :.-.-.-.:.:.:.:.:.p j ] F.F.F.,X<X1XY.(.kX{.^.U.b.v.m.Y.T.T.}.].`.S.F.F.,.>.B.B.>.>.>.P s 1.dXdXC L F.2XF.F.8.3X3X<X8.0.aX<X} < < } } - - - - - - & - - - - - } M - - @.@.@.@.@.0 # 0 @.@.@.@.@.- - M } % O w 0 % 3 *.C 2 r r 7 [ q = X = # # = # M } & 7 t { [ [ <.=.*.%.@.5 $ : w = # w @.@.@.@.#.#.#.*.@.8 7 M q 7 ; = = + X X X O O O O # # # $ $ # # # # # # # X # # $ $ O # O X X X X # X X . . X X O X X X X X X X X X X X X = @.@.@.@.@.: . . X X X b ",
"X X X X : 0 0 0 N } X O 3 B J 0 0 %   = @.M 0 0 0 ; # 0 @.; # M @.O O # # # # # # # # # # # # # # $ 0 @.w 0 0 0 0 0 0 0 0 0 @.M % % 0 0 0 w @.0 - 0 @.3 % b @.- % M @.0 0 } N a D a f h h m m &.&.V W ,.] R R &.2.2.2.] ! Q M %.* & m %.* * Q Q 4 6 / N * 2 & & > - - - > > > > - b %.z b b b B z %.X.6 2 %.b - 1 %.M z z z z z z z z z Z } - - } Z > > & & > > > , * f f g `./ 2 2 -.L c C -.B i B -.B B b b 1 > Z X.i i i u u > %.C 1 1 u p p p p p p p p p p P -.x x c K ^ ^ K J J L -.J p i u u u f B B B B B J J -.` s A A A A j j j A S S S A s s J J J S I U i.i.i.i.p.a.C.C.d.d.S.S.S.`.`.].].].[.OXOXOXOXOXOXOXOXOXOXOXoX].oXoX[.OXOXOXOXOXmX@X@X@XmXOXOXOXOX&X&X=XNX&X=X=X-X=X=X=X=X=XvXvXNXNXNXBXNXNXNXNXNXNXNXNXNXNXNXNXNXNXNXNXNXNXNXVXVXVXVXVXVXVXVXVXHXHXHXHXHXHXHXKXPXKXKXKXKXKXKXKXKXKXKXKXKXKXKXDXDXDXDXDXDXDXDXDXDXDXDXDXDXDXDXKXDXDXDXDXDXDXDXDXKXKXKXKXDXAXKXKXAXAXAXAXAXAXAXnXnXnXnXnXnXnXnXnXnXnXnXnXvXnXnXnXvXvXcXcXvXvX=XvXvXvXlX#X#X#X=X=X=X=X=X@X+X+XOXOXOXOXOXoXoXOX@X+X@X@XoX].].{.{.{.{.I.I.I.+X{.I.I.].].S.I.T.C.H.T.kXI.H.H.K.K.P.T.T.T.T.I.C.s.t.t.I I T Z.T T T T T T T T ` ` A.M.J J P U U ` B.L i c :.c s P B.c p P -.B B -.T a a a a a i i p X.X.i i %.L u p :.X.C C C C C P :.c j ,.aXF.D.1X<X1X1X8XkX{./.m.b.b.U.j.o.g.Y.S.,.,.A.F.Z B L L C C :.X.B $.dXdXC L F.F.;.*.+.:X:X;X8.9.9.<X*.; - X.} - - - - - - - - - - - - } M - - @.N 0 M @.0 # 0 @.w 0 0 0 # - M } % = % % % : *.C 2 r r 7 [ q = X $ # # = # N @.# . X 7 q [ { C Z } <.M ; X . X O : 0 0 w w w 0 0 } N = = ; ; 8 8 8 8 7 8 8 ; = = X X # = = # O X X X X O O X . . . # = = # X X X X X X # # $ $ # X X X X # # X X X X X X X X = @.e 8 e @.: . . X X . e ",
"X X X # # # $ $ M } . - i a 1 + X # % = @.w O O O O # 0 @.; # M @.X X # # # # # # # # # # # # # # $ 0 @.; # # # # # # # % % } M % # % # # ; @.0 % 0 @.3 % b @.- % M } % % N N x D s R E ! ( W ,.,.W W ,.,.W m @.] ! ( h 6 * 0 %.* & m &.4 * Q Q 6 6 / Z 4 4 2 , > - > > > > - & & b %., , , , 2 1 X.X.h * %.b % 1 %.z - - - - - - - - - C } - - } Z > > & & > > > , * 5 f g S./ p 2 :.C u c -.B p B -.p p p u u u Z %.i i i p p p -.Z p p p p p p p p p s j p p P -.B K K K K j s s s j ;.K j j j s s g j j j j j j S N.N.S S S S S S S S S S K K K K K K U U U U ) i.p.a.a.a.a.a.S.S.S.].`.`.].}.[.OXOX@X@XOX@X@X=X=X#X#X#XOXoXoXoXoXOXOXOXoXoXoXoXlX@XoX@XlX@XOXOXOXOXOX=XNXOX&X=X=X=X=X&X&X#XvX=X=X-XNXVXNXNXNXNXNXNXNXNXNXNXNXNXNXNXNXNXNXNXNXVXVXVXVXVXVXHXVXHXHXHXHXHXKXKXKXKXKXKXKXKXKXKXKXKXKXKXKXKXKXKXKXKXDXDXDXDXDXDXDXDXDXDXDXDXDXDXKXKXDXDXDXDXDXDXDXDXDXDXKXKXAXAXKXKXAXAXAXAXAXAXAXAXnXnXnXnXnXnXnXcXnXnXnXnXcXnXvXnXnXvXcXkXvXvXvXvXvXvXvXvXlXlX#X=X=XNX=X@X+X(.+X@XOXOXOX[.[.[.].].@X@X].].].].].].].].].].@X].I.I.I.f.S.I.{.C.V.T.+XI.I.H.K.P.I.T.T.{.I.I.I.f.p.i.t.T i.F.T U U U J J I I U U S.N.K K J J J K A.T c L :.c s P B.j B -.;.s s -.-.s s s s s s s s -.-.p p -.P p p :.Z p p p p p C :.c j ,.aXA.D.1X<X1X1X8X+X].T.m.U.T.m.x.g...h.h.h.&.>.A.B u p c c z -.P p #.aXaX{ X.F.F.Z C +.:X:X;X .$.$.9.*.- # X.} - - - - - - - - - - - - } M - - @.b - 3 @.0 # 0 @.; - - - # # M } % = % - % : *.C 3 r r 7 [ q = X $ # # = # N @.# # % 7 q v z p z M <.M < - $ = # # X X # $ O O O N N X O = = = ; ; ; ; < 7 8 8 7 7 7 - # # # # X X O O O O $ o $ O X . . X O O X X X . . X X # X X X # X X X X X X X X X X X = @.: . 8 @.: . . X . . e ",
". ; 3 3 0 = O O e } X i u u =   : 0 0 0 @.w O O O O # 0 @.0 0 N @.X X X # # # # # # % # # # # # # # 0 @.w 0 0 0 # # 3 0 0 0 } M % # # # # ; @.0 % 0 @.3 % b @.0 0 N } % % N Z x H B ~ ! ] ! R ,.,.R R ,.,.W m @.] W W 4 * * w %.* & m &.4 * Q &.R R @.N 4 6 5 * , - , > > - & & & b %.z z b 2 2 1 X.X.h 3 %.b & , %.M z z z , & 3 z z z Z } - - } Z > > & & > > > > * 3 f g S.&.p 2 :.Z p n =.P B P ;.p p p p p p P -.B C C C V C >.P p g p j j j j j j j s s p / N./ ' ' / B j j j j B B./ K P P U P / / / / / / K K N.A.` ' ' ) K K K K K K K ) ' ' ' ' ) ) ) a.N.C.S.S.N.d.d.S.S.S.`.].].}.}.}.@X&X&X=X=X=X&X&X=X=X&X#XOXoXoXoXoXOXOXOXOXoXoXoXOXlX@XOX@XlX@X@X@X@XOXOX=XmX&X&X=X=X=X-XmXvXvXvXNX=X-XNXVXNXNXNXNXNXNXNXNXNXNXNXNXNXNXNXNXVXVXNXNXVXVXVXHXJXJXVXHXHXHXHXKXKXKXKXKXKXKXKXKXKXKXPXPXKXKXKXKXKXKXKXKXKXKXDXDXDXDXDXDXDXDXDXKXKXKXKXKXDXDXDXKXDXDXKXKXDXDXKXKXDXAXKXKXKXHXHXAXAXnXAXAXAXAXnXnXnXnXnXcXcXnXnXbXzXvXvXvXvXvXcXkXcXvXvX#XvX=X=XvXlXkX@X#X=X=X=X@X@X(.(.oXOX@X@X@X@X[.].].@X@X].].].].].].].].].].+X].I.I.f.f.I.I.{.K.K.T.T.K.K.P.K.P.P.I.I.I.I.I.I.f.p.i.i.U i.F.M.M.i.` K K T T ` ' S.N.^ K K J J K A.` J P B.J p P B.U P -.>.j j ;.-.B j j j j j j j -.-.j j ;.%.g B >.P p p p p p C >.c j S.aX1.D.1X2X2X1X8X+X].T.~.^.T.m.v.j.o...o.o.P :.F.-.B C c z p -.X.p } <XaX} X.F.F.@.@.+.:X:X;X<.9.9.,X*.; % X.} - - - - - - - - - - - - } M - - @.b - 3 @.M 0 M @.; - - # # # M @.0 0 0 0 0 b *.C 2 r r 7 [ q = X $ # # = # N @.0 z b q q v z x l v *.} b b w w w w : 0 0 w 3 O O N Q w w w : O X X # ; ; ; 0 M M M M 7 ; ; 0 0 0 0 0 = = O : : : : w 8 8 0 w w : 0 0 : 3 = X X . . X # O X X X X X X X X X . = @.3 . : @.w : 3 3 . . e ",
". w @.@.@.w O O : 8 + a a u o X N @.%.@.@.w O O O O O 0 @.@.@.@.@.X X X # # # # # # % # # # # # # # 0 @.@.@.@.@.# # N @.@.@.@.M % # M 3 # ; @.0 % , 0 , % b @.@.@.@.} % % 3 3 x H J ( ] ] R R ] ,.R R W W h m %.,.W m N 3 & w %.* & 3 n * * Q &.&.,.%.Z * 6 6 3 , - & > > & & & & b %.%.%.%.2 2 1 %.} h 5 z 3 & , %.%.%.%.%.3 & b %.%.%.%.} - - 0 0 > > & & > > , , , 5 f g ] W g p >.Z p B >.>.>.>.>.B p p p p p P >.>.>.>.>.>.>.>.P j j j j j j j j s s i s j ;.S.A.S.A.;.k B ;.` K K A.A.A.A.A.A.A.A.A.A.A.A.A.K ^ A.S.S.F.F.N.^ ^ ^ ^ ^ ^ ^ ` F.F.S.F.' ) ) A.F.{.{.{.d.d.].].S.S.`.}.@XmXmXmXmXmXNXNXNXNXNX=X=X=X&XOXoXoXoXOXOXOXOXOXOXOXOXOXOXlX@XOX@XmXmXmXmXNXOXOX=XNX&X=XNXNXNXNXNXNXvXNXNX-X-XNXVXVXVXNXNXNXNXNXNXNXNXNXNXNXNXNXNXNXVXNXNXVXVXVXVXVXHXVXHXHXHXHXHXHXKXKXKXKXKXKXKXKXKXKXKXKXKXKXKXKXKXKXKXKXKXDXDXDXDXDXDXDXDXDXKXDXDXDXDXDXDXKXKXDXDXKXKXDXDXKXKXDXDXAXAXAXAXAXAXnXbXnXnXnXbXbXbXbXbXbXcXcXvXbXbXbXvXvXvXNXvXcXkXkXkXkX@X@X#X#X#X@X@X+X#X#X@X@X@X@X+X/.!.oX@XlXlX@XoX].].oXoX].].].I.I.I.{.+X+X{.{.T.H.H.f.d.C.I.{.T.T.T.T.G.J.J.L.P.P.P.P.I.I.I.C.s.i.i.t.U i.F.F.A.F.F.U U M.B.A.S.S.N.) ) N.T J J B.` K ^ ` J s P :.B.B.B.B.j B K P B j j j j j j j -.-.j j V V g B >.P p B / B s P >.B k _ F.1.D.1XsXsX0X0X+X].{.~.P.Y.m.m.J.Z.g.H Y C :.F.2XB.:.z i i -.X.2 C <.aXo.o.T.sX1.1.,X:X:X;X8.0.0.<X%.- - 0 0 - - - - - - - - - - - - 0 0 - - @.b - 3 @.@.@.@.@.; - - # - # M @.@.@.@.@.@.%.*.C 3 r r 7 [ q = X $ # # & $ M @.o.:.B.#.q l X.L l v %.%.*.=.=.%.@.@.@.@.@.@.@.$ $ N @.@.@.@.e . . . X X X X 8 #.*.*.*.M 0 0 } =.*.*.*.; = w N : : : #.#.@.#.@.#.@.@.@.@.@.0 . . . . X # X . . X X X # # X X . = @.3 . 3 @.@.@.@.@.. . e ",
". $ & : = $ . X # - i a - + X . Z N = + = # X X X X X # = = = = = X X X X X # # # # # X # # # # # % $ & & & b @.# # N } & & & % # # @.b # ; @.0 % % % % % , , , , , , % % % % x D K ] ] ( h h ,.S.! ] ] ] R 6 %.( 6 5 @.: $ 5 %.2 * * , * & * 3 5 r , - - * 6 6 5 > > > > & & & & , < 2 3 2 , 2 2 %.Z h 5 , % & & , , , b %.3 - b %., , , < - - - - - - & & > > , , 2 5 f f R W g 2 >.Z p p g g g g j p p p p p p f B B n j n j j B n j j j j j j j s s j j j k K K K K ;.;.K ^ A.;.K K K K K K K K K K K K K ;.A.K K ^ ^ ^ ` S.N.^ ^ ^ ^ ^ ^ ^ ^ ` ` -.F.' ) ) d.d.S.].@XI.I.{.{.].`.`.}.}.&X&X@X@X@X@X&XNXNXNX=X@X@X#X@X@X@X@X@X@X@X@X@XOXOXOXOX@XlX@XoXOXOXOX@X@XlXOXOX#XmXOXOXmXmX@X&X#X#XvX=X=X=X=X=XNXNXvXvXNXNXNXNXNXNXNXNXNXNXNXNXNXVXVXVXVXVXJXVXVXVXJXVXHXHXHXHXHXKXKXKXKXKXKXKXKXKXKXKXKXKXKXKXKXKXKXKXKXKXKXDXDXDXDXDXDXDXDXDXKXDXDXDXDXDXDXKXKXDXDXKXKXDXDXKXKXDXDXDXDXAXAXKXAXAXAXnXnXnXnXbXbXbXnXnXnXnXnXnXnXnXnXvXNXNXNXvXcXcXcXcXvXNXNXNXNX=X=XlX+X#X=X=X&X=X#X+X!.!.oX@X@X@XoXoXoXoXoXoXoXoX].].].@X+X].].].].].I.I.I.I.I.I.I.I.I.K.G.c.b.L.L.Y.Y.T.T.T.T.I.C.s.i.i.i.i.` U U ' F.U i.S.S.) U J J J K F.N.) K A.T J K K K K K J c s j B J J B j j j j j j j j j -.-.g g g g p n >.P p B ;.B p V ;.s k _ >.>.D.n.1X1X1X>XI.R.oX!.I.H.v.k.z.D.W.b.o.H v ..o.l c l c p %.Z 1 B X.D.} X.M.B.Q @.,X:X:X;X<.y $.<.7 < < - - - - - - - - - - - - - - - - - - @.b - - ; ; ; ; ; - - - # - # - < < ; < , & 3 2 1 3 r r 7 [ q = X $ # # & # = = ....D.#.0 l <.Z.L v v v v M 0 : = : : ; = M } X X # = = = @.N # = = $ O . .   O O : } ; . X = 8 8 { =.0 0 *.#.; = = : : 4 4 4 : 8 : : 3 : : = O O O X . X O X X X X O O O X X = @.3 . O # # # w @.. . e ",
". # % $ O X X # % i a , + . X X Z M . . X X X X X X X X X X X X X X X X X X # # # # # # # # # # # % % # % # w @.# # N } # # # # % & @.b # ; @.0 % % % % % % % % % % % % % % % a F ^ ] ( ( g k ,.`.] ] ] ] R 6 @.Q 4 3 @.5 * g %.2 * * , & % $ & * 6 , - % 4 6 h h , > - & & & & - - - > , , , , 2 %.Z h 5 , & & & & & & z %.3 - b %.& & & - - - - - - - & & > > , , , 5 p p W W h 2 >.Z f f f f d g g g j g p p f f g g g g g j j j f g g g j j j j j j B k j j j B K K A.;.K V A.;.k V K S S S S K K k K K K ;.S.^ ^ ^ ^ ^ _ S.S.^ ) ) ) ) ) ) ) _ _ ' F.a.a.d.d.`.].@X@X].I.{.{.].}.}.}.}.&X&X&X&X&XNXNXNXNXNXNX=X=X#X#X#X&X@X@X@X@X@X@X@X@X@XOX@XNX@XOXOXOXOXOX#XNXOXOX=XNX&X&XNXNX#X@X#X#X=X=X=X=X=X=X=X=X#XvXNXNXNXNXNXNXNXNXNXNXVXVXVXVXVXVXVXVXJXVXVXHXJXHXHXHXKXHXKXKXKXKXKXKXKXKXKXKXKXKXKXKXKXKXKXKXKXKXKXKXKXKXKXKXDXDXKXDXDXDXKXDXDXDXDXDXDXKXKXDXDXKXKXDXDXKXKXDXDXDXAXAXAXKXAXAXZXAXAXAXAXnXnXbXbXnXnXnXnXnXnXvXvXvXvXNXNXvXvXcXcXkXlXvX=X=X=X=XNX#X+X+X#X&X&X&X=X@XoXI.I.oX@X@XOXOXoX].].oXoXoXoX].].@X+X].].].].].].I.I.I.I.I.I.I.I.I.P.J.J.L.Y.Y./.(.(.+X+XI.I.H.s.s.i.i.i.` ) N.F.U U S.F.` U I J J J A.N.) ) S.` J J S S K J J B j j j j j B B B B B V B B B j ;.;.j B j B j V >./ j V >.P j P >.B k ~ >.B.D.v.1X1X;X;XG.f.oX/.!.I.L.g...o.m.b.j...v v o.i i i i i -.P i B P :.} L L o.m } ,X:X:X;X9.y $.<.9 < , - - - - - - - - - - - - - - - - - - @.b - - % - # - - - - - # - # # - - = % % % 3 1 1 3 r r 7 [ q = X $ # # = = # < ....z.*.0 v <.>.C v [ [ [ [ 9 ; # $ $ O . M } X X X X X O } M # $ O O X X X X X X : @.: X X O = = e *.; ; { #.7 7 ; = $ * 4 4 w 8 : = : : : o o o o $ $ # # # X . . . . X X X = @.3 . . . X . w @.. . e ",
". # % # O : w b b B A + 8 8 w w @.b . X w w w w w w w w w # X : w w w w # # # # # # # w w w w w w w w w w w N @.# # N } w b b 3 % % @.b % & @.0 % , b b b b b - % % % % % % % a F ^ ] ( W g V ,.`.,.,.,.,.R 6 @.Q * 3 *.5 * 5 %.m m m m b b b w 4 r 3 b b m Q R R * > - > & & & % 0 b b b B b , 2 %.X.( Q b b b b b 3 & z %.3 & b %.- - 0 b b b b - > > & & > > , , , 5 5 p ] &.( Z ,./ g n / P P P P P P P P d d V P / P / / / / P P P P V j j j j B B B V j j P / ' ' S.N.K B A.;.k K ' ' ' ' ' ' ' ' ^ K ^ A.S.( ( ;.N.N.S.`.S._ _ _ _ _ _ _ S.S.S.S.'.d.d.d.].{.@X@X@X].].{.}.}.mXgXmXmXmXmXmXmXmXNXNXNXNXVXNXNXNXvXNXNX=X=X&X&X=X=X=X=X=X=X=X=XmX&X&X&X=X=X=X=XmX&X&X=XNX=X=XNXNX&XOX=XNXNXNXNXNX=X=X=X#X#XvXVXNXNXNXNXNXNXNXNXNXNXVXVXVXVXVXVXVXJXVXVXHXHXHXHXHXKXKXKXKXKXKXKXKXKXKXKXKXKXKXKXKXKXKXKXKXKXKXKXKXKXKXKXKXDXDXKXKXDXDXDXDXDXDXDXDXDXDXKXDXDXKXKXDXDXKXKXDXDXDXAXAXAXAXAXAXAXAXAXAXAXAXnXbXbXnXnXnXnXnXvXcXvXvXvXNXNXNXvXcXcXkXkXlXlX=X=XNXNX=X+X+X@X&X@X@X&XOXoXI.I.oXOX@X@X@X@X@X@X[.].@X@X@X@X@X+X].].{.{.{.{.{.{.{.{.].].].{.+X(.T.Y.L.Y./.(.(.+X+XlX+X{.T.I.K.S.C.C.S.S.S.F.U J S.F.N.N.M.T J J A.;.) ) F.` J K ` ` ` ` ` K J B j s s B J J K K V V B B B ;.>./ / / P B V A./ B P A.P B / A./ ' ] F.F.F.U.1X1X;X;XK.I.oX(.(.I.L.e.H ..m.m.z.o...o.o.L L C i i :.%.C X.-.>.*.%.-.o.n } ,X:X:X;X9.y $.8.{ M M M - - - - - - - - - - - - - b b b b @.b - ; b b b b b b b M M # # 0 b b w b b b N C C Z ! r 7 [ q = X # # # = # 0 C z.z.D.:.z z <.>.C { +.+.+.+.{ M w e : # X M } X O 0 w w w } M # X X X X # # w w w M @.: X : w w w N @.# = N @.N { N M e e Q m w 8 : = : 4 e e e e e m M M e w w w w w w w w w w @.: X = w w w N @.. . e ",
". # # # o e @.%.:.-.s o N @.@.@.@.e . = @.@.@.@.@.@.@.@.@.= X M @.@.@.@.# # # # # # # @.@.@.@.@.@.@.@.@.@.@.@.@.# % N @.@.@.@.M % % : & % % 3 & % 0 @.@.@.@.@.- % % % % % % % l F ^ ( W m h ~ `.`.'.`.`.`.Q R #.Q * * 5 * * 5 %.%.%.%.&.%.%.%.Q 6 R 6 &.&.&.,.! R * , - > & & & % b %.%.%.%.X., 1 X.%.,.=.%.@.@.%.%.z & , < , & b %.- - M %.%.%.%.- - - & & > > > , > 5 5 p ,.F.,.=.,./ g V >.>.>.>.>.>.>.>.>.g g / >.>.>.>.>.>.>.>.>.>.>./ j j j k B B B c B k ;.S.S.A.A.;.K K ' / ^ / A.A.A.A.A.A.A.F.] ( ( ' ' _ ( S.F.F.'.'.S._ _ _ _ _ _ ' '.`.`.`.'.d.d.I.lXlXlXlXlX].].@XmXmXgXgXgXBXBXBXmXmXmXmXNXBXVXVXVXNXNXNXNXNXNXNXmXNXNXNXNXmXmXmXmXmXmX@XOX@XmXmXmXmXmXOXOX&X&X#X#X#X#X@X@XNXNXBXBXBXNX=X=X#X#X#XNXVXNXNXNXNXNXNXNXNXNXNXNXNXNXNXNXVXVXVXVXVXHXHXHXHXHXHXHXHXKXKXKXKXKXKXKXKXKXKXKXKXKXKXKXKXKXKXKXKXKXKXDXKXKXDXDXKXDXDXDXDXDXDXDXDXDXDXDXKXDXDXKXKXDXDXKXKXDXDXAXAXAXAXAXAXAXAXnXnXbXnXAXbXbXbXnXnXbXnXcXcXcXcXvXvXvXvXNXNXvXvXlXkXlXvXNXNXNXNX=X#X+X+X@X#X@X&X&X@X+XP.I.!.oX@XlXlX@X@X].].+XlX@X@X@X{.].].{.{.{.{.{.{.{.{.@X].].+XlXkXkXkX^.^.^.^.(.(.8XzXkXkX{.T.T.F.F.F.{.{.{.T.U K B.F.F.F.'.S.` U ` K j K ` ) ^ ` A.B.B.B.A.K K K j s s s J J K K V V V V B ;.A.A.A.A.-.B V A./ B V K V V / A.A.A.S.T.{.sX1X2X;X;X;XT.T.@X+X/.P.j.H x a F ..g.z.D.D.D.D.B.:.z l X.*.:.B.A.F.F.F.F.>.n C O.:X:X;X9.y $.9.*.%.} %.- - - - - - - - - - - - - } @.@.@.@.b - 0 @.@.@.@.@.@.@.@.@.# # M @.@.@.@.@.@.*.*.:.=.4.#.7 [ q = X = # # = # M D.D.D.D.D.v q } N e M <.<.D.,X<.*.@.@.w # X : : # # N @.@.@.@.w . X X X # # ; @.@.@.@.@.3 # 0 @.@.@.@.@.$ $ N #.#.=.<.*.*.*.=.N 3 + O O : e &.#.#.&.&.&.=.#.@.@.@.@.@.#.#.@.@.@.@.@.: X 8 @.@.@.@.@.. . = ",
"# # # O   . # 1 P -.: & N N . X . . X & @.w X X X X X 0 @.= X M @.X X X # # # # # # # @.w # # # # # # $ $ $ # # # # % % # % } M % % % % % % % % % 0 @.3 % b @.% % % % % & & % l F K W W R W ! ] 2.! ! 4.,.h 5 @.m * * * * * & & & * * 3 3 * Q / h E R 6 6 6 ,.( R * > % > & & & % b %.> , Z X., 1 1 , h 5 - % % 1 %.z & & & & & b %.- - M } - - - - - - & & > > > > - 5 3 p ,.,.W p h g g V >.Z g f g g g P >.g g %.;.j j j g g p d j j j j j k k k k k k K K V ;.A.V K K K ^ ^ ^ ^ K K A./ K K ^ ^ ^ ^ ( ( ( _ ( _ _ S.S._ ' ' ( ' ' ' _ _ ) ' F.N._ ' ' a.a.S.@X{.@X@X{.{.}.@X}.|.gXgXgX|.&XmXmXNXNXNXBXVXVXVXNXNXNXNX=X=X=X=X=X=X=X&X&X&X@X@X@X@XOXOXOX@XmX@XOXOXOXOXOXOXOXOX@X#X@X@X#XNXNX-X=XNXNX=X=X#X#XNXNXVXNXNXNXNXNXNXNXNXNXNXNXNXNXNXVXVXVXJXVXVXHXHXHXHXHXHXHXHXKXKXKXKXKXKXKXKXKXKXKXKXKXKXKXKXKXKXKXKXDXDXDXKXKXDXDXKXDXDXDXDXDXDXDXDXDXDXKXKXDXDXKXKXDXDXKXKXDXDXDXAXAXAXAXAXAXAXnXbXbXnXAXnXnXbXnXnXbXbXbXcXvXvXvXvXvXvXNXNXvXvXkX+X@XlXlX=X=X=X=X#X#X!.+X@X#X&X@X@X@XP.P.I.].oXoXOX@X@X].].@X@X].].].].].].@X{.].].I.I.I.].{.I.I.+XlXT././.^.^.^.(.8X8XkXlXkXT.I.f.a.p.p.p.a.a.a.a.` ` K K K ) S.S.` ) U K J K K K ^ ;.F.' K -.B.s B K K J B B s j j j V V V V k k k k V B.;.V V A./ V V V V V V V B k R M.A.A.1X1X;X;X;Xj.k.p.+X(./.Y F x l l x H ..z.D.h.L o.X.i l i i i p b / Z %.F.;.g v O.;X:X;X9.y $.9.*.< , - - - - - - - - - - - - - - } M - - - - - 0 @.0 # # - - - b @.# # M } % O % # % , 1 1 3 r r 7 [ q ; X = # # = # M z.g.g.....q q r r e N =.N b C 0 - # $ $ $ X X X X X N N X X X X X X X X X X = @.w X X X X X 0 @.= $ $ * * * * * * $ 7 q q 9 #.e O = O X o e $.r 6 6 4 * * $ O $ * : 4 4 : : = O O . X X 8 @.: X X . . . . ",
"X X X X X X % a X.%.O & N N X X . . X & @.w X X X X X 0 @.= X e @.X X X X X # # = = = @.b $ # # # # # # $ $ # # # # # % # % } M % % % % % # # % % 0 @.3 % b @.% % % % % % % % i F ^ W R h W ( ! ! ( W ,.&.6 4 @.m * * $ * * % 4 * 4 6 h 6 6 ( &.R E R r 6 6 ,.! R * > - > & & & % b %.> > Z } , 2 1 1 h 5 * % % , %.0 % % & & & b %.- - M } - - - - - & & & & & > > > 2 3 p ,.,.W f g g f m >.V f f f g g P >.j g %.;.f g g g d d j j j j j k k k k V V V K V k ;.>.K K ^ ^ ^ ^ K K K K A.` K ^ ^ ^ ^ ^ ^ ( ( _ _ _ _ S.S._ ' ' ( _ _ ( _ _ ( ' '.S.' ' ' a.a.S.{.].oX@X@X@X@X@X}.}.}.}.}.&X&XmXmXNXNXNXNXVXVXVXNXNXNXNX=X=X=X=X=X=X=X&X&X&X&X&X@X@XOXOXOX&XmX@XOXOXOXOXOXOXOXOXOX#X@X@X=XNXNX=X=XNXNX=X#X#X#XNXNXBXNXNX-XNXNXNXNXNXNXNXNXNXNXNXVXVXVXJXVXVXHXHXHXHXHXKXHXHXKXKXKXKXKXKXKXKXKXKXKXKXKXKXKXKXKXKXKXKXKXDXDXKXKXKXKXKXDXDXDXDXKXKXKXKXDXDXDXKXDXDXKXKXDXDXKXKXDXDXKXKXKXKXKXDXAXAXAXAXbXnXAXnXnXbXnXnXbXbXbXcXvXvXvXcXvXvXvXNXvXvXkXkXkXlXvX=X&X=X#X=X#X+X(.+X@X&X@X@X@X!.I.I.I.].oXoX@X@X].].@X@X].].].].].].+X{.I.I.I.I.I.I.{.I.I.{.kXT././.^.^.^.^.(.8X8XzX+XT.I.H.s.s.p.a.a.a.a.a.i.i.U K K K A.N.) ` ) ) U K K K K ` F.' K -.A.s j B J J J B j j j j j k k k j j k k k >.-.k V >./ j j B B B B B B k R N.N.Z.U.1X;Xz.;Xz.j.y.+X(.Y.D D x x l s s x o.D.Z.c o.X.i l i i i i p Z Z / F.&.f v O.;X:X;X9.y $.9.*.< - - - - - - - - - - - - - # # } M - - # # # 0 @.0 # # # # - b @.# # M } # # # # # , 1 1 3 r r ; [ q = X = # # # & } z.g.g.....v q N r e e ,.N w b 0 ; # # = # X X X X X N N . X O O O X X X X X = @.w X X X X X 0 @.= $ $ $ $ * $ * * o = 7 9 q *.M = $ X . = e $.r 6 4 4 o $ o o : 4 4 5 : : : : : $ O   . 3 @.: X # X . . . ",
". . . + 5 M Z h.*.@.. . N } N N N w # & @.w X X X X X 0 @.= X e } M N N w X + N } @.@.*.M ; : N N N N N N N N N # # # # # # } M # # N N N N N N N } @.3 % b @.Z Z Z C % % % # p B ^ ^ W h h R ' ;.;.;.,.&.* * Q &.Q Q N : = # 6 6 6 ! 4.2.2.2.4.! 2.r ( ( &.,.! R * b } Z Z 0 & - b %.- & Z @.} Z } X.&.&.Q # & , %.} Z Z Z Z Z } %.& & M @.Z Z Z M & & & % % % & > > 2 3 f ;.,.W g f p p n =.&.%.%.&.n g / >.;.-.>.-.p p P %.&./ ;.^ j k ;.;.;.>.>.P K / -.-.;.;.,.K ^ ) A.N.>.-.B B K A.A.A.S.S.A.A.S.S.S.S.S.S._ _ S.S._ _ _ _ _ _ _ _ _ _ ] '.`.S.`.F.S.S.F.{.].].@XlXlXmXmXmXmXgXgX}.mX&XmXNXNXNXVXVXVXVXVXNXNXNX=X=X=XNXNXNXNXNXNXNXNXNX&XOXOX=X=X=XmXmX&X&X&X&X=X=X=X=X#XOX#XlXmXNXNXNX#X=XNXNXNXvXvXNXNXNXBXNXNXNXNX=XNXNXNXNXNXNXNXNXNXNXVXVXHXVXVXHXHXHXHXHXHXHXHXKXKXHXKXKXKXKXKXKXKXKXKXKXKXKXKXKXKXKXKXKXDXDXKXKXKXDXDXDXDXDXDXDXDXDXKXDXDXDXDXDXDXKXKXDXDXKXKXDXDXKXKXDXDXAXAXAXAXAXAXnXnXAXnXnXnXbXcXcXbXbXcXcXcXvXvXvXvXvXNXNXvXcXkXkXkXvX=X&X@XlX=X=X@X(.+X+X#X#X@XOX+X/.P.T.+X@X@X@X+X].].{.+X+X+X+X{.I.I.+X{.I.I.I.I.I.I.{.I.I.{.kXkXkXkX8X^.^.8X8X8X8XkX(.P.P.T.T.T.T.T.I.S.I.S.p.i.T U J S B.N.U ` S.S.S.A.B.N.;.B.B.T K -.A.;.-.-.-.j B J J B B j p p j j s / -.-.-.>./ j j >.;.-.-.-.V j g g f j ' F.T.T.2X2Xm.>Xz.1X1XZ.T.T.J.D Y o.o.X.C x i o.F.D.z X.:.X.X.X.X.X.X.C v P / F.,.&.*.;X<X:X<X0.y $.9.*.} Z { M - - - - - - - - # # # # } M # # # # # 0 @.} N N N ; - b @.N N @.} # $ M N N @.} b 3 r $.{ <.{ { ; = w Z N } :.;X..g.g.z.+.*.$.e 6 r ,.=.&.&.@.} N N N N N N M X X N N X X X X X # # # X X = @.Z N N N N N } @.= X O e N N N N N Q N ; 7 q <.{ 7 * N { { #.=.w 6 : $ . # e Q &.&.&.@.N N N e 4 : N e N N @.= . # b M M N ",
"O X X X w %.X.h.} N . . e N N N @.e . # @.w . : N = . : @.# . w } @.@.=.#.0 0 *.*.@.} } w # : @.} } } } } } } @.# # N N # # } M # % @.@.} } } } } } } 3 % w } } } } } % % % # 1 p K ^ R k W W ,.`.S.`.`.( 4 * @.@.@.@.&.5 6 Q ,.r r 2.4.2.,.&.! E 2.r &.&.,.,.! R 4 b } } } 0 & - b %.- & M } %.%.X.X.&.&.Q # & , } } } } } } } } } & - M } } } %.Z & & & % % % % > > , 2 3 &.,.W g f g g m ;.;.;.>.>.V n / ;.;.;.;.%.p f ;.>.;.,.A./ V V A.A.>.A.A.K j / B.B.A.A.A.K K V >.>.>.;.V k K A.A.S.A.S.S.A.S.S.S.S.S.S.^ ^ _ ' ) ) ^ ^ ) ) ) ' ' ' ' F.S.`.`.F.F.F.{.{.].OX@XlXlXmXmXmXmXmXmX@X@X@XmXmXNXNXVXVXVXVXVXVXNXVXVXNXNXNXVXNXNXNXNXNXmXNX#XOX#XNXNXNXNXmX#XOX#X=XmXmXvXlX+X+XlXvXNXNXNX=X=X=XNXNXmXNXNXNXNXNXBXNX=X=X=X=XNXNXNXNXNXVXVXVXVXVXVXVXJXVXVXVXHXHXHXHXHXHXHXKXKXKXKXKXKXKXKXKXKXKXKXKXKXKXKXKXDXDXKXKXDXDXDXDXDXDXDXDXDXDXDXDXDXDXKXDXDXDXDXDXDXDXKXDXDXDXKXDXDXKXDXAXAXAXAXAXAXAXZXbXnXAXbXbXbXbXbXbXbXbXcXcXcXcXvXcXvXvXvXNXvXlX+X+X+X#X#X#X@X@X@X@X@X+X!.(.@X@X@X+X@XoXP.T.+X+X+XlXlXoX{.+XkXkXlXlX+XI.I.kX{.I.I.+XI.I.T.+XI.I.(.kXkXkXkX8X7X7XzXzXzXzXzX8XY.T.+XT.T.T.T.T.F.T.T.i.i.S.S.U U B.M.J J A.A.A.A.A.A.A.B.B.J s U B.B.B.B.B.j j j j j j j j B B B B ;.>.>.>.>./ k V ;.;.;.>.>.V j P ;.B k ] '.F.F.1X1X>X>Xz.1X1XD.h.Y F a L :.:.:.v l i o.F.Z.i C X.-.:.*.X.X.%.P l Z / A.1.&.<.,X<X<X<X9.y $.9.X.} } X.Z - - - - - - - - # # # # } M # # # # # < } } } } @.; - w } } } } N # $ } } } %.%.C 3 r 1.#.<.*.@.: = M #.} X.o.z.v v [ D.D.D.<.#.#.Q =.#.&.=.@.@.} } } } } } N X X # = X X X X X X X X X X = } } } } } N } } N = X O M Q @.@.@.Q Q Q $ = 7 *.{ q M <.<.<.} { o o e @.= : @.$.#.@.Q Q } { @.e : 4 =.#.@.Z Z : X # e N N } ",
". O X X w %.z a # X X X X X X X N e X = @.w . : @.: O w #.0 : : 8 8 : @.@.: ; @.M = O # # # < @.0 # # # # # w @.# # N Z # # } M # # @.w # # % # # # # % % # # # % M } % % % # , j ^ W W R R R ,.,.W W W h * $ = o * 6 &.r 6 E ,.r r 2.4.E r 4 r E 2.r 6 6 6 R R R 6 , > - % - - - b %.- & & - , , , 1 f g 5 # & % & % % % & & & & & - - & & & & } Z - , & % % % & > , 2 2 3 &.,.( m g g n n n j g P >.B j g g j j j j j j ;.;.V V A./ B V A./ j P A.K k / A.K K K K K k j j B J K K ^ ^ ^ ^ ^ ( ( ( ^ _ ( ( _ S.S.( _ _ _ ' _ _ _ _ _ _ _ _ _ _ _ _ ' ' _ p.p.f.].oX@X&XmXmX&X@X@X@X@X@X}.}.@XmXmXNXVXVXVXVXVXVXVXVXVXVXNXNXBXBX=X=X=X=X=X=XNX=X&X=XNX=X&X&X&X&X&X&X=X&X&X=XlXoXoXvXNX=X=X=X=X=X=X#X#X#X#X#X#X=X-X-X-X-XNXNXNXNXNXNXNXNXVXVXVXVXVXVXVXJXVXHXHXHXHXHXHXHXHXHXKXKXKXKXKXKXDXKXKXKXKXKXKXKXKXKXKXDXDXKXKXDXDXDXDXDXDXDXDXDXDXDXDXDXDXKXDXDXDXDXDXDXDXKXDXDXDXDXDXDXKXDXAXAXAXAXAXAXAXAXnXAXAXnXnXnXnXnXnXnXnXnXnXnXnXnXvXvXvXvXNXvXvXkX+X+X+X#X#X#X@X+X+X+X+X+X/.+XOXOX@X@X+XoX+XkXP.I.oXOXoX{.{.{.{.{.@X+X].].lX+XI.{.+XI.I.{.kXI.I.T././.(.kXcX8X8XzXzX8X8X8X8X(.(.kXT.H.C.C.a.a.I.{.p.a.F.F.i.i.F.N.I J A.M.U U ) ) U K K J j J J J K N.A.K K B j j j B V K V V V ;.;.V V V V V V B B B P A.P B / A.V n / A.P P o.Z.z.z.z.;Xz.j.x x x a a i a x l l i X.D.o.i i i i i i i 1 i i i V / ( ( n M O.:X:X5.y y $. .9 , - } Z - - - - - - - - # # # # } M # # # # # # # # # 0 @.; # # # # # # # # $ } N X 3 %.C 3 r ,.q [ { @.: # e @.< v v ..v l l v v v { { { N e w w w 0 : = X X X O M N X X X X X X X X X X X X X X X X X X X X X X X X X X O O O O $ $ $ * * o O = *.{ q [ <.{ [ q 7 = ; e @.O : Q #.o o O = + + #.w $ 5 =.e = $ X o O # . . . e ",
"  O X . w :.c 1 # # X X X X X X N e . = @.w X : @.0 : e =.w 0 0 0 8 : } N # O } M X X X # X : @.0 # # # # # w @.# # N Z # # } M # # @.w # # # % # # # % % % # # % M } % % % # , f ^ R R R R R ,.,.W W W h * * = * * 6 ,.r r E ,.r r 2.4.E E 4 r E 2.r 6 6 6 r R R 6 , % - % - % % b %.- & & - , , , 1 f g 5 # & % & % % % % & & % % % & & & & & } Z - - & & % % % > > 2 * 2 %.,.( V g n n n j j g Z >.B g g g j j j j j B >.;.V V A./ B B >.P j P B.K j ` S.K K K K j j j B K K ^ ^ ^ ^ ( _ _ ( ( ( ( _ _ _ _ S.`._ _ ] _ _ _ _ _ _ _ _ ] ] ] ] ] a.a.p._ _ p.f.].@X&XmXmXmXmX&X@X@X@X@X}.}.@XmXmXNXVXJXVXVXVXVXVXVXVXJXBXBXBXBXNX-X-X-X-X-XNX=X=X=XBX-X=X=X&X&X&X=X=X=X=X=XvXOXOXmXNX-X=X=X=X=X=X#X#X#X#X=X=X=X-X-X-X-XNXNXNXNXNXNXNXNXVXVXVXJXVXHXJXJXVXHXHXHXHXHXHXHXHXHXKXKXKXKXKXKXDXKXKXKXKXKXKXKXKXKXKXDXDXKXKXDXDXDXKXKXKXDXDXDXDXKXKXKXKXKXDXDXDXDXDXDXDXKXKXKXKXDXDXDXKXKXKXDXAXAXAXAXAXAXnXnXAXnXnXnXnXnXnXnXnXnXnXnXnXnXvXvXvXvXvXvXvXvX+X+X+X#X#X@X@X+X+X+XoX+X(./.OX@X#X@X@X@X@XkXP.K.oXOXOX{.{.{.{.{.@X+X].].lX+XI.].+XI.I.{.kXT.I././.(.(.kXkX8X8XbXzXkXkXkX8X(.(.kXI.H.H.C.f.a.I.{.a.p.S.T.a.a.T.C.U J A.-.I U ) ) ) U K K J J J J K N.A.K K K j j j k K K V V V ;.;.V V V V V V B B B P A.V B / A.V B X.>.g V K -.:.z.z.z.z.D.F x x i a i i l l l l L :.c i i i i i i i 1 p i 1 V W ( ( m M O.:X:X5.y y $. .9 , % } Z - - - - - - - - - # # # } M # # # # # # # # # 0 @.; # # # # # # # # $ } N X 3 %.C 3 ! ,.q [ { #.: X w #.9 [ o.o.v l 9 z l z v [ { t N e e w w : = X X X O M N X X X X X X X X X X X X X X X X X X X X X X X X X X O O O O $ O $ $ $ o O $ *.{ q [ <.{ v q q 9 7 M #.= 8 } @.$ O O + + + #.w $ : =.e : $ X o O #     . e ",
"  O # # w :.:.@.} Z N N N N N } @.e   O @.w ; w =.=.=.=.=.0 : = N } } } M . . N } } } M O O : @.@.} } } = X w @.X # N @.} } @.M # # @.@.} } } 3 # & ; % # # M } } @.} % % % % > p V h h h m m ;.A.>.A.`.,.&.&.#.@.Q Q &.r 6 ! 4.2.2.4.4.E 2.Q 4.4.3.,.,.&.&.,.! r 5 m } } } } , - b %.- - N } %.%.X.X.&.&.&.0 & % 0 } } } } } } } } % % M } } } %.Z - - & & & % % & > 2 , * %.,.S.,.&.;.;.;.;.V g V >.;.;.;.;.j j / ;.;.;.A.;.j j B.>.;.;.>.P j P B.P K ;.A.A.N.>.;.;.;.B.A.A.A.S.;.^ ' S.S.S.S.S.S.S.`.`._ _ S.`.`.`.`._ _ ' ' ' _ _ ' ' _ ' ' a.a.a.' ' ) p.I.@XlXNXBXmXmXmXmXmXlXlXlX@XOXOXmXNXNXVXVXJXJXJXJXJXJXJXJXVXBXBXBXVXNXNXNX=X=XNX=X&X&XNX=X&X=X=X=XNXNXNX&X&X#XvX+XoX=XNX=X=XNXNXNXNXvXvXNXNX=X=X=X=X=X=X=X=X=XNXNXNXNXNXNXNXNXVXVXVXVXVXVXVXVXVXHXHXHXHXHXHXHXKXKXKXKXKXDXDXDXKXKXDXDXKXKXKXKXKXDXDXDXDXDXDXDXDXDXDXDXDXDXDXDXDXDXDXDXDXDXDXDXDXDXDXDXDXDXDXDXDXAXDXDXDXAXAXAXAXAXAXZXbXbXbXbXbXbXbXbXbXcXcXvXvXvXvXvXcXvXvXvXvXvXvX#X#X+X+X#X#X#X=X#X+X(.+X+X+XY.+X@X=X@X@X@X@XkX8XT.+X@X@XkXkXkX+X+X+X{.I.I.+XT.I.I.+X+X(.+X+XP.P.P.8X8X8X0X0X8X8XbXbXbXbXzX8X^.Y.(.T.T.T.T.V.s.K.T.i.t.S.T.F.F.T.S.i.U A.B.B.B.A.` U U ` K K J -.:.B.B.B.K K K B j j j j j j j j ;.>.;.;.;.;.;.;.;.;.;.;.>.V j P >.;.=.*.=.d f &.,.,.A.F.F.2XsXF.:.v > v o.:.:.-.c l C :.1 i X.:.-.X.X.%.X.%.%.v m Q ,.1.=.<.;X<X1X,X9.y $.9.X.} } %.Z - - - - - - # # # # # # } } } } } } } } } 0 # 0 @.} } } } # # M } } Z @.N X , *.%.%.,.$.q [ { #.: . M *.<.D.D.F.>.:.=.@.@.*.<. .t t 1.<.<.=.=.#.@.} } = O M @.N N N X X X X X X X X X X X O X X X # = X X : } N } } } @.@.@.Q Q @.@.e O O @.M 9 [ *.} } X.X.X.<.<.<.0 w } *.} } } e + @ *.M = : =.N : 3 Q @.@.@.N X X e ",
"  O # % 0 P P e b M M M e e e e M w : w =.} 0 w N N M M M = O X 0 w e e w O O e M M M w # # ; M M M N @.= X w @.X # w M M M M 0 # # M M M N @.0 # 0 @.3 $ # w M M M M % % % % > p W R R R R E ] 2.,.,.,.,.( Q Q Q Q Q Q e r E 2.2.2.2.2.2.2.Q ,.2.3.! Q ! Q ,.! r 5 n C M Z %., & b %.- - Z @.C Z C C / / ,.b % % 3 M M M M M M Z %.% % M } M M M b - - & & & & % % & * , , Z ] ,.;./ / / &.;.V g V / / / ;.>.p g / ;.' / / / j j / / / / -.K j P B.K k K -.-.-.-.-.-.;.;.;.;.;.A.,.^ ( F.S.,.;.;.;.;.S.F.) ^ ' N.N.N.N.^ ^ ^ ^ ^ ^ ) ) ) _ _ _ ' ) ) a.F.a.p.I.@X@X@X@X@XlXlXlX@X@X@XlX@XOXOXOX#X=XNXVXVXVXVXVXVXVXVXVXNXNXNXNXNXNXNXNX#X#XvX#X@X@XvX#XOX#XvX#X#X#XvXoX+X+XkXoXoX#XvX@X#XNXNX&X#XlXlXvXNX=X#X#X#X=X=X=X=X=XNXNXNXNXNXNXNXNXNXVXNXNXVXVXVXVXVXVXVXAXAXAXAXAXAXAXDXDXDXDXDXDXKXDXDXDXDXDXDXDXDXDXDXDXDXDXDXDXDXDXDXDXDXDXDXDXDXDXDXDXDXDXDXDXDXDXDXDXDXDXDXDXDXAXDXAXAXAXAXZXZXZXAXbXbXbXbXbXbXbXbXcXcXcXwXcXcXcXcXcXcXcXcXcXkXkXkX+X+X+X+X+X+X+X@X#X@XoXoXoXoXT.Y.!.OX+XoXoX+X+X+X(.T.T.(.+XT.T.T.T.T.T.I.P.+XT.H.K.T.T.T.T.T.P.P.L.^.8X8X8X8X7X7X0X0X0X0X0X7X^.U.Y.U.Y.Y.T.t.y.V.T.t.t.M.Z.Z.Z.Z.h.Y I M.h.h.-.B.T J ` F.` K J ` -.` / T s B B B B j s p p p p p P / / / / / / / / / / / / B p B / / / / Z 2 2 %.%./ / ( &.&.>.F.A.-.C X.X.L Z :.l i L :.i i X.:.P P L C Z Z :.{ n W ,.,.&.*.;X:X:X,X9.y $.9.X.C M M b - - - - - - # # # # # # M M M M M M M N @.0 # 8 M M M Z @.# $ M @.M M M w O , C C Q ! ! 8 [ { @.: ; M *.<.<.<.1.<.>.=.( Q @.<.+.[ [ <. .*.#.} } N { @.; # 0 M M M M X X X X X X X X X X X X X X X : @.: X 0 @.N M e M M M N m m M } M + O O $ = 9 } } } { { { { { { 7 7 q { { } *.} t { 1.{ # : #.N : 4 @.e e Q @.X X e ",
". X # % 1 i i o $ # X O $ = : : : : 3 0 =.N : ; = O X X X X X X O X X X X X X O O O O # O O X X X X 0 @.= X w @.X X X X X X # # # # # # # & @.0 # 0 @.3 $ # % # # # % % % % % & 2 V R h h R R R R R R R R 6 6 6 6 6 6 6 6 r E E E E E E E 2.Q ! 2.2.r 6 6 6 ,.! 6 5 2 > - z %., & b %.& - Z } , , 1 1 2 5 =.b $ % % % % % % % & b %.% % M } % % - - - - & & & & % % & * , , 2 R W V f g g V ;.V j g g g j / >.g g / ;.j j j j j j j j j j j B B / A.K j j j B B B J K K K ^ ^ ~ S.N.^ ^ S.' ^ ^ ^ ^ ^ N.F./ K K ^ ^ ^ ^ ^ ^ ^ ^ ^ ) ) ) ) ) ) ) ) ) ) ' F.a.p.I.+X].].OX@X@X@X@X@X@XOX@X@XoXOXOX=XNXNXNXVXVXVXVXVXVXVXVXNXNXNXNX=X=XNXNX#X#XNX#X#X@XmX#XOX@XmXOXOX@XlXoXoX+XlXoXOXvXvX@X#XNX=XOXoX+X+X#X#X=X=X#X#X#X#X#X=X=XNXNXNXNXNXNXNXNXNXVXVXVXVXVXVXVXVXVXHXHXAXAXAXAXAXAXAXDXDXDXDXDXKXKXDXDXDXDXDXDXDXDXDXDXDXDXDXDXDXDXDXDXDXDXDXDXDXDXDXDXDXDXDXDXDXDXDXDXDXDXDXDXDXAXAXAXZXZXAXAXAXAXAXbXbXbXbXbXbXbXbXcXcXcXcXcXcXcXcXcXcXkXcXkXkXkXkX#X#X#X+X+X+X+X@X#X#X+X+XoXoX+X/.!.oX+XoXoXoXoXoX!.J.P.P.I.I.I.I.I.I.I.H.I.+XT.P.P.H.H.H.H.H.P.P.P.Y.^.^.^.7X7X7X8X8X8X8X8X8X7X^.L.b.c.J.T.y.y.V.T.t.t.t.t.t.T t.t.t.T U U I I Z.T J T A.` K K K K S j s s s c B B B B s s p p s s s s s s s p p p p p p p g j j g g g f 2 2 2 X.X.2 3 f f g n F.>.%.P P C c C :.l 1 C :.i i X.X.i i i i 1 i :...b V Q Q h C O.;X:X;X9.y $.9.X.- # - - - - - - - - # # # # # # # # # # # # # 8 @.0 # # # # # b @.# # M } # & $ # O , , 1 3 r r 7 [ { @.: ; 0 C [ { } #.} Z W h 5 w <.<.[ [ <.{ q q q 7 ; w @.= # X X X X X X X X X X X X X X X X X X X X : @.: X 0 @.= X X X O O O $ $ = } M X O O $ $ = ; < < 7 9 9 9 9 7 7 7 9 9 9 9 *.{ q { <.M # ; #.y : 4 #.4 o b @.X X e ",
". . X & i i 2 o $ $ O = : 3 w w 0 3 : : #.w X X X X X X X X X X = = # O X X X X X X X X X X X X X X 0 @.= O w @.X X X X X X X X # # # # # ; @.0 # 0 @.3 $ $ % # # # # % % % % % , m h h d g h h h h h h m 6 6 6 6 6 6 6 6 r E E E E E E E 2.#.2.2.2.r 6 6 6 ,.! 6 6 * % , 0 %., & b %.& - Z } , , 1 1 2 5 =.b $ % % % % % % % % b %.% % M } % % - - - - - - & & & % & * 2 2 2 R R V f g g V >.V g g g g g / >.j g / ;.j j j j j j j j j k k V V / A.K j k j B K K K K K K ^ ^ ^ F.N.^ ^ A.' ^ ^ ^ ^ ^ N.F./ K K ^ ^ ^ ) ) ) ^ ^ ) _ _ ` ` ) ) ) ) ) ) a.F.a.p.I.+X].oXoX@X@X@X@XoXoXoX@XoX].OX#X=XNXNXVXVXVXVXVXVXVXVXBXBXBXNXNXNX=XNXNX&X&XNX=X&X&XNX&XOX&XmXOXOX#XvXoXoX@XvXOXOX=XmX#X#XNX#XOXoX@X#X#X=X=X=X#X#X#X#X=X=X=XNXNXNXNXNXNXNXNXNXVXVXVXVXHXHXHXHXHXHXHXHXHXHXKXKXKXAXDXDXDXDXDXKXKXKXKXKXDXDXDXKXKXKXKXKXDXDXKXKXKXKXKXDXDXDXDXDXDXDXDXDXDXDXDXDXDXDXDXDXDXDXDXDXDXDXAXZXZXAXAXAXAXAXbXbXbXbXbXbXbXbXcXcXcXcXcXcXcXcXcXcXcXkXkXkXkXcXvXvXvX#X+X+X+X+X@X#X+XoXoXoX#X+X/.I.+XoXoXoXoXoXoXG.H.P.!.I.I.I.I.I.I.I.I.+XT.I.I.I.I.I.I.I.I.P.P.~.^.^.^.7X8XwXwXwX0XwXwX8X7X^.U.L.c.J.T.y.y.V.T.t.t.i.i.i.i.i.i.i.i.i.i.i.I Z.Y A T B.T U U K K J J J s s c c B B B B s p p s s s s p p s p p p p p p g g g g g g f f 2 2 , Z X.2 2 2 2 3 3 >.%.V / &.%.P X.>.z i C :.1 1 X.X.i i i i 1 i :.+.z m Q Q m { O.;X:X;X9.y y 9.o.- # - - - - - - - % # # # # # # # # # # # # # 8 @.0 # # # # # b @.% # M } # & $ # X , , 1 * r r 7 | { @.: 7 z C [ X.} #.*./ W R 6 4 *.<.{ [ <.{ q q 8 7 = w @.= X X X X X X X X X X X X X X O O X X X O X : @.: X 0 @.= X X X X X O $ $ # } M X O O $ $ $ # # # - < < ; ; ; 7 9 9 9 9 9 X.{ q q <.w X : #.#.: 5 @.4 o b @.X . w ",
"X . X & D i 3 : : @.=.=.=.: # . $ $ . # @.w . . 0 @.@.@.@.= # M @.@.} @.@.@.@.@.@.@.@.N X X : @.@.@.@.@.= O w @.@.@.@.} X X } @.@.@.@.@.@.@.@.0 # 0 @.3 $ $ % # # # % % % % # % , m k h g j k h h n h ,.,.,.&.Q 4 4 6 &.,.,.2.2.2.2.2.4.4.4.,.2.2.2.r ,.,.&.,.! 6 6 5 < , 0 %., & z Z & & Z %.%.%.%.C * 5 >.@.@.@.@.0 % % M %.%.@.%.% % M } % % < < - - - - & & , , & , 2 2 %.,.,.A.>./ g V >.Z g j V j g / >.j j %.;.j j ;.>.>.>.A.A.A.A.A./ k / A.A.A.A.A.A.A.A.A.A.A.A.^ ^ ^ A.;.K ^ A.' ^ ^ ` ^ ^ ;.F.A.A.S.A.^ _ _ _ _ ] ] ] ] ] ] _ _ _ _ _ _ ' a.S.a.p.I.+XoX+XvXvXvXlX@XoXoXoX@XoXoXOXNXNXVXVXVXVXVXJXJXJXJXVXVXVXVXVXVX=X=XNXNX#X#XNXNXNXNXNX#XOX#XNX#XOX#XlXlXlXvXvXOXOX=XNXNXmXvX@X+X+X@X#X#X#X#X#X#X#X#X=X=X=X=X=XNXNXNXNXNXNXNXNXNXVXVXVXVXVXAXAXAXHXAXAXAXAXAXKXKXAXAXDXDXDXDXDXDXDXKXKXDXDXDXKXDXDXKXKXDXDXDXDXDXDXDXDXDXDXDXDXDXDXDXDXDXDXDXDXDXDXDXDXDXDXDXDXDXDXAXZXAXAXAXZXZXZXbXbXbXrXrXbXbXrXrXcXrXrXwXwXwXwXwXwXwXcXcX+X+XcXkXlX@X@X+X+X(.(.(.+X+XI.I.!.+XoX!.P.!.!.+XoXoXoXI.K.T.8XkXkXI.I.I.T.T.P.P.+XT.P.P.T.(.+X+XkXY.Y.(.8X8X0XbXbXbXbXbXbXbXZXbXqX7X7X8X7XY.Y.Y.u.r.G.Y.T.K.D.D.Y r.K.K.D.K.D.D.D.F.Z.T A J B.T K K K K J J J s s s s c c B B s p s p p p p p -.-.-.:.P p p B >.>.>.>.>.>.>.>.>.=.-.%.X.1 1 2 *.%.%.*.Z 5 g V Z %.A.F.X.B Z X.1 1 X.:.:.:.:.X.1 l <.,X<.>.,.&.m { ;X<X<X<X9.y y 9.X.- - 9 < - - - - - - # # # # # # } @.@.@.@.b # 0 @.0 # & 3 & # b @.% # M } # & } @.@.%.%.%.&.4.,.0 [ { #.@.*.<.<.D.F.,X9.F.F.,.6 4 : %.:.{ t <.{ q q e : = w @.@.@.@.N X X X X X X X X X X X X X X X X X X : N : X 0 @.= X w @.@.@.@.$ $ $ } M # $ @.@.@.@.N $ # 3 @.@.@.@.@.*.*.*.%.9 z :.+.[ v <.@.@.#.#.y : 5 @.4 o b @.@.@.@.",
"% . . & D i < 4 : e e w w O X . N b X = @.w X X : w w M @.= X M @.w w w w w w w w w w 0 X X : @.M w w w # X : w w w N } X X } N w w w w w w w : # 0 @.3 $ $ % # # # % % % % # % , m k h d g h h h h h ,.&.Q Q e 4 4 6 ,.! E 2.2.2.2.2.2.! ! Q ! E 2.r Q Q Q ! Q 6 6 %.z , 0 %., - - & & & z b M M %.C * 5 Q b b b @.0 % % 0 b b b b % % M } % % } Z - - - - & & & & % & , 2 %.&.( &.>.W g V >.V g V >.V j / >.j j / -.p p -.;./ / / ' ' ' A./ V K ' / / ` / ` ` ` ' ' ' ' ^ K K A.;.^ ^ F.' ^ ' S.` K / ` ` ' A.A.^ _ _ _ _ _ _ _ _ _ _ _ _ _ _ _ _ ' _ _ p.a.I.+XoXoX@XlX@X@XoX].].].@XOXoXOXNXNXNXVXVXVXVXHXJXJXVXVXVXVXVXVXVX=X=XNXNX=X&X=X=X=X&X&XOXOX#XNXOXOX+X+X+X@X#X#XOXOX=X=X=X&X@X+X+X@X#X=X=X=X=X=X=X=X=X=X=X=X=XNXNXNXNXNXNXNXNXNXNXVXVXVXVXnXnXnXAXAXAXAXAXAXAXKXKXAXAXAXDXDXDXDXDXDXDXKXDXDXDXKXDXDXDXKXDXDXDXDXDXDXDXDXDXDXDXDXDXDXDXDXDXDXDXDXDXDXDXDXDXDXDXAXDXDXZXZXZXDXAXZXZXbXbXbXbXbXbXbXbXbXbXcXcXcXcXcXcXcXcXcXcXcXkX#X#XvXvXvX#X#X@X+X(.(.(.(.+X!.!.T.oXoX!./.P.!.oXoXoXoXoXI.T.T.T.+XI.I.I.+X+XI.I.+XT.I.I.I.T.T.(.kXT.Y.(.kX8X8X8XrXrXbXbXbXbXbXbXwX7X7X8X8X^.Y.P.c.y.V.G.Z.V.K.K.t.t.K.K.C.M.M.M.V.M.M.T J T B.J J J J J J J J J s s s s s s j B B j s s p p p -.%.L P B p p B >./ P P P P P Z P P P P V p 2 2 C C M C b 2 b >.Z n %.F.%.%.P P C i b C C C :.P 1 z o.;XX.@.=.&.m { ;X;X:X;X$.y y 9.X.- - } Z - - - - - - # # # # # # } } M b @.b # 0 @.0 # 0 @.; # b @.% # M } # & } } w M C C N ! $.0 [ q e M { X.X.X.:.>.<.=.&.( 6 w 3 %.%.t t <.{ q { =.0 $ : e w w N N X X X X X X X X X X X X X X X X X X X X X X 0 @.= X w @.w w w O O O Q N $ $ @.N w w 0 # # 0 @.M w w w e w Z } - < X.o.v v { w e e e N : 5 #.4 o 3 w w w w ",
"%   X > D i ; * $ O         . X N M # & @.w # # # # # 0 @.$ . b @.O X X X X X X X X X X X X : @.0 X X X X X X X X X N } X X } M X X # # # # # # # 0 @.: $ $ # # # # # % % % # # , f V k g h k R h h h ,.( 6 * * o * 6 ,.r r r E E E E E r r 4 r E 2.6 6 6 4 r r 6 6 &.z & 0 %., - - & & % % - , , X.C * 5 g & % & %.0 % % % % % % % % % M } % % } Z - - - - & , & % % % > 2 %.( h V ;.Z d V >.V g V ;.j g / ;.d d / -.p p ;.-.j j j j k V A./ k k k k j j j k k k k k ^ ^ ^ K K S.;.^ ) F.' ^ ' S.( ^ j j k K ;.S.^ ) ) _ _ ( ( _ _ ^ ^ ^ ) ) ) ' _ _ _ p.p.d.I.+XoXoX@XlXoXoXoX].].].@X@XOXOXNXNXNXNXVXVXVXJXJXVXVXVXVXVXVXVXVXNX=XNXNX&X&X&X&XOXOXOXOXOX@XmXOXOX!.oXoXoXOXOXOXOXOXOXOXOX+X+X+X@X#X&X=X=X=X=X=X=X=X=X=X=X=X=X=X=XNXNXNXNXNXNXNXVXVXVXVXnXnXAXHXHXHXHXAXAXAXKXKXAXDXDXDXDXDXDXDXDXDXKXDXDXKXKXDXDXDXKXDXDXDXDXDXDXDXDXDXDXDXDXDXDXDXDXSXDXDXDXDXDXDXDXDXDXDXSXSXDXDXDXAXDXZXZXZXZXbXbXbXbXbXbXbXbXbXcXcXcXcXcXcXcXcXcXcXcXcX#XvXvXvXlX#X@X@X+X(./././.!.!.!.T.I.oX(.(.P.I.I.oXoXoX].{.I.K.H.P.I.I.I.+X+XI.I.+XT.H.I.I.I.P.T.kXY.P.(.kX^.^.8XwXwXwX0X0X0X0X0XwX7X8X8X^.L.b.c.c.k.y.y.y.t.K.K.t.t.K.Z.t.I I r.r.U Y I I T Z.I s F J J J J J J c s s s s s j j B B j s s p p -.P p p p p p B >.B p p p s p p p f j g d p p 2 2 2 3 , , 1 b *.M 2 Z >.Z / %.X.X.z z p i i X.Z 1 v ..O.[ M =.&.m { O.;X:X5.y y y 8.X.- % } Z - - - - - - # # # # # - } M # # @.b # 3 @.0 # 0 @.; # w @.# # M } # $ } N X , , 1 * r ,.8 [ q 7 7 [ { { { } X.o.m R r 6 n 5 %.} q t <.{ q { *.0 = # # O O M N X X X X X X X X X X X X X X X X X X X X X X 0 @.= X w @.X X O O O O Q m $ $ @.w # # # X X w @.* $ $ $ O X e N # - X.} v v q X o o = e : 4 @.: O & O . .   ",
"    % s s , X .     . . . X X X N b X = @.w = = $ $ = 0 @.= X b @.= = = # X X X = = = # X X : @.0 = = = X X X X X X N } X X } M = = = = = = = = O 0 @.: # # # # # # # % % % % X # i K K k W ~ ~ R W W ,.,.6 4 * o * 6 ,.6 6 6 E E E E E E E r r E 2.r 6 6 6 R r 6 R &.0 % 0 %.3 < < , - & % - , > X.Z > 2 h 6 : < %.0 % - , , , , , % - M } < < } Z - - - - - - - % , % & 2 %./ h V ,./ g V ;.K j V ;.j d P ;.g g / ;.j j ;.;.j j j j j B >.P B V B k B V K K ^ ^ ^ ^ ^ ^ ^ ^ ^ F.;.^ ) S.' ^ ' S.( ^ V ^ ^ ( A.A.K K ^ ^ ~ ^ ^ ~ ~ ~ ^ ^ U ) ) p.' p.p.p.d.f.].+XoXoX@XlX!.!.oXoXoXOX@X#XOXOXNXNXNXNXVXVXVXJXJXVXVXVXVXVXVXVXVXNXNXNXNX#X#X#XOXOXOXOXOXOX#X#XoXoXoXoXoXoXOXOXOXOXOXOXoX+X+X+X@X@XOXOX#X#X#X#X#X#X#X=X=X=X=X=X=X=X=X=X=X=XvXvXVXvXvXVXVXVXnXAXHXHXHXHXAXAXAXKXDXDXDXDXKXKXKXDXDXDXDXKXKXKXKXKXDXDXDXDXDXDXDXDXDXDXDXDXDXDXDXDXSXSXDXSXSXDXDXDXDXDXDXSXSXDXDXSXSXDXDXDXDXAXZXZXZXZXrXrXrXrXrXrXrXwXwXwXwXwXcXcXcXkX+XcXcX+X(.(.+X+X+X+X+X+X(.(.(././././.!.!.!.!./././.P.P.P.!.!.I.I.P.H.L.c.c.b.L.G.(.T.H.H.T.P.G.L.L.H.L.Y.(.L.L.(.8X^.^.7XqXqXqXqXrXeXeX9XqX7X7X8X^.m.b.c.u.u.e.r.r.r.J.J.e.e.Z.k.G G G G G I I G G Y Z.J s s c F c F F F s s s s s a s s s s s s s s s -.P p p p p u c -.c i p s c s p f g g f f p p p p p 3 3 3 > 3 %.b 2 M *.b 2 b P %.;.%.P B p X.C 1 ..+. .<.} >.] m { ;X5.;X5.y y $.,X*.< , } Z - - - - - - - # # # # # } M # # @.b = 3 @.w ; w @.; # w @.& & N } $ # } N O , , 2 5 r $.0 [ q 7 7 | 6.8.<.X.{ ..E R R w m 6 #.e 8 { <.{ t { <.q 7 = $ $ ; M } . X O # # X . . X # X X . X X X . . . X X X 0 @.= # w @.X X = = : + @.e O $ @.M * : = = o w @.& $ # X X . e N & , @.X.v v [ ; : : : y 4 w @.: O O + # $ O ",
"X X , s s & . . O O . X X X X X N b X = @.@.@.@.@.@.@.@.@.= X e @.@.@.@.N X X = @.@.@.N X X : @.@.@.@.@.= X X X X X N } X X } @.@.@.@.@.@.@.@.0 O : M : # # # # # # $ % % % % # $ p K ~ R R R ~ ~ R R ,.] 6 4 w 4 * 6 &.6 6 r 2.2.2.2.4.3.3.4.4.4.4.4.,.,.&.,.! 6 h %.0 % 0 %.%.%.%.%.- - - - - - C b > 2 ,.&.@.@.%.0 % 0 @.@.@.%.%.- - M @.@.@.@.N % - - - - - - % , % & 2 %./ g V ;.W d V ;.;.;.>.>.n g / >.>.>.>.;.j j / / j j j k k V A.A.A.A./ k k / B.B.B.A.N.k k / ^ k k A.;.S K A.A.A.A.A.P V ' S.A.A.A.S.^ ^ ^ ^ K K K K K ) _ _ d.d.a.p.p.p.p.p.a.f.I.{.I.!.oX+XoXoX@X@X&X&X=X&X$X=XNXNXVXVXVXHXJXJXJXVXVXVXVXVXVXVXVXVXNXNXNX#X#XNXNXmXmXvXNXvXvXlX+X!.!.+XvXvXvX#XOXOX#XvXkXkXvXvXvXvX#XOXOX#XOX#X#X#X#X#X#X=X=X=X=X#X=XvXvXvXvXvXVXnXnXnXHXnXnXAXHXAXAXAXAXAXAXDXDXDXDXDXDXDXDXDXDXDXDXDXDXDXDXDXDXDXDXDXDXDXDXDXDXDXDXDXDXDXDXDXSXSXSXSXSXDXDXSXSXDXDXSXSXDXDXSXSXDXDXZXZXZXZXZXZXZXbXrXrXrXrXbXbXwXcXwXwXwXwXwXwX8X8XwX8X8X8X+X+X(.+X+X#X@X+X+X(./././.(.+X+XoXoX+X+XoX!.!.P./.!.!.!.!.I.P.J.b.L.L.P.(.(.I.I.+X+X+X+X+X+X+X+XkX/.~.(.kXcXzXbXrXqXqXrXZXZXZXbXqXqXqXwX8X8X8X(.c.c.u.r.r.e.K.K.r.y.K.T.K.K.K.K.K.K.K.h.I T M.Y F F A s F F F J J J F s s s a s s s c c c s s P C p s C c p c :.c i C :.>.>.>.>.>.>.>.>.;.;.=.=.=.*.%.M 2 p %.b , b *.*.=.*.=.2 n Z P -.%.B.-.T :.<X8.9.9.D.! 6 } ,X<X<X<X9.y $.1.*.*.%.*.Z - - - - - - - # # # # # } M # # @.b # 3 @.@.@.@.@.; # w @.@.@.@.} $ # b w O , , 2 4 r ,.*.D.<.M 7 [ <.<X<X9.9.8.@.Q Q R h f *.M = 7 <.<.<.<.<.q 7 M @.@.@.@.} X X X X X X O = = # # X X $ $ $ $ $ O X . . : e + O 8 M X X N @.@.@.@.N $ $ @.@.@.@.@.@.@.@.@.& & & $ $ # M @.@.%.%.X.v v <.@.@.#.#.$.#.@.@.4 o O N @.@.@.",
"X O , p s & .   O O . . X X X X N b X # 0 0 0 0 0 0 0 0 0 # X : 0 0 0 N N X X # 0 0 0 : X X O 0 0 0 M @.= X X X X X N } X X 3 0 0 0 0 0 0 w @.0 O X O O # # # # # # # % % % % # & 2 k ~ R R R ~ ( R W W R 6 4 #.e 4 6 &.6 6 r 4.2.2.E 2.2.2.2.! 2.2.! ! Q w ,.! r 5 %.z % , 0 0 z Z %.% - % - - - > 2 > 2 =.Q w 0 w , % 0 @.b 0 M %.% - 3 0 0 0 0 0 - - - - - - - - , % & , %.Q g V ;.W g g V V V V Z j g V K K K P V j j j j k k k k j V / / / / K j j ` A./ / ;.A.K K A.A.K K A.;.~ ^ ' ' ` ` / K V ' A.' ' ' ' ~ ( ^ ^ K K ^ ) ) ' a.d.d.p._ ) p.p.p.d.d.f.H.H.I.I.!.!.oXoX@X@XOXOXOXOXOX=XNXNXNXVXVXVXHXJXHXVXVXVXVXVXVXVXVXNXNXNX=X=X=XNXNX#X#X#X#X#X@X+XoX!.!.+X#X=X#XOXOXOX#X#X+X+X@X#X#X=X=X#X#X#X#X#X#X=X=X=X=X=X=X=XNXNXNXNXNXNXNXNXVXnXnXnXHXnXnXAXHXAXAXAXAXAXAXDXDXDXDXAXAXDXDXDXDXDXDXDXDXDXDXDXDXDXDXDXDXDXDXDXSXSXSXSXSXSXDXDXSXSXSXSXSXDXDXSXSXDXDXSXSXDXDXSXSXDXDXZXZXZXZXZXZXZXbXbXbXbXbXbXbXbXbXbXcXcXcXcXcXkXcXcXkXkX8X+X+X(.+X#X#X@X#X+X+X/././.(.+XoXoXoXoX+XoXoX!.Y.P.P.!.!.oXoX!.P.L.L.J.L.(.(.P.I.!.!.T.!./.!./././././.(.(.8XwXbXrXqXrXrXrXrXrXrXrXqXqXwX7X7X^.8Xb.c.c.u.r.e.K.K.y.y.V.V.V.V.V.V.V.V.K.h.I Y Y I J F F s F F F F J J J J c s s s s s c c c s s s p p c >.P p B :.B p C :.C C Z Z P P P Z Z V V V C M %.C 2 b %.b , 3 b b b Z *.2 p b n C P X.%.N.B.2X .7.6.+.Q w { <X:X;XD.9.y y <.M 0 0 z 0 - - - - - - # # # # # # } M # # @.b # & 0 0 0 0 0 = # : 0 0 0 0 3 $ # # # O > , 2 4 r Q z | { 8 7 [ +.,X<.<.8.9. .{ 1.&.h g *.M % = M { { { { q ; e @.w 8 0 : O O O O X X O O # X X X O O O X O O X X . . . . X X X O X X N @.w w w 3 $ & w w w 5 w w 0 w 0 O X X X O X : 3 0 f b v v v <.N w w w y e 4 0 : o O ; 3 3 : ",
"X X , s s , . . O X . X . X X X N b X X X X X X X X X X X X X X X X X N N X X X X X X X X X X X X X 0 @.= X X X X X N } X X X X X X X X X = @.0 O O O O # # # # # # # % % % % # % 2 k W R R R ( ( ( W W R 6 4 &.e 4 6 &.6 6 r 4.E E r E E 2.E E E E E E E : ,.! r 5 %.z % % % & & b %.& % % % & - > , > 2 =.Q $ # % % % 0 @.3 % b @.% % % % % % % % - - - - - - - - , % & > @.Z f V ;.W g g g g g g j j j j j j j j k k k k k k k k k k k k k k k V k k ` A.K ^ ;.S.^ ^ S.S.^ ^ S.,.^ ^ ^ ^ ^ ^ K K V ;.F.) ^ ^ ^ ( ^ ^ ^ K ^ _ _ a.a.d.a.p._ ) U ) p.p.d.f.f.f.H.H.P.!.!.oXoX@X#XOXOXOXOX#X=X=XNXNXVXVXVXVXVXVXVXVXVXVXVXVXVXVXNXNXNX=X=X=XNX=X&XOX&XOXOXOXoXoXoX+XOXOX&X&XOX&X&X#X#X!.oXOXOX#X=X=X=X=X=X=X=X=X=X=X=X=X=X=XNXNXNXNXNXNXNXNXNXVXVXVXVXHXnXnXHXHXHXHXAXAXAXAXKXDXDXDXDXDXDXDXDXDXDXDXDXDXDXDXDXDXDXDXDXDXDXDXDXDXDXDXSXSXSXDXDXDXDXDXDXDXDXDXSXSXDXDXSXSXDXDXDXDXDXDXZXZXZXZXZXZXZXbXbXbXbXbXbXbXbXcXcXbXcXcXcXcXcXcXcXcXcX+X+X(.(.+X#X#XlX@X@X+X/./././.oXoXOXOXOXOXoXoX!.Y.P.Y./.+XoXoXoXI.L.J.J.J.(.(.P.I.I.I.I.I.P.P.P.P./././././.8X7XrXrXrXrXrXrXrXrXrXrXqXqX7X7X^.^.8XL.b.c.k.u.r.K.K.y.y.y.y.y.t.t.t.t.t.T.M.t.T T T I J F s s c c F J J J J J J s s s s c c c c s s s p c >.P s B >.B p L >.p p p p j B B B n g f p p 3 =.Z 2 b *.b 2 , , > & M *.3 2 , , 2 b Z X.B.>.'.$. .5. .N q  .<X;Xl.b.,Xy y *.7 - % - - % # - # # # # # # # # # } M # # @.b # # # # # # # # # # # # # # # # # # # O , , 2 4 r 6 - [ 7 ; 8 [ +.D.{ { 8.9. . .1.=.m 5 *.M # # ; q q { q 7 = w @.; . X X # = = # O X X X X X X X O X .     . X # X . . X X X X X X X N N O O O $ # $ $ & & % $ O O . .   . . . X X X X % & > 9 v v <.e O o = e @ . # o o O . .     ",
"X   & s J 3 = . . . . . . X X X N N 0 0 : X X = 3 : 3 3 0 0 0 0 0 X X N N 0 0 0 : X X = 0 0 0 0 = X 0 @.0 0 0 0 X X N } 0 0 0 0 0 0 0 0 0 0 @.0 O O O X # # # # # # # # # % % # % > n V W h h R k k k R 6 * 4 #.m 4 6 &.6 6 r 4.E E r r E 2.2.2.! 2.! 2.2.4 ,.! r 6 *.M 0 0 0 z z Z %.& & 0 0 0 z z b z b =.Q $ - w 0 0 M @.3 % b @.0 0 0 0 % % % % % % % - - - - - , % % & @.Z f m ;./ V V V Z W ^ ^ ^ ^ ^ / P P / W k k ^ / / / ( / / / / ' ' ` ` K K ' S.~ ^ ,.S.' ' S.S._ ~ F.,.~ ( ~ ^ ^ ( ' ' ' ;.F.( _ ( ^ ^ K ^ ^ _ _ ' _ d.d.' ) U ) ` p.p.p.p.d.f.f.f.H.H.H.P.I.oXoX@X&XOX&XOXOX#X=XNXNXVXVXVXVXJXJXJXHXJXHXVXVXVXVXVXNXNXNX=X=X=XBXNX=X=X=X&XOXoXoXoXoX@X&X&X&X&X&X&X&X#X@X!.oXOXOXOX&X&X&X&X&X&X&X-X-X-X-X-X-X-X-XNXNXNXNXNXNXNXNXVXVXVXHXHXVXnXAXHXHXHXHXHXAXAXDXDXDXDXDXDXDXDXDXDXDXDXDXDXSXDXDXDXDXDXDXSXSXSXDXDXDXDXSXSXDXDXDXDXDXDXDXDXDXDXSXSXDXDXSXSXDXDXDXDXDXAXZXZXZXZXZXZXZXbXbXbXbXbXbXbXbXbXcXbXcXcXcXcXcXcXcXcXcXkX+X(.(.(.+X#X#X#X@X@X/./.~./.(.oXoXOX@X@X+X+XoX!.P.P.P.T.oXoXoX!.P.L.b.b.(.(././.T.I.I.T.T.T.T././.(.(.8X8X7X7X0XbX0XrXrXrXrXrXrXrXrXrXwX7X^.^.8X^.Y.L.J.k.u.J.U.k.k.V.V.V.V.V.V.V.Z.T.M.t.T T T T Y I I s a a s c F J J J J J c c s s s s c B B s s B >.P s B >.B s J >.s p p p p j P P / / P V f p =.Z 3 b =.Z b b b b b Z %.& & b M M b b b v C ,.,.#.<.8.8. .+.1X;Xg.v.U.$.$.1.v - - # % % # # # # # # # # # # # } M # # @.N 0 0 0 0 0 0 0 0 0 0 0 0 0 0 3 $ # 3 0 0 b b b m ! Q 0  .{ M q | +.8.{ ..D.D.<.<.8.<.e 8 @.b # - # ; 8 e { e 0 M @.=   X O # = = O O O O O . . X + = = = # = X X X # # # X X . X X # % N @.w w : $ # $ w w w w w w 0 3 3 : 8 3 3 # # : 3 3 5 3 9 v v <.N 4 w w y @ . # o o : 8 : 3 : ",
"X X * j K w : X . . X X . . . . N @.@.@.b X X : @.@.@.@.@.@.@.@.@.X X N @.@.@.@.M X X : @.} } @.0 X 0 @.@.@.@.@.X X N @.@.@.@.@.@.@.@.@.@.@.@.0 X X X # # # O # # # # # % % % # % % g V V h h h k k R R 4 * * e 6 4 6 &.r 6 r 2.E E E ! E 2.2.4.4.4.4.2.2.r ,.! r R &.%.@.@.%.%.%.%.%.& & N %.%.%.%.%.%.%.&.Q = , %.@.@.@.@.3 % b @.@.@.@.} % % b 0 - - & & & - % - , % % & @.Z f g ,.;.>.>.>.>.>.,.,.,.,.,.>.>.,.>.;.k k ,.A.A.A.A.A.A.A.A.A.A.A.A.K k K ` V K ;.S.F.F.F.A.^ ^ A.;.K ^ ' ^ ^ ( S.S.S.S.S.( ^ ^ K K K ^ ) _ _ _ ] ' ' ) U U ` p.p.a.d.d.f.f.f.H.H.H.H.P.!.oXoX@X=X=X=X=XOX#X=XVXVXVXVXHXJXJXJXJXJXJXJXJXVXVXVXVXVXVXNX=X=X=XNXNXNXNXNX@XoXoX!.oXoX&XmX=X=X=X=XvXlXlX+X!.oXoXOXOXOXOXOXOXOXOXOX=X=X=X=X=X=X=X=X=X=X=XNXNXNXNXNXvXvXnXnXnXnXnXnXnXAXAXAXAXAXAXAXAXAXAXAXAXDXDXSXSXSXDXDXDXSXDXDXSXSXDXDXSXSXSXSXSXSXSXSXSXSXSXSXSXSXSXSXSXSXSXSXSXSXDXSXSXSXSXSXSXZXZXZXZXZXZXZXZXZXbXbXrXbXbXbXbXwXcXwXcXcXcXkXkXkXkXkXcXcXkX(.(.(.(.+X+X@X#X@X@X+X/././.!.!.oX+XoXoXoXoXoXoXI.P.P.P.I.oXoXoXI.P.J.J.T.(.8XkX(.I.I.T.kXkXkXkXkXkXkXkXzX7X7X0XbXbXZXZXbXrXrXrXZXbXbXbX7X^.^.8X8X8X(.(.c.c.J.U.U.U.K.T.T.T.K.K.K.K.K.M.I Y U Y Y Y I I F c s a s s c F J J J F c c s s s c c c s s s P B s B :.B s L >.B s C P p s -.>.>.>.>.&.g f >.Z p b =.=.=.*.%.%.%.%.%., , Z %.*.%.&.*.*.*.=./ b N 1.<X,X,X<X;Xx.v.U.9.9.2X} 1 > w 0 # # % # # # # # # # # # } M # # @.@.@.@.@.@.@.@.@.@.@.@.@.@.@.@.} # # } @.@.%.%.%.&.,.$.%.D.<.=.M |  .<.{ o.<.D.F.1.1.<.t 8 #.M $ = e 7 7 { <.=.*.@.@.= O $ # # O . X X # # $ $ + + + . . . X + + + X X X X # % > > > u u P -.-.-./ 2 > , %.%.@.@.@.%.%.@.@.@.@.@.@.X # M @.@.@.} 9 v v <.@.@.@.#.y @ o % o o w @.@.@.@.",
"X X : j B 3 : X   . . . . . . . : : : : = X X : @.0 : : : : : M @.X X ; : : : N M X X O : : 0 @.0 X = : : : e @.X X ; : : : : : : : : : : : : # X X X X # # O # # # # # % % % % % % f k K k k R R W W R * $ o o 4 4 6 &.r 6 E 2.E r 2.4.E 2.2.2.E 2.4.2.2.r ,.Q r r 5 < 3 3 3 3 3 3 3 % % N } 3 0 0 p l z n 5 & ; %.b 3 3 3 , % , 3 3 3 N } % % } Z - , & , & & % - , % & & @.Z 5 g m m V V V V V V V V W W V V V ;.;.k k ,.,.^ ^ ^ ^ ^ ^ ^ ^ ^ ` A.K j k k V V ^ / / ( ` / ^ K A.;.V K A.( ^ ( S.' ( ' ' ^ K K K K K ) _ _ ] ] ' ' ) U U ` i.p.p.d.d.d.f.s.V.G.G.H.H.I.oXoXoXOXOXOXOXOXOX=X=XVXVXVXVXVXVXHXJXJXJXJXJXJXVXVXVXVXNXNXNX=X=X=X=X=X=X=XNX@XoXoXoXoXOX=XNXOXOXOXOX@X(.(.oXoXoXOXOX#XOXOXOXOXOX#X#X=X=X=X=X=X#X#X#X=X=XvXNXNXNXvXvXvXvXnXnXnXnXnXnXnXAXAXAXAXAXAXAXAXAXAXAXSXSXSXSXSXSXDXDXSXSXDXDXDXSXDXDXSXSXSXSXSXSXSXSXSXSXSXSXSXSXSXSXSXSXSXSXSXSXDXSXSXSXSXSXSXZXZXZXZXZXZXZXZXZXrXrXrXrXrXbXbXwXwXwXwXwXwXwX8X8X8XkXkXkXkX(.(.(.(.(.+X@X#X@X#X+X/././.!.!.oXoXoXoXoXoXoXoXI.I.P.K.I.I.oXoXI.P.L.J.J.J.P.T.I.I.I.T.kX(././././.(.8XzX7X7XwXrXrXrXZXZXrXrXrXrXeXrXrX7X^.^.^.U.U.Y.(.c.c.c.k.k.k.h.h.h.M.h.h.t.t.t.t.I I Y Y Y Y I I F F F c s a s c J J J J F c s s s s s s s s s s s p B :.B s L >.B s %.>.p p -.;.V Z >.&.n b >.Z p p n b b b b b 0 0 0 , , Z %.0 z z z 0 0 z f d b >.<.*.+.z.l.g.u.g.<.$.1.} < , Z N # # % # # # # # # # # # } M # # 3 3 3 3 3 3 3 3 : : : : : : : M } # # } N : 0 z z 5 r r 0 | { *.q [ | | | | +.+. .X.#.} M w &.M O : @.0 7 { <.N 0 : : X + = # O X X X X O O # # O X X .     . X O O o     X & > u u u A A A I A A A u u u -.Z p 3 p p 2 3 3 : : M @.X X M @.: 3 3 9 v v [ 8 : 4 #.y @ o % o o w @.: * = ",
"X O : B j : O X . . . . . X . . . . . . X X X : @.: . . . . . e @.X X X X X X N M X X . X X : @.3 X X X X X w @.X X X X X X X X X X X X X X X X X X X X # # # # # # # # % % % % & # 3 k ^ ~ ~ W R ( ( W * $ o o 4 4 6 ,.r r E 2.E r 2.4.E 2.2.2.r E ! 2.2.E ,.Q 6 r 4 % % % % % % % & & & Z } % - , > - , 3 6 & ; %.0 % % % % % & , - & M } % & } Z , , , , , , % % & & & > %.Q 5 g g g g g g g g k k k k k k k k ;.,.V V ,.;.V V k k k k V k k / A.K k k j k k k k k k K k k k A.;.V ^ A.( ^ ( S.( ^ _ ^ K B B J K ) _ ' ' d.d._ U U U ` p.p.p.p.d.d.d.s.s.k.c.G.H.I.oXoXoXoXOXOXOXOXOX&X=X=XVXVXVXVXVXVXHXJXHXJXJXJXJXVXVXVXVXNXNXNX=X=X=X=X=X#X#XNX@XoXoXoXoXOX=XNXOXOXOXOXoX/.!.!.oXOXOX#X=X=XOXOXOX=X=X=X=X=X=X=X#X=X#X=XNXvXvXNXNXNXNXvXVXVXVXVXVXHXAXAXnXAXAXAXAXAXAXAXDXDXDXDXDXDXDXDXSXSXDXDXDXDXDXDXSXSXDXDXDXDXDXDXDXDXDXDXDXDXDXDXDXSXDXDXDXDXDXDXDXDXDXSXSXSXSXSXSXZXZXZXZXZXZXZXiXiXrXrXrXrXrXrXrXwXwXwXwXwXwXwXwXwXwX8X8X8X8X+X(.(.(.(.+X@X&X#XlX@X(./.P.I.I.!.oXoXoXoXoXOXOXoXT.P.L.P.I.!.+X!.I.P.H.G.G.H.I.I.I.I.!.kX!.I.!./././.8XcX8XwXqXeXeXrXZXZXrXrXrXeXeXeXrXqX7XW.W.m.b.Y.(.c.c.k.k.u.y.y.y.y.t.t.t.t.r.r.r.r.Y I Y I I I I I I F F c s s c c c J J F c c c s s s s s c c s s p B :.B s L B.B c %.>.s s -.-.B b >.%.n B >.P f p p p 3 3 2 3 3 , , , & Z } > > & & 2 < < > d g >.P C } { O.g.e.e.<.<.1.} , - Z N # # - - # # # # # # # # } M # # # # # $ $ # # # # # # # # # # M } # # } N O & , , 4 r 6 = [ { @.8 [ [ ..| | |  .|  .@.W V g &.m = ; #.0 q  .<.M = $   . ; # O O X # # # O . . X     . X X . . . . o o     . > u s A A A A A G G A A A A A M.J u u 2 > > & & % $ e @.O . e N X # % 9 v v v = O : #.y @ . % o o w @.. .   ",
"  O : j p #   . .   . . . . X . . . . . . . X : @.e w w = . . e @.w w w w w w } e X X = w w b @.3 . X X X X w @.w w w # X X X X X X X X X X X X X X X X X X # O # # # # % % % % $ X 2 j U i._ ~ R ( W R $ $ o * 6 4 6 &.! ! ! 2.E r ! ,.2.2.4.2.r E 4.2.2.2.,.! Q Q g % % % % & % % & & & Z } b b M b M M m Q M M %.b & & 0 b b b b b b } @., & @.} , , , , , , , % & , * 2 %.&./ W Q Q / / / / / / / ( / ( V V V ;.,./ ' ,.;.k k k V V V V K K ' A.;.;.;.' ' ' ' ] ] ;.;.;.' ] S.,.^ ( S.A.] ,.S.' ^ K K K J K ^ ) ' ' ' ` U K J J U i.a.d.d.d.d.p.p.s.y.y.k.c.H.I.I.oXoXoXoXoXOXOXOXOX&X=X=XVXVXVXVXVXHXHXHXHXJXHXJXJXVXVXVXVXNXNXNXNXNXNX=X&XOX#XvX@X+X+X@X@X@X=XNXOXOXOXOXoXoX!.oXOXOX$X&X&XOXOXOXOX&X&X=X&X=X=X=X=X=X=XNXNXNXNXNXvXNXvXvXVXVXVXVXVXVXAXAXnXAXAXAXZXZXZXAXDXDXDXDXDXDXDXSXSXSXSXDXDXDXDXDXSXSXDXDXDXDXDXDXDXDXDXDXDXSXSXDXDXDXSXDXDXDXDXSXSXSXSXSXSXSXSXSXZXZXZXZXiXiXiXiXiXiXrXrXrXrXrXrXrXwXwXwXcXcXcXcXwXcX8XkXkX+X+X+X(.(.(.(.(.+X@X#X#X@X+X/./.Y././.(.+XoXoXoXoXoX!.Y.P.L.P.P.P.P.!.I.P.P.L.L.L.P.P.P.P./.kX(././.~.^.^.8XcXwXrXrXrXrXrXZXiXeXeXeXrXrXrXrXqX4XW.W.m.m.U.^.L.L.J.c.u.u.y.y.y.y.y.y.t.r.r.r.r.r.r.r.Y Y Y I I I F F F c c a c c c c c c c c s a a a a a s s s a B :.X.L X.:.c s %.>.P P :.-.p p -.%.f B >.%.Z Z b p 3 3 2 3 * 3 3 3 , } %.M M M M B M N e C Z *.z p p e X.o.o.Z.D.1.,X*.- - } Z # % % # # # # # # # # # } Z w b b b b b b b w w w w w w = # # M @.w b } N O & , , 4 r 6 + [ t #.{ +.+.+.+.+.+.<.6.+.*.( / W &.M X + @.{ { <.<.q 9 v # # = X X X O $ $ # . X X # - 9 v [ ....[ v 9 ;   X # & p A A I I A A A A A A A A A A C.r.A A A I I I I J J P -.> > M N X # % v { { [ = O : #.$.e w w e e N @.. .   ",
"  O 3 B p #   X .   . . . . . . X X X X . . . : @.@.@.@.3 . . b @.@.@.@.@.@.@.@.b X X : @.@.@.@.3 X X X X X w @.@.@.@.= X X X X X X X X X X X X X X X X X X # # # # # # # # % # # . 1 J t.C.a.' W ( ( h . O o 4 6 6 6 &.,.! 2.4.E r ! ,.4.3.4.2.r E E E 2.2.4.,.&.,.m % % % % % % % % % % Z %.@.%.%.%.%.%.&.=.@.@.%.b & & M %.%.%.%.%.%.%.@., , 0 3 , 3 3 , , , & & , 2 3 3 &.>.,.;.,.,.,.,.,.,.,.,.,.,.,.A.V k k / ,.,.A.A.;.k k k k k k k k k / A.A.A.A.A.A.A.A.A.A.A.A.A.A.A.A.;.^ ^ S.S.A.A.F./ K B J K K ^ ) _ ' ` ) ) K U U ) _ p.a.a.a.a.a.s.t.t.t.y.k.G.H.H.I.I.I.!.!.oXoXoXoX@X#X#X#XNXNXVXVXVXHXHXHXHXHXJXJXJXVXVXVXVXNXNXNXNXNXNXvX#XOX@XlXkXkXkX#X#X#XlXvXoXOXoXoXoX!.!.oXoXOXOXOXOXOXOXOXOXOXOX#X=X=X=X=X#X#X#X#X#X#X#XvXvXvXvXvXvXvXvXnXnXnXnXnXnXnXAXAXZXZXZXZXZXZXSXSXSXSXSXSXSXSXSXSXSXSXSXSXSXSXSXSXSXSXSXSXSXSXSXSXSXSXSXSXSXSXSXSXSXSXSXpXpXSXSXSXSXSXSXZXZXZXZXZXZXiXiXrXrXrXrXrXrXrXrXrXrXwXwXwXwXwXwXwXwXwX8X8X8X8X8X+X(.(.(.(.(.(.+X+X@XoX(./.Y.Y.Y.Y./.!.!.!.!.I.I.P.P.P.L.L.L.L.H.P.P.P.L.b.b.b.L.J.J.L.Y.8X(.8X8X^.^.^.8XwX0XrXrXrXrXiXiXiXeXeXeXiXiXrXrXqX4XW.W.m.v.m.Y.Y.Y.Y.c.u.u.e.r.r.r.r.r.G Y G G I I G I I I G G F F F F F x c c s s c s s s s s s c a s a a a s a a B :.>.:.:.:.c s / >.>.>.>.%.p p B b p p >.>.=.=.Z 3 3 3 2 2 2 3 2 , 1 } *.*.%.%.%.%.#.#.@.%.*.*.b d p C >.=.>.A.F.F.D.%.- # l < % % % # # # # # # # # # } @.@.@.@.@.@.@.@.@.@.@.@.@.@.@.: # # M @.@.@.@.N O , , , 4 r 6 - [ { *.<.,X,X,X,X,X,X,X,X,X1.,.>.=.%.M + : @.@.=.1.*.v [ O.9 - O = X X X $ O X X - 7 9 [ [ ..O.O.l.l.O.[ 9 X > > u A A A A A A s p u u u u u u s J A A u J M.N.N.N.N.M.-.-.> > * : X $ & *.<.<.+.= O : #.$.#.#.@.@.#.@.@.. .   ",
"  O 3 B 2 #   X . . . . . . . . . . X X X . . . . X X X X . . X X X X X X X X X X X X X X X X X X X X X X X X X X X X X X X X X X X X X X X X X X X X X X X O # # # # # # # % # # . 1 F k.K.C.N.( ' ^ h   . o 4 6 6 4 6 6 6 r r r r r r r E E E r E r E 2.2.E r 6 6 4 % % % % % % % % % % % % % , > > - , * 5 & & * & & & & & & , , & & & , , , , , , , , , , , * * 2 3 3 3 f g g g h h h h h h h h h k k k g g g g j j j j j j k k j j j j j j j j j j j j B B k k V V V V V V k k V V V K K K V V B c B K ^ _ _ _ ` ` ) K K U ) _ p.p.p.p.a.a.a.h.h.y.t.y.V.G.H.H.H.I.I.I.I.!.!.!.oX+X+X#X#XvXvXVXVXVXVXVXVXVXVXHXHXVXVXVXVXVXNXNXNX=X#X#X#X@XOXoX!.!.!.!.oXoXoXoXoXoXoXoX!.!.!.oXoXoXOXoXoXoXoXoXoXoXOX#X#X#X#X#X#X#X#X#X#X#X#X#X#XcXvXvXcXcXcXcXbXbXbXnXnXnXnXnXZXZXZXZXZXZXZXSXSXSXSXSXSXSXSXSXSXSXSXSXSXSXSXSXSXSXSXSXSXSXSXSXSXSXSXSXSXSXSXSXSXSXSXSXpXpXSXSXpXSXpXSXpXpXZXZXZXiXiXiXrXrXrXrXrXrXrXrXrXwXwXwXwXwX8X8X7X7X7X7X8X8X8X(.(.(.(.(.(././.(.+XOXoX!./.Y.Y.Y.Y.P.P.P.P.P.P.P.P.P.P.L.L.L.J.G.P.P.L.J.b.v.b.b.b.b.b.b.b.L.b.b.m.W.W.W.W.4X4X4XqXeXeXeXeXeXeXeXeX9X5X6X4X4XW.W.n.n.x.x.x.x.j.g.e.e.e.e.e.e.e.G G G G G G G G G F F F F F F F F F F c c c c c s s s s s c c s a a i a a a a c c c a a a p p p s s c c z p p p p p p p p p 3 3 3 3 2 2 2 2 3 2 , , , , , , , & & $ = & # % ; * 2 u 1 d , : g B C { 2 % # 1 % # # # # # # # # # # # # # # # # # # % % % # # # # # # # # # # # # # # # O O , , , 4 r 6 > [ l 9 q | | | | O.O.O.O.| C 5 0 3 - X + o # X : e + 9 [ ;X[ 9 $ = # O X X X X # 9 q v ..O.O.l.;X;X;Xl.O.[ ; u u u A A A A A s j 5 u u u u u u a a u u u u A A A A A u u u > & $ . X $ % 1 v v v = O o : e @ . # O o $ . .     ",
"  # 3 p 2 %     X X . . . . . . . . X X . . . . . . X X X X . X . . . . . . X X X X X X X X X X X X X X X X X X X X X X X X X X X X X X X X X X X X X X X X # # # # # # # # # # # % + x x.Q.6X6XQ.m.Y 6 . . o 4 4 4 4 4 4 4 4 r r r r 6 r r r r r r r E 2.2.2.r 6 6 * # % % % % % % - - - % % % & % % % & * 2 2 3 * 3 , , , , & , & & & & 3 3 2 , , * * * * * 2 2 3 3 5 5 5 5 g g g g g f f g g g g g g g g g g g g g g j j j j j j j j j j k j k k k k k R k k k k k k k k k k k k k V k k k S j c x K K ^ ^ _ ) ) K K J J K U ) ` i.i.i.t.t.t.t.r.r.t.k.V.V.G.G.H.H.P.P.P.Y.Y./.!.oX#X#X#XvXvXvXnXnXVXVXHXHXHXHXHXHXHXVXVXVXVXNXNXNX#X#X#X#X@XoXoXoXoXoXoXOXoXoXoXoXoXoX!./.P.!.oXoXOXOXoXoXoX!.!.!.oXoX#X#XOXOX#X#X#X#X#X#X#X#X#X#XvXvXcXcXcXvXvXcXbXbXnXnXnXbXbXZXZXZXZXZXZXSXSXSXSXSXSXSXSXSXSXSXSXSXSXSXSXSXSXSXSXSXSXSXSXSXSXSXSXSXSXSXSXSXSXSXSXSXSXpXpXSXSXpXpXpXiXiXiXiXiXiXiXiXiXrXrXrXrXrXrXrXrXrXwXwXwXwXwX8X8X8X8X8X8X8X+X+X+X+X+X+X+X(./.~././.oXOX+X+XoXoXoXoX!.I.I.I.I.T.T.oX!.I.I.L.J.b.L.P.P.P.P.P.I.I.P.P.P.P.P.P.P.L.L.Y.^.^.^.7X7X7XqX9X9XeXrXrXrXrXrXeXeXeX5X6X6X4XE.E.n.v.v.v.v.c.c.k.j.u.y.y.r.r.e.e.r.r.r.G I I I I I G I J F J F F F F F F F F c c c c c c c s s s s a i i i i c c c c s p p a s s s B B V V j g p p p p p 2 p 3 3 3 3 3 3 3 2 3 3 2 2 2 , * * , , & & & % % % % & & , , 3 3 3 3 3 < , - % # $ $ $ $ $ $ $ # # # # # # # # # # # # # # # # # # # # # # # # # $ $ % # # O & , , : r 6 - [ 9 + = q [ | O.O.O.O.O.| [ * z 0 - X X + * # # ; $ ; [ 5.;XO.[ $ $ = = . . # v ..O.O.....O.5.;X;Xz.:X:XO.p & u e.A A A D 2 h ! E E r r R d > i i a u a a A s a a i 2 $ X $ O O $ X $ $ , v v l = o o : e : O $ O O $ X       ",
"  # 3 p 2 %     X . . . . . . . . . . . . . . . . . X X X X . . . . . . . . . X X X X X X X X X X X X X X X X X X X X X X X X X X X X X X X X X X X X X X X X # # # # # # # # $ $ % . i e.Q.Q.6XQ.m.L 4   . o 6 6 4 4 4 4 4 4 6 r r 6 6 r r r r r r r r E 2.2.r 6 6 4 % % % % % % % - - - % % % % % % % , * 3 2 , , , , , , , , , , , , , , 3 , , , 3 2 3 3 3 3 3 5 5 5 5 f f g g h h h h h h h h h h k V k k k k k k k k k k R R R R R R R R W W W W W W V V V V K K ^ W W ^ ^ ^ ^ ^ ^ K K K B J J K ^ ) ) ) ) ^ K K K K K ` ` ' a.a.a.i.t.t.t.h.M.V.V.C.C.H.H.I.I.I.I.I.I.I.!.oXoXOX#X#X#XvXvXnXnXnXVXVXVXHXHXHXHXHXHXVXVXVXVXVXNXNXNX=X#X#X#X@XoXoXOXOXOXOXOXOXOXoXoXoX!.!.!.oXOXOXOXOXOXoXoXoXoXoXOX#X#X=X=X&X&X#X#X#X#X#X#X#X#XvXvXvXvXvXvXvXvXnXnXnXnXnXnXbXZXZXZXZXZXZXZXZXSXSXSXSXSXSXSXSXSXSXSXSXSXSXSXSXSXSXSXSXSXSXSXSXSXSXSXSXSXSXSXSXSXSXSXpXpXpXpXpXpXpXpXpXiXiXiXiXiXiXiXiXiXrXrXrXrXrXrXrXrXrXwXwXwXwX8X8X8X8X8X8XkXkXkX+X+X+X+X+X+X(./././.(.+X@X+XoXoXoXoXoX!.I.I.I.P.I.I.oXoXI.I.P.J.b.b.L.P.P.P.I.I.I.P.P.P.P.L.P.P.P.~.~.^.^.^.7X7XqXqX9XeXrXrXrXrXrXrXeXeXeXeX4X4X4XW.W.m.v.v.b.c.c.c.c.k.k.u.u.y.r.r.r.r.e.G Y Y Y Y I I I I I I I J J J F F F F F F F c c c c c c c c c c c i i i i c c c c c c c s s s B B V V B n b z p p p 3 p p p p 3 3 3 3 3 3 3 3 3 3 3 3 3 , , , , & , & % % % % , , , , , , 3 , , % % # # # # # # # # # # # # # # # # # # # # # # # # # # # # # # # # # # $ % # # O & , , : r 6 - [ 9 7 : < 9 l [ O.O.| O.O.[ 3 b 3 - X O O # = ; 7 : ; q O.;X5.O.[ 9 =   # 9 v ..O.O.O.O.O.O.O.O.O.O.O.O.O.v < i a A D D a > 2 b E Q R 6 R R R R d d d u u u u u u - 2 % # & X $ $ X X $ , v v l = o o : e : O $ O O % X       ",
"  $ , p p %     . . . . . . . . . . . . . . . . . . . . X X X . . . . . . . . X X X X X X X X X X X X X X X X X X X X X X X X X X X X X X X X X X X X X X X X # # # # # # # # $ & # . i H Q.Q.6X6Xm.L *   o 4 6 6 4 4 4 4 4 4 6 6 6 6 6 r r r 6 6 r r r E 2.E r 6 6 4 % % % % % % % % % % % % & % % % % & : * 3 , , , , , , , , * 3 , 2 3 , , , , 2 2 3 3 3 3 3 5 5 5 5 5 f g g h h h h h h h k V W W W W V R k R R R R R R W R R W W ~ W W W W ~ ^ ^ ^ ^ V V W ^ ^ ^ ^ ^ ^ ^ ^ ^ ^ ^ ^ K K B B K K ^ ^ ^ ) ^ K K K K K U ) ' a.a.a.a.a.i.i.t.h.j.V.C.C.C.I.I.I.I.I.I.I.I.].oXoXoXoXOX#X#X#XvXvXnXnXnXVXVXHXHXHXHXHXVXVXVXVXVXVXVXNXNXNX#X#X#X@X+XoXoXOXOXOXOXOXOXOXoXoX!.!.!.oXoXOXOXOXOXOXOXoXoXoXoXOX#X#X=X&XOX#X#X#X#X#X#X#X#X#XvXvXvXvXvXvXvXvXnXnXnXnXbXnXbXZXZXZXZXZXZXZXZXZXSXSXSXSXSXSXSXSXSXSXSXSXSXSXSXSXSXSXSXSXSXSXSXSXSXSXSXSXSXSXSXSXSXSXpXSXpXpXpXpXpXpXpXpXiXiXiXiXiXiXiXiXiXrXrXrXrXrXrXrXrXwXwXwXwXwXwXwXwX8X(.(.+X+X+X+X+X+X+X+X(./././.(.+X+XoXoXoXoXoXoX!.P.P.P.P.I.I.oXoX].I.P.P.J.G.G.P.P.P.I.I.P.P.P.P.P.P.Y.Y.~.~.~././.^.7X7XqXqXeXeXeXeXrXrXrXrXeXeXeXeX4X4X4XW.W.m.v.b.b.b.c.c.c.c.k.k.k.y.r.r.r.Y G G G G Y Y Y I I I I I J F F F F F F c c F F c c c c c c B c B c c c i a a i s c c c c c s s s B B B B B B B b z p p 3 p p p p p 3 3 3 3 3 3 3 3 3 3 3 3 3 3 3 , * * , & , , % % , , & & & , ; , % % # # # # # # # # # # # # # # # # # # # # # # # # # # # # # # # # # X O # # # X & , , * r 6 = [ 9 7 * & , < [ | O.| O.O.[ 0 b 3 & $ $ O O ; : 8 : ; 9 [ 5.;X;XO.[ 9 = 9 [ [ O.O.O.O.O.O.O.O.O.O.O.O.O.O.[ v v a s D D a > , 2 E m b 0 R E ! W h h h p p p d u > % > $ # & # # $ X X $ , l v v ; o o o e : X $ O O $ X       ",
"  # 2 p p %     . . . . . . . . . . . . . . . . . . . . X X X . . . . . . . X X X X X X X X X X X X X X X X X X X X X X X X X X X X X X X X X X X X X X X X X # # # # # # # # * $ # # i D Q.Q.Q.6Xx.c o   o 4 6 6 4 4 o 4 4 4 6 6 6 6 r r r r 6 6 r r r E 2.E r 6 6 4 & % % % % % % % % % % % % & & % % & : * 3 , , , , * , 2 2 2 3 3 3 3 3 3 3 2 2 3 3 3 5 5 f 5 5 5 5 f f g g g h h h h h h R R R R R R k k h h h k k k R R W W W W ~ W W W W W W W W W W ^ W ^ ^ ^ ^ ~ ~ ~ ( ( ( ^ ^ V B B B K ^ _ ( ^ ^ K J J J K U ` ' a.a.a.a.a.a.i.t.t.h.h.Z.C.C.K.I.I.I.I.T.T.T.T.I.T.I.oXoXoX#X#XvXvXvXnXnXnXVXVXHXHXHXHXHXHXVXVXVXVXVXVXvXvXvX#X#X+XoXoXoXoXoXoXoXoXoXOXOXoXoX!.!.oXoXOXOXOXOXOXOXoXoX!.oXoXOXOX#X#X#XOXOXoXoX+X+X#X#X#X#XvXvXvXcXcXcXcXvXcXbXbXbXnXbXbXZXZXZXZXZXZXZXZXZXZXZXSXSXSXSXSXSXSXSXSXSXSXSXSXSXSXSXSXSXSXSXSXSXSXSXSXSXSXSXSXpXpXpXpXpXpXpXpXpXpXpXpXpXiXiXiXiXiXiXiXiXiXrXrXrXrXrXrXrXwXwXwXwXwX8XwXwXwX8X(.(.(.(.(.(.+X+X+X+X(./././.!.oX+XoXOXoXoXoX!.!.P.P.L.L.I.{.oXoXoXoXI.P.L.G.G.H.P.P.I.I.P.P.P.P.Y.P.P.P./.~./././.^.^.7XwXrX9XeXeXeXrXrXrXrXeXeXeXeX5X4X4XW.W.W.v.v.v.v.c.c.c.c.u.y.y.y.y.r.r.G G G G G G G Y Y I Y I J F F F s a a s s s c c c c s s s s c c B c c c a a i i p s c c c c c c B B B B B V V B n b z p 3 p p p p p p 3 3 3 3 3 3 3 3 5 3 3 3 3 3 3 3 2 2 * * : & % % % % % & & , % % % # # # # # # # # # # # # # # # # # # # # # # # # # # # # # # # # # X O # # # X & , , * r 6 . [ 9 ; & 2 , > 7 [ | O.5.O.| 9 z 3 * * $ $ + 8 8 8 = = 7 [ O.;X:X:XO.| [ [ [ | O...| | [ [ ..[ | | O.O.O.O.O.| [ v g x x a d 2 1 R g 3 1 n W ( C m m Q Q m g r 5 * X #     & # $ # X X $ - l v v ; o o o e : X $ o O $ X .     ",
"  # , p p %     . . . . . . . . . . . . . . . . . . . . . X X X . . X . X X X X X X X X X X X X X X X X X X X X X X X X X X X X X X X X X X X X X X X X X X X X X O # # # # # $ $ X & i x Q.Q.Q.6Xe.p o   o 6 6 6 6 4 4 4 4 4 4 4 6 6 r r r r 6 6 r r r r E r r 6 6 6 $ % % % % % % % % % % % & % % % & & * * 3 , , 2 2 2 3 3 3 3 3 3 3 3 3 3 3 3 3 3 3 5 5 5 5 3 3 3 5 5 f f g h h h h W W W W W W W R R R h h h h h h h k k R R R W W W W W W W W W W W ^ ^ W W W W ^ ^ ~ ( ( ~ W V B B B K ^ ^ ^ ^ _ ) ^ K K K P ` ` a.a.a.a.a.i.T T T h.M.V.Z.Z.Z.Z.K.K.K.K.K.K.Y.Y.U.U.U.Y.Y./.+X+X#XcXcXvXnXnXnXnXHXHXHXHXHXHXVXVXVXVXVXnXnXvXvXvX#X#X#X#X@X@X@XOXOXOXOXOXOXoX!.P.P.!.oXoXOXOXoXOXOXoXoX!.!.oXoXOXOXOXOX#XoXoX+X+X+X+X+X+X+X+X+XcXcXcXcXcXcXcXbXbXbXbXbXbXbXbXZXZXZXZXZXZXZXZXZXZXSXSXSXSXSXSXSXpXpXpXpXpXpXpXSXSXSXSXpXpXpXpXpXpXpXpXpXpXpXpXpXpXpXpXpXpXpXpXpXpXpXpXiXiXiXiXiXiXiXiXiXrXrXrXrXrXwXwXwXwXqX7XwX7XqX7X7X7X^.^.^.^././.(.+X+X+X+X+X+X+X+XoX@XOX+XoX+X+X!.!.P.L.L.L.P.I.I.oX].].I.I.P.G.G.G.H.K.K.P.K.H.H.P.L.L.J.L.P.~.~./.(.(.^.7X7XqX9XeXeXeXeXrXrXrXeXeXeXeX5X5X4X4XW.W.W.m.v.v.c.c.c.c.c.u.u.y.r.r.r.Y G G D D D D D F F I I I I F F F c c c c a a a c c c c c s s s s s c c c c p p p p p p c c c B B B B B B B B B n n b b p p p p 3 3 3 3 3 3 3 3 3 3 5 3 3 3 3 3 3 3 3 3 3 3 * : : & & % % $ % & & % % % # $ # # # # # # # # # # # # # # # # # # # # # # # # # # # # # # # X O # # # O $ , , * r 6 : 9 7 < 3 1 1 1 , $ 7 | O.O.O.[ l < - # # # = e e e ; = ; 9 O.O.:X5.;X5.5.5.O.O.O.O.O.5.5.5.5.:X:X:X:X:X:X:X:X:X:X;XC c x c * & & h d d u g R E M m W Q R m m 2.2.E r h 4 : , # # $ X X $ , l v v : o o o e : . $ o O $ X .     ",
"  # , p p %     . . . . . . . . . . . . . . . . . . . . . . . . X . X X X X X X X X X X X X X X X X X X X X X X X X X X X X X X X X X X X X X X X X X X X X X X X X O # # # # $ % X % 1 i E.Q.Q.Q.G p o   o 6 6 6 6 6 o 4 4 4 4 6 6 6 6 6 r r 6 r r r r r r r r 6 6 6 $ % % % % % % % % % % % % % % - & & & * * , , 2 3 3 3 3 3 3 3 3 2 3 3 3 3 3 3 3 3 3 3 3 3 3 3 3 5 5 f g h h h h k k k k k R R k h h h k k k R R R R R R W W R R R W R W W R R ~ ~ W V V V V V V V V V V V W V V B C P ^ ^ ( ) ) ` ` ` ^ U T ` ` i.i.a.a.a.i.h.h.h.h.h.M.Z.K.C.C.C.K.K.K.K.K.K.P.P.U.U.U.Y./.(.+X+X#XcXvXvXnXnXnXnXHXHXHXHXHXHXVXVXVXVXVXVXVXvXvXvX#X#X#X#X#X@X#XOXOXOXOXOXOXoX!.!.P.oXoXOXOXOXOXOXOXoXoX!.!.oXOXOXOXOXOX@X@X@X+X+X+X+X+X+X+X+XkXcXcXcXcXcXcXcXcXbXbXbXbXbXbXbXZXZXZXZXZXZXZXZXZXZXSXSXpXpXSXSXpXpXpXpXpXpXpXpXpXSXSXSXpXpXpXpXpXpXpXpXpXpXpXpXpXpXpXpXpXpXpXpXpXpXpXpXiXiXiXiXiXiXiXiXiXrXrXeXeXrXrXqXwXqXqXqXqX7X7X7X7X^.^.^.(./././.(.(.+X+X+X+X+XoX+X+X+X+XoX+X+X+X!.!.P.P.L.L.P.I.I.I.I.I.I.I.P.H.H.J.H.P.P.P.P.P.P.P.L.L.L.L.L.Y.~.^.^.^.7X7X7XqX9XeXeXeXeXeXeXrXeXeXeXeXeX5X4X4XW.W.W.W.v.v.b.c.c.c.c.c.k.u.r.r.r.r.Y G G G D D D F H F I I I F F F F c c c x x x c c c c B B B B s c c B c c c c z p p p c c c c B B B B B n B B n n b b p z p p 3 3 3 3 3 3 3 3 3 3 5 5 3 3 5 5 5 5 3 3 3 3 2 3 3 : & & & & $ % % % % % # # # # # # # # # # # # # # # # # # # # # # # # # # # # # # # # # X # # # # X $ , , * r 6 , v q 7 = < < , , , 7 q | O.O.[ v 9 - - - % + w N N 8 = # ; [ O.:X;X;X5.5.5.5.5.;X:X:X:X:X:X:X:X:X:X;X5.:X:X5.:X:X5.v v v c & & $ 6 d d u m R E B n m R h b n E R R r E r r R $ # $ X $ $ , l v v = O o o e : . $ o O $ X       ",
"  # , p 2 #     . .   . . .       . . . . . . . . . . . . . . . X X X X X X . X X X X X X X X X X X X X X X X X X X X X X X X X X X X X X X X X X X X X X X X X X X O # # # # $ # . # & , n.Q.Q.E.F * o . 4 6 r 6 6 6 * 4 4 o 4 6 6 6 6 6 6 6 r 6 r 6 6 r r r 6 6 6 6 & % % % % % % % % % % % % % % - % % & * * , , 2 2 3 3 3 3 3 3 3 3 3 3 3 3 3 3 3 3 3 3 3 3 3 3 3 5 5 g g h h h m m m k h h h h h h h h k R R R R R W R W R R R R R R R R R R ~ R R W V V V V V V V V V B B B B B B K K ^ ) ) ) ) ` ` ` ` ` ` ` i.i.i.i.M.M.h.h.h.h.h.h.M.Z.Z.Z.Z.Z.K.K.K.K.K.K.K.K.U.U.U.Y./.(.+X+X#XcXvXvXnXnXnXnXnXHXHXHXHXHXHXHXVXVXVXVXVXNXvXvXlX#X#X#X#X@X#X#XOXOXOXOXOXoX!.!.!.oXOXOXOXOXOXOXoXoXoX!.oXoXOXOXOXOXOX@X@X+X+X+X+X+X+X+X+XkX+XkXkXcXcXcXcXcXcXcXbXbXbXbXbXbXbXZXZXZXZXZXZXZXZXZXZXSXSXSXpXpXpXpXpXpXpXpXSXSXpXSXSXSXpXpXpXpXpXpXpXpXpXpXpXpXpXpXpXpXpXpXpXpXpXiXiXiXiXiXiXiXuXiXiXiXiXrXrXrXeXeXeXqXqXqXqXqXqX7X7X7X^.^.^.^.^.^././././.(.(.+X+X+X+X+XoXoX+X+X!.!.!.!./.Y.P.P.L.P.P.P.I.I.I.I.I.P.P.P.P.L.P.P.P.L.L.L.L.L.J.L.L.L.L.L.^.^.^.7X7XqXqXeXeXeXeXeXeXeXeXeXeXeXeX9X5X4X4XW.W.W.m.v.v.v.v.v.c.c.k.j.y.r.r.r.r.r.G G G G D F F F F zXIXUXUXUXUXIXxXo.c c x x c c c c B B B c c c c B c c c c z z p p c c c c B B B B B B B B n b b p p p p p 3 3 3 3 3 3 3 3 3 3 3 5 5 5 5 5 5 5 5 3 3 3 3 3 3 , , & & & % % % % % % # # # # # # # # # # # # # # # # # # # # # # # # # # # # # # # # # # # # # O X $ & , : r 6 - [ v q : 8 ; ; & < < 7 [ [ | [ z < - - - # + 0 e N 0 ; # $ v ..;X;X;X5.5.5.:X:X:X:X:X:X:X:X:X:X;X;X:X5.:X:X5.:X5.O.[ ....z - = * 5 f p i h R E B B k R h f b R g f 6 E E E R $ $ $ X $ $ , l v l = . o o e : . $ o O # X       ",
"  # , p 2 #     . .   . . .           . . . . . . . . . . . . . X . X X X X . X X X X X X X X X X X X X X X X X X X X X X X X X X X X X X X X X X X X X X X X X X X O O # # # # X . # % & x.Q.Q.n.p * o X 6 r r r 6 6 : 4 4 o 4 6 6 6 6 6 6 6 6 6 6 6 6 6 r r r 6 r 6 * % % % % % % % % % % % % % & - % % & * * , , 2 2 2 3 3 3 3 3 3 3 3 3 3 3 3 3 3 3 3 3 3 3 3 3 5 w g g h h h h h m m m m h k k k k m m k k k k k k R R R R R W W W W W W W ^ ^ ^ ^ W W S.sXxXFXFXfXF.( V V c B V K ^ K K L K K ^ P T U U ` ` i.i.t.t.T o.h.h.h.h.h.h.M.M.h.h.k.b.b.J.J.J.J.J.J.J.J.Y.Y.Y.T././.(.(.kXcXcXcXbXnXnXnXnXHXHXHXHXHXHXHXVXVXVXVXvXvXvXvX#X#X+X+X+X+XoXoXoXoXoXoXoXoX!.!.!.oXoXOXOXOXOXOXoXoX!.!.oXoXoXOXOXoXoXoXoX+X+X+X+X+X+X+X+X+X+X+X+XcXcXcXcXcXcXcXwXbXbXbXbXbXbXZXiXZXZXZXZXiXZXiXpXSXpXpXpXpXpXpXpXpXpXpXpXpXpXpXpXpXpXpXpXpXpXpXpXpXpXpXpXpXpXpXpXpXpXpXpXpXpXiXiXiXiXiXiXuXuXuXiXiXiXrXeXeXeXeXqXqXqXqXqXqX7X7X7X7X^.^.^.^.^.^././.^././.Y.T.T.T.T./.Y.P.T.T.T.I.I.I.I.I.P.P.K.J.L.P.K.K.K.P.P.P.P.P.P.P.L.P.P.L.L.L.L.L.L.L.L.b.b.b.^.^.^.7X7X7XqXqXeXeXeXeXeXeXeXeXeXeXeX5X5X4X4XW.W.W.v.v.v.v.v.v.g.u.u.u.r.r.e.e.e.r.Y G G G G G F F M.UXUXUXUXUXUXUXUXLXF a x x c c c c c c c c c c z c c c c c z c c c c z c c B B B B B b f f f f p p p p 3 0 3 3 3 3 3 3 3 3 3 3 3 b b f 5 5 5 w w 5 3 3 3 3 3 3 3 : & & & & & % % % # # # # # # # # # # # # # # # # # # # # # # # # # # # # # # # # # # # # # X X $ - , : e 6 , [ | | t q 7 = ; - %   ; 7 9 < & & % - # X - ; 3 w 0 ; # X 9 v O.:X:X;X5.5.:X:X:X:X5.5.:X:X:X;X:X:X:X:X:X:X5.O...v ..O.O.l v b 5 * 0 0 i f h R G F j R W j j R d > # * 4 6 R * $ $ # $ $ , l v l =   . o e : . O o O # X       ",
"  # , p 2 # .   . .         . . . .             . . . . . . . . . . . . X . . X X X X X X X X X X X X X X X X X X X X X X X X X X X X X X X X X X X X X X X X X X X X # # # # # X X # % * g.E.Q.g.* o $ X 6 r r r 6 6 * * 4 4 4 4 6 6 6 6 6 6 6 6 6 6 6 6 r r r 6 r 4 % % % % % # # # # % % # % % % - % & & * * , , , , 3 2 2 2 3 3 3 3 3 3 3 3 3 3 3 3 3 3 3 3 3 3 3 5 5 g g h h h h h h h h h h h h h h h h h h h h h g g g g j g g g g g g g g g g g / FXUXUXUXUXUXUXUXUXFXaXX.B V K K J B c F L L L L L Y T T T t.T t.r.j.j.j.h.h.h.h.h.h.j.j.j.j.b.b.b.b.b.b.b.b.U.U.Y.Y.Y.^.^.^.(.8X8XcXbXbXnXnXnXnXnXHXHXHXAXAXAXnXnXnXnXvXvXcXcX+X+X+X+X+X+X+X+X(.!.!.!.!.P.P.I.!.!.!.oXoXoXI.I.I.I.oXoXoXoXoXoXoXoXoX+XoX+X(.(.(.+X+X+X+X+X+X(.(.(.wXwXwXcXwXrXrXrXbXbXbXbXrXiXiXiXZXZXZXiXiXiXiXpXpXpXpXpXpXpXpXpXpXpXpXpXpXpXpXpXpXpXpXpXpXpXpXpXpXpXpXpXpXpXpXpXpXpXpXpXiXiXiXiXiXiXuXuXuXuXiXiXeXeXeXeXeXeXqXqXqXqX7X7X7X7X7X^.^.^.^.^.^.^././././././.T.Y./././.P.P.P.P.P.P.P.I.I.I.P.K.K.H.H.H.G.G.G.K.K.H.H.H.J.L.J.J.J.J.L.L.L.L.L.L.L.b.b.L.^.^.^.7X7X7XqXrXZXZXZXZXZXZXZXZXZXZXZXZXiXrXrXrX0X0X7Xv.x.v.v.v.g.u.e.e.e.e.e.e.r.r.r.Y Y Y Y G G G Z.UXUXZ.L F F F c D.sXc x x x a a a p s z c c p p z z z z z z z c c z z z c c B B B B B n b f p p p 3 3 3 3 3 3 3 3 3 3 3 3 3 3 3 3 3 3 3 3 3 3 3 3 3 3 3 3 3 3 3 2 , , ; & , , % % # # # $ $ # # # # # # # # # # # # # # # # # # # # # # # # # # # # # # # % # O = - - : e 4   q t | t t t t q q q 3 : $ % # * * 0 0 0 * , # & 0 ; = = $ # - l O.5.:X:X5.:X:X;X5.5.5.5.:X:X:X:X:X5.5.5.5.+...[ [ l.O.O.2 x v N 6 3 p u R r h J j j R k s s V p u & 2 , , f # # $ # $ $ , l v v = . o o e o   O . . # X       ",
"  # , p p # .   . .         . . . . . .         . .   . . . . . . . . . X X . X X X X X X X X X X X X X X X X X X X X X X X X X X X X X X X X X X X X X X X X X X X X # # # O # # O + # $ r.E.E.e.o o & X 6 r r 6 6 6 o * 4 6 4 4 4 6 6 6 6 4 4 4 4 6 6 6 6 r r 6 6 4 # % % $ % # # # # # # # % % % - % & & * * , , , , , 3 3 2 2 3 3 3 3 3 3 3 3 3 3 3 3 3 3 3 3 3 3 5 5 g g h h h h h h h h h h h h h h h h h h h h h h g g g j g g g g g g g j j j / LXUXUXGXfXxXFXGXUXUXUXUXUXHXF.J B c c c c c F L L L Y Y Z.D.D.xXFXFXT.h.h.h.h.k.k.k.j.k.b.b.b.b.J.J.J.J.U.U.U.U.U.U.U.U.^.^.^.8X8XwXcXbXbXnXnXnXnXnXHXHXAXAXHXHXVXnXnXnXvXvXvXcXvXvXvXVXJXJXnX+XoX!.!.I.I.P.I.!.oXoXoXoXoXoXI.I.!.oXoXoXOXOXOXoXoXoXoXoXoXoX+X+X+X+X+X+X+X+X+X+X+X+XcXcXcXcXcXcXrXrXbXbXbXbXrXrXiXiXZXZXiXiXiXiXiXiXpXpXpXpXpXpXpXpXpXpXpXpXpXpXpXpXpXpXpXpXpXpXpXpXpXpXpXpXpXpXpXpXpXpXpXpXiXiXiXiXiXuXuXuXuXuXuXeXeXeXeXrXrXrXrXwXwXqX7X7X7X8X(.(.(.(.(.(.(.(./././././././././././.P.P.P.P.P.P.P.P.P.I.P.P.K.P.P.H.H.G.J.P.K.K.H.H.J.L.b.b.b.b.b.b.b.L.L.L.L.L.~.~.^.^.^.W.4XZXIXIXKXKXKXKXKXKXKXKXKXKXKXKXKXKXKXKXPXUXUXKXv.v.v.v.v.j.u.u.r.r.r.r.r.r.r.e.Y Y Y I G G Z.UXxXF F F F F F F xXB.c c c c c s s c -.>.>.2XFXFXF.z z z z z z z z z z c c B B B B B B B b z p p 3 3 3 3 3 3 3 3 3 3 3 3 3 3 3 3 3 3 w 5 5 5 5 3 3 3 3 3 3 3 3 3 3 , , , & & , & % $ $ = = % % $ $ $ $ $ # $ $ $ $ $ $ = = $ $ # # # # # # # # # # # # % % # O # # - : e e @ q t | t t t t t t t 3 * $ % # $ ; 9 v 0 3 , & , 0 ; = O ; X = - ..O.5.5.5.:X:X:X:X:X:X:X:X:X5.5.O.| O.O.O...[ [ O.l.O.O.p a c C w 3 3 p R e w F F j 6 k p s V p > % 2 , < z % $ $ # $ $ & l v v ; o o o e o   O . O # X       ",
"  X , p 2 # .   . .             .   . . . .             . . . . X X X . . . X X X X X X X X X X X X X X X X X X X X X X X X X X X X X X X X X X X X X X X X X X X X X # O O # # $ $ + O $ H n.E.H o o $ X 6 r r 6 6 6 $ * 4 6 * o * 6 6 6 4 4 * 4 4 4 4 4 6 6 6 6 6 * X # # # # # # % % # # # % % % - % % & , 3 , , 3 3 , , , 3 2 2 2 3 3 3 3 3 3 3 : 3 3 3 3 3 3 3 3 3 5 5 g h h h h h h R R R R W k h h h h k k h k k k k k k k j g g g g j j j j A.IXUXUXsXk k k k k V ;.'.fXJXUXUXxXc c c c x x o.xXo.Y Y o.....o.j.FXUXIXZ.h.j.j.j.k.k.b.J.J.J.J.J.K.U.U.U.U.U.Y.Y.U.U.U.U.^.^.7X8XwXcXcXbXbXnXnXnXnXAXHXHXHXHXHXVXVXVXVXPXVXvXvXlXlX@X#X+XHXUXUXlXoXoXI.I.I.I.oXoXoXoXoXOXOXoXoXI.oXoXoXOXOXOXOXOXOXOXOXOXOXoX+X+X+X@X#X#X#X+X+X+X+XkXcXcXcXcXcXcXbXbXbXbXbXbXrXiXZXZXZXZXiXiXiXiXiXiXpXpXpXpXpXpXpXpXpXpXpXpXpXpXpXpXpXpXpXpXpXpXpXpXpXpXpXpXpXpXpXpXpXiXpXiXiXiXiXiXiXuXuXuXuXuXeXeXeXeXrXrXrXrXrXwXwXwX7X7X7X(.8X8X(.(.(.(.(.(.(.(.(.(.(./.(.(././.!.P.P.P.P.P.!.I.I.I.I.P.P.P.P.P.P.P.P.P.P.P.P.H.P.L.L.c.c.b.b.b.L.b.L.L.L.L.~.~.^.^.^.^.W.7XUXAX7X9X9XeXeXeXeXeXeXeX9XqXqX4X4X4X4XW.7XIXUXzXv.v.v.v.c.c.k.k.j.u.y.r.r.r.r.r.r.Y I I I D.UXsXH F F F F F F sXsXc c o.xX-.c c c c c c c fXUXUX:.c c c c c z z z z c c B B B V V V B b b z z 3 z z z z 3 3 3 0 z z 3 3 3 3 3 3 3 b b b b b b b b w 3 3 3 3 3 3 3 3 < , & & & & & & & & & & & & & = = = $ $ $ $ $ $ = = $ $ $ $ # # # # # # # # # # % % # O $ - , : e e t t t t t t t t t t t 9 & & # - $ , 9 v 0 3 2 , 3 b = X X : . X # [ O.O.5.5.:X:X:X:X:X:X:X;X5.O.| [ w [ O.O.v [ O.5...O...p u j m w : 3 j R m l D D z e g p p k p > % 2 < 9 B & $ $ # $ # - l v v ; + o o e o   O . O # X       ",
"  X , p p % . . . .     .               . .             . . . . . . . . . X X X . . X . X X . . . X X X . . . . . X X X X X X X X X X X X X X X X X X X X X X X X X X X X X # % - = # # . H g.g.3 $ $ O O o * * 4 4 4 4 * * * * * * 4 4 4 4 4 4 4 4 4 4 4 * * * * & $ $ # # # # # # # # # # # % % % % & & & * 3 3 3 3 3 3 3 3 3 3 3 3 5 3 5 5 5 5 5 5 5 5 5 3 3 3 3 3 0 5 5 g h m m m m m R W W W W W W m W k h h h k m k k m m h h h h g g n V V sXUXUXIXF.B n n b B m V W W W V &.F.LXfXB C B L L FXUXF.T ` ` ` ` M.M.xXUXUXD.h.h.j.h.j.k.J.J.J.J.U.U.U.U.U.U.U.Y.U.Y.Y.Y.U.U.^.7X7X8X8XwXcXbXbXbXnXnXnXAXHXHXAXAXAXnXnXVXPXUXHXvXvXvXkX+X(.(.vXUXUXvX!.P.P.P.I.oXoXoXOXOXOXoXoX!.I.I.P.!.oXOXOXOXOXOXOXOXoXoXoXoXoX+X+X(.(.(.(.(.(.(.(.(.wXwXwXcXwXwXcXbXbXbXbXbXrXiXiXiXiXZXiXiXiXiXiXiXpXpXiXpXpXpXpXpXpXpXpXpXpXpXpXpXpXpXpXpXpXpXpXpXpXpXpXpXpXpXpXiXiXiXiXiXiXiXiXiXuXuXuXiXiXiXrXeXeXrXeXeX9X9XqXqXqXqX7X7X7X7X7X7X^.^.(.(././././././././.(.(./././.P./.P.P.P.I.I.I.I.I.I.I.I.P.L.G.J.G.G.G.G.J.P.P.P.K.J.b.c.v.v.v.b.L.b.L.L.m.m.W.W.W.W.4XrXUXeX9X9XeXeXeXeXeXeXeXeX9XqXqX7X4X4XW.W.W.HXUXIXv.x.v.v.c.c.c.u.u.y.u.r.e.e.G G G G G D F I IXsXD F D D c c s sXxXc c sXUXsXc l x l i i i D.UXUXF.z z z z z z z z p p z z b B B n m m m n b z 3 3 3 3 3 3 3 3 3 3 3 3 3 3 3 3 3 3 0 0 0 w b b b b w 5 5 3 3 3 3 3 3 3 3 , , & & & & & & & & & & & & & = & = = = & & # # # # $ $ $ $ # # # # # # # = # # # # # % % , , 9 t t t t t t |  .t t t 8 . + + # # & : ; = + ; ; 8 0 0 ; # # = = X   q | 5.O.l.;X:X:X;X5.O...[ [ [ [ [ O...[ ..O.O.O.O.[ v + = 3 n B 3 g ] ] ( W j i a B b i i p , & > ; 8 0 u $ $ & # O O % l v v 8 8 8 8 e +   O O O O         ",
"  X , p i % .   . . . . . .       .     . . .   . .     . . . . . . . . . . X X . X . . X X X X . . X X X X . . . X X X X X X X X X X X X X X X X X X X X X X X X X X X X X # # # O = X   D H H * $ O O O o * * 4 4 4 * * * * * * * 4 4 4 4 4 4 4 4 4 4 * * * * * % $ % # # % % $ % % % & & & & % & % & & : 3 3 3 3 5 3 3 5 5 5 5 5 5 5 5 5 5 5 5 5 w w w 3 3 3 3 3 3 5 5 6 h h h h h h h m m m m m m h h h h k h h h h h h h h h h h g g h h V sXUXUXLX/ n b b b n n V V W W ^ / Z Z ;.LXA.K P P P IXUXsX` -.-.-.M.M.M.xXUXUXT.k.k.Z.Z.J.J.J.K.U.U.U.U.U.U.U.U.Y.Y.U.U.^.^.^.^.7X7X7X8XwXwXcXbXbXbXnXnXnXAXAXAXAXAXnXnXnXnXIXUXHXvXvXvXcX#X+X+XvXUXUXvX!.!.P.P.I.oXoXOXOXOXOXoXoX!.I.I.I.oXoXOXOXOXOXOXOXOXOX+X+X+X+X+X+X+X+X+X+X+X+X+X+XkXcXcXcXcXcXcXcXbXbXbXbXrXrXiXiXiXiXiXiXiXiXiXiXiXiXiXiXpXpXpXpXpXpXpXpXpXpXpXpXpXpXpXpXpXpXpXpXpXpXpXpXpXpXpXiXiXiXiXiXiXiXiXiXiXiXuXuXiXuXiXuXeXeXeXrXrXrXqXqXqXqXwXqXwX7X8X8X8X8X(.(.(.(.(.(.(.(.(.(.(.(.(.!.T.I.I.I.P.P.I.I.!.I.I.I.I.I.I.I.P.K.H.H.G.G.K.K.P.P.I.I.P.J.c.c.b.L.L.L.P.Y.Y.U.^.^.^.^.W.4XZXUXqXeXeXeXeXeXeXeXeXeXeXeXqXqX7X4X4X4XW.W.AXUXUXm.v.v.v.v.c.c.c.c.j.k.r.r.e.e.e.e.G G G G G zXzXG F F F F F F fXxXF c FXUXsXc c c c c c c >.UXUXsXc c c c c c c c c c z c B C V V V V C n b b z z z z z 0 0 z z z 0 3 3 3 3 3 3 3 0 0 0 3 w b b w w w w w w w w 0 0 3 3 3 3 , & & & & & & & , , , , & - & & & & & & & & & = $ $ $ $ $ $ $ $ $ $ # # X X # # % $ % , 3 3 8 q q t t t t { t t t q + + ; & & , 3 & $ # & ; 3 w w : = O # # . # 7 v [ O.O.O.O.O.O.O...............O.O.O.O.O.O.| [ v 9 . X : b V g h ! ! ! ! V p i s s a u s 2 , > 3 0 0 > % $ $ X O O $ l l v 7 @ @ 8 e +   . O O O         ",
"  X , p 2 % .   . . . . . .             . . . . . .     . . . . . . . . . . X X X X . . . X X X . . X X X . . . X X X X X X X X X X X X X X X X X X X X X X X X X X X X X X X # # X O X   x D c o o o o $ o o * 4 4 * * o * o * * * * * * * * * * * * * * $ * * & % $ % % % & & % & , , & & & , & & & : * 3 3 3 3 5 5 5 5 5 5 5 5 5 5 5 b 5 5 5 5 w w w w w 0 0 w 5 5 5 6 h h h R R R R R R m R h h R R h h h k h h h h h h h h h g h g g h h W UXUXGX( h g g g j n V V V W ^ ^ / / / / ;.xXP P P T UXUX{.` -.-.-.M.M.M.sXUXUXT.k.k.J.J.J.J.J.U.U.U.U.U.U.U.U.U.Y.U.U.^.^.^.^.7X7X7X7XwXwXwXcXbXbXbXnXnXAXAXAXAXAXAXnXnXnXnXIXUXHXvXvXcXcXcX@X+XvXUXUXvX!.!.I.!.!.oXOXOXOXOXoXoX!.I.I.I.I.oXoXOXOXOXOXOXOXOXOX+X@X+X@X+X+X+X+X+X+X+X+X+XkXkXcXcXcXcXcXcXcXbXbXbXrXrXrXrXiXiXiXiXiXiXiXiXiXiXiXiXiXiXpXpXpXpXpXpXpXpXpXpXpXpXpXpXpXpXpXpXpXpXpXpXpXpXpXpXpXiXiXiXiXiXiXiXuXiXuXuXuXuXuXuXeXeXrXeXrXrXrXqXqXqXwXwXwX7X7X8X8X(.(.(.(.(.(.(.(./.(.(./.!.!.!.!.I.I.I.P.P.P.I.!.!.!.I.I.I.I.I.P.P.K.H.G.G.H.H.K.K.K.P.I.P.L.J.c.c.L.L.P.P.Y.Y.^.^.^.^.^.7X7XAXUXqXeXeXeXeXeXeXeXeXeXeXqXqX9X4X4X4X4XW.W.AXUXUXm.v.v.v.v.c.c.c.j.k.j.j.r.r.e.e.e.r.Y Y Y G sXIXh.G G G F J o.LXfXF F FXUXsXc c c c c c c :.UXUXsXc c c c c c c v c c c c B C Z V V V C C B b b z z z z z z 0 0 0 z z z 0 0 0 3 3 3 3 3 3 3 0 w w w w w w w w w w 0 0 3 3 < , & - - - - & , , , , , & - & & & & & & & & & = = $ = $ $ $ $ # # # # X X X # # $ $ & 3 3 3 * 3 0 0 0 e t t t t t e ; ; ; , > , 3 , % % % , : w w ; O . # # # = - - v O.O.O.O...[ [ ..........O.O.| O.O.O.O...[ q 9 #   X , b L V W Q Q ! Q W p p i a a s s 3 2 2 z 0 8 > % # # X O $ & l l q = + + 8 w :   . O O O         ",
"  X , p 2 %             . . .           . .     . .     . . . . . . . . . . X X X X . . X X X X . . . X X X X . . . X X X X X X X X X X X X X X X X X X X X X X X X X X X X X # # . O O . i a i o o o * o * * * 4 4 * * * * o * * * * * * * * * * $ $ $ $ $ * $ $ $ = & & & , , , , & , & & : : < < 3 3 3 3 3 5 5 5 5 3 5 5 5 5 5 5 5 5 5 w b b b w w w w w w w w w w m m m m m R R R R W R R R W R R R R R R R R R h h h h h h h g b g g g h A.UXHX^ V k g g k m V V W W W W W V P P P K A.sXP P T UXUXF.` ` ` -.h.h.h.sXUXUX2Xj.k.b.b.b.b.b.J.U.U.zXAXIXUXUXUXIXPXHXkX^.^.^.7X7X7X7XqXwXwXwXbXbXbXnXnXnXAXAXAXAXAXAXnXnXnXIXUXHXcXcXcXcX+X+X+XkXUXUXnXP.H.I.oXoXOXOXOXoXoXoX!.!.P.P.!.oXoXOXOXOXOXOXOXOXOXOXOX@X@X@X@X@X@X#X#X#X#X+X8X8XwXwXwXwXwXwXwXwXrXrXrXrXrXrXrXrXiXiXiXiXiXiXiXiXiXiXiXiXiXpXpXpXpXpXpXpXpXpXpXpXpXpXpXpXpXpXpXpXpXpXpXiXiXpXpXpXpXiXiXiXiXuXuXuXuXuXuXuXuXuXuXeXeXeXeXeXeXeXqXqXqXqXqX7X7X7X7X^.^.^.^.^.^.~.~.~.~.~.~.~.~.~.~.~.~.P.L.L.b.L.L.P.P.P.H.H.H.H.G.G.G.G.c.c.c.c.c.G.G.G.G.G.J.b.c.c.v.b.b.L.L.L.^.W.W.W.W.W.W.4XAXUX4X5X5X9X9X9XeXeXeXeXeXeXeXqXqX4X4X4XW.W.AXUXUXm.7X8XzXzXzX8XY.e.e.e.e.e.j.2XT.sXsX2XT.h.G LXUXIXFXxXxXxXHXLXUXF.c c FXUXsXc c c c c c c X.UXUXdXz c z c c c c v c z l z c B C C n n M B b b z z z 0 0 0 0 0 0 0 0 0 3 3 0 3 3 3 3 3 3 3 3 3 3 z b b b w 5 5 3 3 3 3 3 , ; & & & & ; & & & & & & & & & & # = & & & & & - # $ $ $ $ $ $ # # # # # X O # # # $ # $ 3 3 3 , 3 3 3 4 w e e q t t y @ 8 ; % % > u > & % $ : : 0 : +   . & > , .   X ; [ O.O.O.O.| [ [ [ ....O.O.O.O.O.O.| v q 9 # X .   X & p L Q ! Q R R m m g p p > p s s p p 2 z 3 = % % % # # $ = ; l v v = + + 8 e : . . O O O         ",
"  X , p 2 %             . .           . . .     . .     . . . . . . . . . . . . X . . . . X X X . . X X X X . . . . . . X X X X X X X X X X X X X X X X X X X X X X X X X X X # $ O O O o i i 1 o 4 * $ $ * * * * * * $ * * $ $ $ * * * * $ $ $ O O O O $ $ & & $ $ & & & & & & & & & & & & & : & : , 3 3 : 3 3 3 3 3 3 3 3 3 3 3 3 3 3 5 3 3 3 3 3 3 3 3 3 0 0 0 0 0 0 w w b n n n n b b n g g g g g g g g g f p p p p p p p p p p p p p p f F.FXB p p z z z z B n n n b c c c c B c c c c LXB.F L xXHXL L Y Y o.g.g.g.j.PXUXHXz.g.l.z.x.v.v.U.xXIXUXUXUXUXUXUXUXUXUXUXAX7X4X4X4X7X7XrXHXKXKXKXPXPXPXKXAXAXKXKXPXPXPXKXAXnXHXIXbXcXcXcXkX+X(.(.(.KXUXPX/.P.I.!.!.!.!.I.I.I.I.I.I.H.I.I.P.!.!.!.!.!.!.!.!.!.!.~.~.~.~.~.~.~.~.~.^.^.^.(.(.(.(.(.^.qXqXqXwXwXwXrXrXrXrXrXrXrXiXiXiXiXiXiXiXiXiXiXiXiXiXiXpXpXpXpXpXpXpXpXpXpXpXpXpXpXpXpXpXpXpXpXiXiXpXiXiXiXuXuXuXuXuXuXuXuXuXuXuXuXuXeXeXeXeXeXeXeXeXeXqXqX7X4X4X4X4XW.W.W.W.W.W.W.W.W.W.W.W.m.L.b.L.L.L.L.L.b.v.v.v.v.b.b.c.c.c.c.c.c.c.c.c.v.c.c.v.c.c.c.c.c.j.c.v.v.v.v.v.v.v.m.v.v.n.n.E.E.E.E.4XAXUX6X4X5X5X5X5X5X5X5X5X5X5X5X5X6X4X4X4X4XW.KXUXUXzXUXUXUXUXUXUXUXFXk.e.e.J.IXUXUXUXUXUXUXLXxXUXUXUXUXUXUXUXUXUXLXa a a 2XIXL a i i i i i i i FXUXLXL l l l z z v v l l l l z z z b b B B b b z z z 0 3 3 3 3 < < < < < < < < < < < 3 3 3 3 3 3 3 3 0 0 z w 3 3 3 : : , : ; ; & & & & ; ; & & & & & & & & & - = = & & = = # # = = $ $ $ # # # # # O O O O O O $ $ $ * : : ; - , * * 5 5 5 5 w e q @ @ t @ @ @ = & & > & $ & : : = # O # X   . O # X & q [ O.O.5.5.O.O.O.O.O.O.O.| [ [ 9 # X X . X O O # & 2 B Q Q Q h f p p g g n * 2 u A s p > p 3 & $ > & # X . O # l v v ; @ @ 8 e : . . O O X         ",
"  X , p 2 %             . . . .     . . . .     . . .   . . . .     . . . . . . . . . . . . X X X X X X X X X X X X . . . X X X X X X X X X X X X X X X X X X X X X X X X X X # # X # O . 1 i 1 o * * o o o o * * o o o $ $ O $ $ $ o o $ O $ $ O O O O o $ $ & $ $ : : & & & & & & , , * * : : : : , 3 3 3 3 3 3 3 3 3 3 3 3 3 3 3 3 3 3 3 3 3 3 3 3 3 3 3 3 0 3 3 3 3 0 w w w w w w b z z 5 5 f f f f 5 5 3 3 p p p p p p p p p p p p p p p A.2Xp p p l l z z B B Z F.X.c c v c c c c c c HXHXL L L Y Y Y o.....g.g.g.g.g.U.U.zXKXPXCXm.m.0XIXUXIXbX>X>Xm.m.m.>X9X0XKXUXPXzX4X7X7XAXUXAXAXZXZXAXAXKXUXUXUXPXPXHXHXKXIXIXnXbXbXcXcXcXcXcXkX(.(.(.(.kXkXvXPXLXHX+X!.!.!.I.I.I.P.P.H.I.!.!.!.!.!.!.!.!.!.!.!.!.!././.~.~.~.~.~.~.(.~.(.(.(.(.(.(.(.wXwXwXwXwXwXwXrXrXrXrXrXrXrXiXiXiXiXiXiXiXiXiXiXiXiXiXiXpXpXpXpXpXpXpXpXpXpXpXpXpXiXiXiXpXpXpXiXiXiXiXuXuXuXuXuXuXuXuXuXuXuXuXuXuXuXuXeXeXeXeXeXeXeXqXqXqXqX7X7X7X7X^.^.^.^.^.^.^.^.^.^.^.^.^.L.L.L.~.~.L.L.L.b.b.v.b.b.L.G.L.H.H.H.G.G.G.c.c.c.c.c.c.c.G.G.G.G.G.b.b.b.b.v.v.v.v.m.b.m.m.m.W.W.W.4XAXUX4X4X5X5X5X5X5X5X5X5XeXeXeXeXeX9XqX7XrXZXUXUXPXn.7X8X^.Y.Y.8XnXUXPX2XT.IXzX2XU.U.D.U.2XIXUXUXIXsXD.Z.Z.Z.Z.2XHXx c x c c c x x x x z z l l l X.:.F.FXLXFXX.c c c c z z z z z z z z b C B b b b z z z 0 0 0 9 9 9 < < < < 3 0 0 0 0 3 3 0 0 3 3 0 0 0 0 w w 0 3 3 3 3 : : < < : ; ; ; ; ; ; ; ; ; ; ; ; - & = = - & & & & = = = = = $ $ $ $ # # # O O O O O O O $ $ $ = + + = & > 2 5 5 4 5 5 8 8 8 @ @ @ @ @ : = $ $ $ & : & $ # X .     O O X X $ ; 9 [ | O.O.O.O.O.O.O.| | v q 9 # . . X X O O O X % > B W W B f p p 2 d g b , > > u s u % 2 2 * = & & $ X . X # 9 l v 7 @ @ @ w : . . O O X         ",
"  . , p 2 %             . . . .     . . . .     . .     . . . .     . . . . . . . . . . . . . . . . . . . . . . . X X X . . . . X X X X X X X X X X X X X X X X X X X X X X X # % # # X . > i 2 o $ $ o $ $ o $ o o o O $ O O O O O O $ $ O $ $ O O o o $ $ $ $ $ $ : * * * * * * * * * * , 3 : 3 3 3 3 : 3 3 3 3 3 3 3 3 3 3 3 3 5 5 5 5 3 3 3 3 3 3 3 3 0 0 w 3 3 3 3 w w w w w w w w z 0 w 5 f f f f 5 5 5 f f p p p f f f p p p f g b b f Z F.p l l z z z B B B xXUXUXFXsXF.F.F.F.2X2XxXUXUX2XL L o.o.o.o.g.g.g.g.g.g.g.g.l.z.1XUXUXCX1XUXIXbXm.m.m.>X>X>X>X4X4X4X4X0XPXUXAX7XAXUXHX0XrXrXbXbXZXZXHXKXAXAXAXAXAXAXIXUXIXnXbXbXcXcXcXcXcX+X+X(.(./././.!.IXUXJXoXoX!.!.I.P.P.P.I.!.!.oXoXoXoXoXoXoXoXoXoXoXoXoXoXoX+XoX(.(.(.(.(.(.(.(.(.(.(.(.wXwXwXwXwXwXwXrXrXrXrXrXrXrXiXiXiXiXiXiXiXiXiXiXiXiXpXiXpXpXpXiXiXiXiXpXpXpXiXpXpXiXiXiXiXpXpXiXiXiXuXuXuXuXuXuXuXuXuXuXuXuXuXuXuXuXeXeXeXeXeXeXeXeXeXqXqXqX7X7X7X7X7X^.^.^.^././.^.^.^.~.^.^.Y.Y.Y.Y./.Y.Y.P.K.G.L.J.G.L.P.P.I.I.I.I.K.H.H.H.H.H.H.H.H.H.H.H.I.P.P.P.P.J.b.c.v.v.m.Y.U.U.U.^.^.7X7XAXUX7X9X9XqXeXeXeXeX5XPXUXUXUXUXUXUXUXUXUXUXUXAX7Xm.v.v.v.x.x.v.v.8XUXUXUXkXe.e.e.e.e.e.e.xXUXUXxXG G G H H F F sXIXxXc c c c c c c c c c c c c c c z C IXUXFXv v B C C B C z z z z z C C C B M M b b b b b z 0 0 0 0 9 < 9 0 0 z z 0 0 0 0 w 0 0 0 0 0 0 w w w w w w 0 0 0 3 3 : : : : : : : ; ; : : : ; ; ; ; ; ; ; ; ; ; & & & & & & = = = $ $ # # O O O O $ $ $ O O O o O = & > , 2 2 & * 2 2 ; ; 8 @ @ e e @ @ @ = $ & & % # # X o o   = . . X O X . - q [ [ O.O.O.| [ [ q ; = O .   . O X X . O . # & p j j a p p p 5 5 f z p & % u A u $ & 2 2 : : & & # X O # 9 v v 7 8 @ @ w + . . O O .         ",
"  . % p , %         . . . .       . . . . .       .   . . . .   . . . . . . . . . . . . . . . . . . . . . . . . . X X X X X . . X X X X X X X X X X X X . . X X X X X X X X X # % # # X . > i 2 o $ $ o o o $ $ o o O O O $ O $ O O O o $ $ $ $ $ o * * * o $ $ * * * * 3 3 3 3 3 3 3 3 3 3 3 3 3 3 3 3 5 5 w w 5 5 5 5 5 5 5 5 w w w w w b b b b b b b b b b b w w n n m m m m m m m m m m m R R R R R R R R W W W R R R W W W m m W V m V n g A.z B B B V W W W W ;.xXGXUXUXUXUXUXUXUXUXUXUXUXfXo.o.h.h.h.j.j.j.j.j.j.j.j.b.m.U.U.UXUXHXKXKX7X7X7X7X7X7X7X7X7X7X7X7X7X7X7XAXUXAXKXUXbX0XbXbXbXbXbXZXZXAXAXAXAXAXAXKXUXUXUXHXnXbXbXcXcXcXcXcX+X(./.P.!.!.!.JXUXPXoXOXoXoX!.!.!.I.oXoXOXOXOXOXOXOXOXOXOXOXOXOXOXOXOXOX+XoX+X+X+X+X+X+X+X+XcXcXcXcXcXcXcXcXcXbXbXbXrXrXrXrXrXrXrXiXiXiXiXiXiXiXiXiXiXiXiXiXiXiXpXiXiXpXpXpXpXiXiXpXiXiXiXpXpXpXpXiXiXiXiXuXuXuXuXuXuXuXuXuXuXuXuXuXuXeXeXeXeXeXeXeXqXqXqXqXqXwXwX8X8X8X(.(.(.(.(.(.(.(.(././././././././.!.!.!.I.I.H.H.G.G.P.P.I.I.I.I.I.I.I.I.I.I.I.I.I.I.I.I.I.I.I.I.I.I.P.P.J.c.v.b.Y.Y.^.^.^.^.^.7XAXUX7XqXqXqXeXeXeXeXeXPXUXUXUXUXUXUXUXUXUXUXUXW.n.m.m.v.v.v.v.v.v.v.zXUXzXj.j.j.g.j.j.r.r.PXUXUXT.Y Y Y Y Y Y L sXUXFXL L L L L L L L L C c c C v v v c HXUXLXv C C C C C C C C c z z z z z M M C C C M b b z z z z 0 9 0 0 0 z z z w b b b b b b w 0 0 0 0 w b b b b b w 0 0 3 3 3 : : : < < : : : < < : : : : : : : : : : : : : ; ; & & ; & & & = # # # # # $ $ $ O X O * * & - - - > - # # # & < 2 i 1 1 < 7 e e t e @ @ o   X % , % # . $ . . X # O O o $ O # ; ; 7 7 - X . X   . o . X = .     X X # & 2 s s a a s c f f f p z & % u u u & . & , $ $ & : = $ $ & l v v 7 @ @ @ w o   O O O .         ",
"  . % p , #         . .   .       . . .   .           . . . .   . . . . . . . . . . . . . . . . . . . . . . . . . . . . X X . . X X X X . . . . . . X X . . . X X X X X X X X # $ # # O . > i 2 o $ $ o $ o $ $ o O O O $ $ O $ O O O O $ $ $ $ $ o o * * o o $ $ * * : 3 3 3 3 3 3 3 3 3 3 3 3 3 3 3 3 5 5 3 5 5 5 5 5 5 w w w n n n n w w b b n n n n n n w w m e n m m m m m m m m w w w e m R R Q Q Q Q Q W W W m m m m V V m m R m m n f p >.b B n V V V V W W ^ ^ / %.F.aXfXGXUXUXUXUXUXUXfXo.o.h.h.h.h.j.h.j.j.j.z.z.U.U.U.U.IXUXLXPX8X1X1X1X1X1X1X7X7X7X7X7X7X7X7X7X0XIXIXIXUXZX0XrXbXbXbXbXbXZXAXAXAXAXAXAXPXUXUXUXHXnXnXvXcXcXcXkX8X(.(./.!.!.oXoXJXUXPXOXOXoXoX!.I.I.I.oXoXOXOXOXOXOXOXOXOXOXOXOXOXOXOXOXoXoXoX+X+X+X+X+X+X+X+X+XcXcXcXcXcXcXcXcXbXbXbXbXrXrXrXrXrXrXiXiXiXiXiXiXiXiXiXiXiXiXiXiXiXiXiXiXiXiXpXpXiXiXiXiXiXiXiXiXiXiXiXiXiXiXuXuXuXuXuXuXuXuXuXuXuXuXeXeXeXeXeXeXeXeXeXqXqXqXqXqXqXwX7X7X7X(.(.(.(.(././.(././././././././././././.!.P.L.G.c.c.J.P.P.I.I.I.I.I.I.I.I.P.P.I.I.I.I.P.H.H.H.I.P.I.I.P.J.v.v.v.L.^.^.^.^.^.^.7XAXUX7XqXqXqXqXeXqXeXeXeXrXrXqXqXqXqXqXwXbXIXUXbXW.m.m.v.v.v.v.v.v.v.j.c.g.j.j.g.e.e.r.r.kXUXUXUXD.Y Y Y Y Y L L xXUXFXF F F F F c c c c c c c c c c c c FXUXUXv v C C C C C C C C z z z z z z b b M M b b b z z z z 0 3 0 0 0 0 z z w w w w e b b w w w w 0 0 0 0 w w w 0 0 3 3 < : : : : : : : : : : : ; ; ; ; ; ; ; ; ; ; : : : ; ; ; & ; ; & & = # = = # # # $ = # X X $ # # - # = & & % $ - # > 1 1 1 1 < < 9 9 0 @ e e e 8 8 = X # # % $ $ # . . X = = X X X X X X O X X X O .   . . . X . . . X X X $ & p p s a a a s p p p z : $ & u u u . $ $   # % $ X O $ % l l l = + + + 8 o   . O O .         ",
"  . % 2 , %         . .         . . . . . . . .         . . .   . . . . . . . . . . . . . . . . . . . . . . . . . . . . X X X . . . . . . . . . . . . . X X . X X X X X X X X X X X # X o > 1 , o $ $ o $ o o $ o O O O $ O O O $ $ O $ $ $ $ $ o o o $ $ $ o $ $ : : : 3 3 3 3 3 3 3 3 3 3 3 3 3 3 3 3 3 3 5 5 5 5 5 5 w w n n n n n w w w w w n w w m n w w w w w w m m m m m m m e w w e m m Q Q Q Q R R W W W W W m m m m m V m m m n b z z %.b V V V V V V V V K P P P P P P P A.xXUXUXLXUXxXo.o.h.h.h.h.h.h.j.j.z.z.z.U.U.U.U.UXUXUXzXU.1X1X1X1X1X1X1X7X7X7X7X7X7X9X9X7XAXUXUXUXZXrX0XrXbXbXbXbXZXAXAXAXAXAXAXKXUXUXUXHXnXvXvXvXcXcXkX8X(.(./.!.oXoXoXJXUXPXOXoXoXoXI.I.!.!.oXoXOXOXOXOXOXOXOXOXOXOXOXoXOXOXOXOXoXoXoX+X+X+X+X+X+X+X+XcXcXcXcXcXcXcXcXcXbXbXrXrXrXrXrXrXiXrXiXiXiXiXuXuXiXiXiXiXiXiXiXiXiXiXiXiXiXiXiXiXiXiXiXiXuXuXiXuXuXiXiXiXiXuXuXuXuXuXuXuXuXuXuXuXuXuXeXeXeXeXeXeXeXeXeXqXqXqXqXqX7X7X7X7X(.(.(.(.(.(././././././././././././././.T.P.L.J.c.c.c.J.P.I.I.I.I.I.I.I.H.H.H.P.P.P.H.H.H.H.P.P.K.K.P.P.P.b.v.v.b.^.^.^.^.^.7X4XAXUX4X9X9X9X9XqX9X9XqXeXqXqX7X7X7X7X7X7X7XAXUXIX^.m.m.m.v.v.v.v.v.v.j.j.j.j.j.g.r.e.r.T.UXUXIXUXD.H Y Y Y H L L xXUXFXF F F F F c c c c c c c c c c c z FXUXLXz z v C C C C C C C C b z z z z z b b b b b b z z z z 0 0 0 3 0 0 z 0 w w w w e e e w w w w 0 0 0 0 0 0 0 0 0 3 3 < : : : : : : : ; : : : ; ; ; ; ; : ; ; ; ; & ; ; ; ; & & & ; & & = $ = = = # # # # # O X X X # # X # $ : % & & # - > > , < 1 1 1 1 1 7 8 q q 8 8 8 : = = # X O $ X   O + + X X X . . . O . . X O X . . . . X . . . . . . X % 2 p s a u u p i p 3 z 3 $ + > u u $ O o   % % # . X X $ l l l + + + + 8 +   . X O .         ",
"  . % 2 , %         . .           . . . .   . . . .     . . .   . . . . . . . . . . . . . . . . . . . . . . . . . . . . X X X . . X X X X X X X X X X X X X . X X X X X X X X .     X . o % > & o * $ $ O O o $ O O O O O O O O $ O O O O O o o O O o O o $ $ $ $ : : : 3 3 3 3 3 3 3 3 3 3 3 3 3 3 3 3 5 5 5 5 5 5 w w w n n n w w w 5 5 w w n n n m m m m e e w w w w w w e e e e w b m m Q Q Q Q Q Q Q Q R W W R R R m m m m m m m n z z l z >.LX&.V W V V V V V P P / / / / P P P P B.LXIXUXFXo.o.o.o.o.o.j.o.j.j.z.z.U.U.U.U.zXUXUXUXAX1X1X1X1X1X1X0XAXKX9X7X7X7X7X9X9X9X9XUXUXUXZXrXrXrXiXbXZXZXZXAXAXAXAXAXnXKXUXUXUXHXnXvXvXvXcXcXcX+X(.(.(.!.oXoX@XUXUXJXoXoX!.!.P.P.!.oXoXOXOXOXOXOXOXOXOXOXOXOXoXoXOXOXOXOXoXoX+X+X+X+X+X+X+X+X+X+XcXcXcXcXcXcXcXbXbXrXrXrXrXrXrXrXrXrXrXiXiXuXuXuXuXiXiXiXiXiXiXiXiXiXiXiXiXiXiXiXuXiXuXuXuXuXuXuXuXuXuXiXuXuXuXuXuXuXuXuXuXuXuXuXuXuXeXeXeXeXeXeXeXeXeXqXqXqXqX7X7X7X7X7X(.(.(.(.(././././././././././.T.T.T.T.T.T.T.P.L.c.c.c.G.P.I.I.I.I.I.K.K.K.K.K.K.K.H.H.H.H.P.P.K.K.H.I.P.P.L.b.v.c.m.U.^.^.^.4X4XAXUX4X5X5X5X5X5X9X9X9XqXqX7X7X7X7X7X7X7X7XbXUXUX8Xm.m.m.m.v.v.v.v.v.v.v.j.j.j.j.g.r.j.PXUXPXkXUXD.H H Y Y H H L zXUXIXo.F L F F F c c c c c B c c c c X.IXUXFXv v v v C C C Z Z Z Z C b z z z z z b b b b b b z z z z 0 0 0 0 0 z z w w w w w w w e w w w b 0 0 0 0 3 3 0 0 0 0 3 : : : : : : : : : : : ; ; ; ; ; ; : ; ; ; ; ; ; ; & & & ; ; & & = = ; & = $ # # # # # O X X O O   O $ * % % > & , & % % - 1 < 1 < < i 1 - + @ t t t 8 @ + .     O o O . . X O X O O O X X . . O X X X X X X X X . .     . $ 1 i p u u 2 3 1 1 1 x 1 $   % u u & O     > & # . . X $ l l l = + o + 8 +   . X O .         ",
"  . # 2 , #     . .                                             .         . . . . . . . . . . . . . . X X X . . . . . . . . . . . . . . . . X X . . . . . X X X X X X X X X X X X X X X # = $ $ * * * O $ O O O O O O O $ $ $ O $ $ $ $ $ $ $ $ o o o o $ $ * * * * * 3 3 3 3 3 3 : : : 3 3 3 3 3 3 3 3 : 3 5 w w w w w w w w w w w w w w w w w w w w w e e w w e w w w w w w w w e m R Q Q Q Q Q Q Q R R R R W R m h h m m m m V n p p p p g m V IXLX'.V W W W W W W / / / P P P P P P P F.UXUXUXHXsXD.o.o.j.j.j.j.z.z.b.2XzXzXCXIXUXUXAXUXIXPXPXPXPXIXUXUXKX7X9X9X9X9X9X9X9X9XPXUXUXZXrXrXbXZXZXZXZXZXZXZXZXAXAXZXAXUXUXUXPXnXvXvXvXvXcXcX(.(.(.+XvXvXVXIXUXUXNXOXoX!.I.H.I.!.oXoXOXOXOXOXOXOXoXoXoXoXoXoXoXoXoXoXoX+XoXoX+X+X(.(.(.(.(.(.(.wXwXwXwXwXwXwXwXwXrXrXrXrXrXrXrXrXrXrXuXuXuXuXuXuXiXuXuXuXuXuXuXuXiXiXiXiXuXuXuXiXuXuXuXuXuXuXuXuXuXuXuXuXuXuXuXuXuXuXuXuXuXeXeXeXeXeXeXeXeXeXeXeXeXqXqX7X7X7X7X7X7X7X^.^.^.^.^.^.^.^.~.~.~././.~.~.~.~./././././.P.P.P.J.k.k.k.G.H.K.K.H.H.K.K.K.K.H.H.H.H.H.H.H.G.G.G.G.H.K.J.J.J.b.b.v.v.m.W.^.^.4X4XAXUX4X4X4X4X4X4X4X4X4X4X4X4X4X4X4X4X4X4XW.rXUXUXrXm.v.v.v.x.v.v.v.v.v.j.g.g.g.g.e.e.zXUXUXj.sXUXD.H H H H H H H F.UXUXLXsXo.c c c c v c v c v L F.F.fXLXUXUXF.v v v v v C C C C Z Z Z Z C C z z l 0 l l z z z z z 0 0 z 0 0 0 0 0 0 0 0 0 z b b b b b b b b b w w 0 0 0 < : : < : < < : : ; ; : : : : : : ; ; ; : & & & & & & = = = = = = = = = = = = = = = = = $ $ $ = = + + O O X X X X # # # # # # # # % % % % % & 1 1 1 i 1 1 1 9 q q t @ @ @     . . $ $ O O # # X . . . . X . X X . . . . X X O O O O O , , & & & & , > > 2 p u 2 O . $ u u > #   X X O X O O $ 9 q q 7 @ @ + 8 +   . O O X         ",
"  . # 2 , #     . .                                             . .       . . . . . . . . . . . . . . . . . . . . . . . . . . . . . . . . . X X . . . . X X X X X X X X X X X X X X X X # = = $ * * $ O $ O O O O O O O $ $ $ O $ $ O $ $ $ $ $ o o o o $ $ * * * * * 3 : : : : 3 3 , , < < 3 : : : : : : : 3 3 5 5 5 5 5 5 5 5 5 5 5 5 5 w w w w w w w w w w w w 0 0 0 0 w w w w e m m R R R R R R R m m m m m m h g g n n b b f p p p p p p b n dXUXUXfX&.V V V V V Z Z Z Z C C C L L L L FXFXsXPXUXIXh.o.j.j.j.j.z.z.U.UXUXUXUXUXIXzXzXUXUXUXUXUXPXZX0X9X4X4X4X4X4X4X4X5X5X5XPXUXUXZXeXrXrXiXbXZXZXZXZXZXAXAXAXAXHXIXUXUXUXUXnXnXcXcXkXkX(.(.(.PXUXUXUXUXUXVXoXoX!.I.P.I.I.!.oXoXOXOXoXoXoXoXoXoXoXoXoXoXoXoX!.!.!./.!.!./.(.(.(.(.(.(.(.(.(.8XwXwXwXwXwXwXwXrXrXrXrXrXrXeXeXrXeXeXuXuXuXuXuXiXuXuXuXuXuXuXuXuXiXiXuXuXuXuXuXuXuXuXuXuXuXuXuXuXuXuXuXuXuXuXuXuXuXuXuXuXeXeXeXeXeXeXeXeXeXeXeX5X5X4X4X7X7X7X7X7X^.^.^.^.^.^.^.^.^.^.^.~.~.L.L.L.L.L.L.L.L.P.P.L.H.L.c.c.c.c.c.G.G.G.G.G.G.G.G.G.G.G.G.c.G.G.c.c.c.c.G.G.G.J.b.b.b.v.v.v.v.m.W.W.W.W.AXUX4X4X4X4X4X4X4X4X4X4X4X4X4X4X4X4XW.W.W.bXUXUXwXn.v.x.x.x.x.x.x.x.g.g.e.e.e.e.e.2XUXUXsXH sXUXD.H D D D D D D Z.HX2XLXUXUXB.x x c c c v c c LXUXUXUXUXUXsXz v v v v v v C C C C C C C C C z z l 0 9 0 0 z z z 0 0 0 0 0 0 0 0 0 0 0 0 0 0 0 0 0 w w w w w w 0 0 0 0 0 : : ; ; ; ; ; ; ; ; ; ; ; : ; ; ; ; ; ; ; & & = = = = = = = = = = = = = = = # = = = = $ $ $ $ $ = = O O O X X X X # # # # # # # # # # # % % % > 1 1 1 1 1 1 < 7 8 q 8 8 8 8 @ + +   X X $ X X X X X X . X O O O . . . X X X X X X X O , , , , & * * , , , p u , O . $ 2 u > #   X O . X . O $ 9 9 q 7 @ @ + 8 +   . O O X         ",
"  . # , , #     . .                                             . . . .   . . . . . . . . . . . . . . . . . . . . . . . . . . . . . . . . . X X . . X X X X X X X X X X X X X X X X X X # # $ $ & * $ $ $ $ O O O O O O $ $ O O O O $ $ $ $ O O O o o O O $ $ * * * : : : : : : : : : : : , , ; : : : : : : 3 : 3 3 3 3 3 3 3 3 5 5 5 5 5 5 3 3 5 5 3 3 3 3 3 3 3 3 3 3 3 3 w w e e m m e e e e e m m m m m b f b b f p z z z 3 2 2 1 1 l p z z >.LXUXUXUXIXsXB B B B B B C C C C C v v v v 2XUXD.D.UXUX2Xo.j.j.j.j.z.b.zXUXUXUXHXzXU.m.nXUXUXUXIXZX4X>X4X4X4X4X4X4X4X4X4X4X4X5XKXUXUXiXeXeXrXrXbXbXZXZXAXPXUXUXUXUXIXIXPXHXUXUXHXbXcXcX8X8X(.(.kXUXUXUXJXxXlXoXoXI.I.I.P.I.I.oXoXoXoXoXoXoXoXoXoXoX!.!.!.!.!.!.!./.~.~.~.~.~.~.~.^.^.^.^.^.^.^.^.7X7XqXwXwXwXwXqXqXeXeXeXeXeXeXeXeXeXuXuXiXiXuXuXuXuXuXuXuXuXuXuXuXuXuXuXuXuXuXuXuXuXuXuXuXuXuXuXuXuXuXuXuXuXuXuXuXuXuXuXuXeXeXeXeXeXeXeXeXeX5X4X4X4X4X4X4X4X4XW.W.W.W.W.W.W.W.W.W.^.^.L.L.b.b.b.L.b.L.L.J.J.J.G.G.G.c.c.c.c.c.c.c.c.c.c.c.c.c.c.k.k.u.u.u.k.k.u.u.c.c.c.c.c.c.v.v.v.v.v.v.v.m.W.W.W.AXUX4X6X4X4X4X6X4X4X6X4X4X4X4X4X4X4XW.W.W.AXUXUX8Xn.x.x.x.x.x.x.g.g.g.e.e.e.e.e.e.LXUXLXH H sXUXZ.D D D D x x x Z.FXx o.IXUXsXx x x c c c c :.UXUXUXFX2X<.z z v v z z z z v C C C C C C C M b z z l 0 0 9 0 0 z z 0 0 0 0 0 0 0 0 0 0 0 0 0 0 0 0 0 0 w w 0 0 0 0 0 0 0 < < ; = = = = = ; ; ; ; ; & = = = = ; ; ; = = = = = = = = = = = = = = = = # # # = = = # # $ $ $ = = = $ O X X X X # # # X X X # # % # % % % % # % - > 1 > > > - - ; q q q t q 8 +   . X %     . + X # # $ O o $ O X X X X X . . . . O ; < , & , * 2 2 , , 2 2 , . . $ > u > $ . X O O X X O $ 9 9 q : @ @ + 8 o   . O O X         ",
"  . # 1 1 #                                                     . . . .   . . . . . . . . . . . . . . . . . . . . . . . . . . . . . . . . . X X . . X X X X X X X X X X X X X X X X X X # # # $ & & $ $ $ $ O O $ O O O $ $ O O O O $ $ $ $ O O O o $ $ O $ * $ : * : : = : : : : : : : : : : : : 3 3 3 3 5 5 5 5 5 5 5 5 5 3 3 5 5 5 5 5 3 3 3 3 3 3 0 3 3 3 3 8 8 0 0 0 w w w e m m m m m e w 6 5 5 w w b b n b n n n b b b b b z z b b b b sXUXUXUXUXUXUXUXLXfXF.A.P C C C C P P P P P P :.UXFX:.UXUX2Xh.h.j.j.z.z.b.zXUXUXAXU.U.m.m.HXUXUXKX7X4X4X4X7X7X7X7X7X7X7X7X7X7X7XqXKXUXUXbXrXrXrXrXrXrXZXZXKXUXUXKXAXAXAXnXnXnXIXUXHXcXcXcXkXkX+X+XlXUXUXJXoXoXoXoXoX!.I.I.I.!.oXoXoXoXoXoX].].].].].].].].].].].!.!./././././.(./.(.(.(.(.(.(.(.(.8X8X8XwXwXwXwXwXqXqXeXeXeXeXeXeXeXrXrXeXuXuXiXiXuXuXuXuXuXuXuXuXuXuXuXuXuXuXuXuXuXuXuXuXuXuXuXuXuXuXuXuXuXuXuXuXuXuXuXuXuX5X5X5XeXeXeXeX5X5X5X5XqX4X7X4X7X7X7X^.^.^.^.^.^.^.^.^.^.^.Y.Y.L.L.L.L.L.P.P.L.L.L.J.J.J.H.H.H.K.G.G.G.G.V.V.V.V.V.V.V.V.V.V.V.V.V.V.k.k.k.k.V.V.J.J.J.J.J.J.v.v.v.v.m.W.W.W.AXUX4X4X4X4X4X4X4X4X4XqXrXrXrXrXrXrXwXrXZXUXUXPX7XW.m.n.x.x.x.x.x.x.x.g.g.e.e.e.e.IXUXzXH H sXUXD.G H H H F F F B.FXx x LXUXsXx x x c c c c o.UXUXFXz v z z v v v v v v C v C C C C C C C C C M b z z z z z z z z z z z 0 z 0 0 0 0 0 0 0 0 0 0 0 0 0 0 0 b b 0 0 0 0 0 0 8 : ; # = = = = - ; ; ; & = = = = = = = = = = = = = = = = = = # # = = # # # # = = = # # $ $ $ $ = = $ $ # # # # X # # X X X X X # # # % % % # # - - > > > > > 1 1 i 1 - ; 8 q t t q @ +       O & & & # X     . .       . O O # X X # # # # % & * & & & & , > .   . > u > $ O $ X . X X O $ 9 9 9 o o o + 8 o   . O O O         ",
"  . # 1 , #     . .                                                   .   . . . . . . . . . . . . . . . . . . . . . . . . . . . . . . . . . . . X X X X . X X X X X X X X X X X X X X X X # # # $ $ $ O $ $ o o $ $ $ $ O O O O O O O $ $ $ $ O O O $ $ $ $ $ $ : * : : : : * : : : : : : : : : : : 3 3 3 3 3 3 3 3 3 3 3 3 3 3 3 3 3 3 3 3 3 3 0 0 0 3 3 3 3 3 0 0 w w w w b b e m m m m m m m n w w n n b b b n b b b g g b g g b b f b b b FXUXUXLXLXLXLXIXUXUXUXUXUXFXP C C C C C C L L L IXUXo.UXUX2Xo.j.j.j.j.j.z.2XUXUXzXm.m.m.1XUXUXzX>X>X>X>X>X4X4X4X7X7X7X7X7X7X7XqX9XKXUXUXZXrXrXrXrXrXrXZXZXIXUXIXZXZXAXAXAXnXbXIXUXHXcXcX8X8X8X+X(.kXUXUXVX!.!.!.!.!.P.I.P.P.I.I.I.I.I.I.I.P.P.P.P.!.P.P.P.P.P.P.!.~.~.~.~.~.~.~.~.~.~.^.^.^.^.^.^.^.^.^.7XwXqXqXqXqXqXeXeXeXeXeXeXrXrXrXeXeXeXuXiXuXuXuXuXuXuXuXuXuXuXuXuXuXuXuXuXuXuXuXuXuXuXuXuXuXuXuXuXuXuXuXuXuXuXuXuXeXeXeXeXeXeX5X5X5X4X4X4X4X4X4X4X4X4X4XW.W.W.W.W.^.^.W.^.^.^.L.L.b.b.b.L.L.L.L.L.b.J.b.b.c.G.H.H.G.G.G.G.G.c.k.k.k.k.k.k.k.y.y.y.k.k.k.k.y.u.k.k.c.G.G.G.G.c.c.v.v.v.v.n.n.n.W.AXUXW.4X4X4X4X4X4X4X4XPXUXUXUXUXUXUXUXUXUXUXIX7XW.n.n.n.zXv.x.x.x.g.g.g.e.e.e.e.e.zXUXFXH H sXUXZ.F H H D D c c Z.FXx x FXUXsXx c x c c x z X.UXUXxXz z z z z v v v v v v v v C C M v z b b z z z z z z 0 0 0 < < < < < 3 < 0 0 0 0 0 0 0 0 0 0 0 0 0 0 0 0 0 0 0 0 0 0 0 7 : ; - = = = = - ; ; = = = = = = = = = = = = = = = = = = = = # = = = = # # = = = = $ $ = $ $ = = $ $ $ # # # # # O O X X X X X X X X O $ $ # # X X # # % & , , 1 i 1 1 1 < 7 7 8 8 q q q q 7 o       . o o : : * o O X . . . X . O # # # $ % & & # % # ; < < ; X # % > % $ . $ X . . X O $ 9 9 9 O   . + 8 o     X X .         ",
"    # , , #       .                                                       . . . . . . . . . . . . . . . . . . . . . . . . . . . . . . . . . . . X X X X . X X X X X X X X X X X X X X X X O # $ $ $ $ O $ $ o o $ $ $ $ O O O O O O $ $ $ $ O O O O o $ $ $ $ $ : * : : : * * : : : : : : : : : : : : 3 3 3 3 3 : : 3 3 3 3 3 3 3 3 3 3 3 3 3 3 3 3 3 3 3 3 3 3 0 w w w w w w w w w w w w w w w w 6 w w n n b b b w 5 3 3 5 5 f f 3 3 5 5 f g fXsXg f b b b n X.F.FXUXUXUX>.B B B B C C C L L HXUXZ.UXUX2Xo.o.g.j.j.j.z.z.PXUXIX1Xm.m.zXPX7Xm.>X>X>X>X>X4X7X0X4X4X4X4X4X7X7X9X9XKXUXUXZXeXrXrXrXrXrXZXZXUXUXPXZXZXZXZXZXbXbXIXUXHXcXcX8X8X8X(.(.(.HXUXUXvX~.P.P.P.P.P.P.H.H.H.I.H.H.H.H.P.P.P.P.P.P.P.P.P.P.P.P.P.P.L.L.L.~.~.~.~.~.^.^.^.^.^.^.^.^.^.^.7X7X7XqXqXqXqXqXeXeXeXeXeXrXrXeXeXeXuXuXuXuXuXuXuXuXuXuXuXuXuXuXuXuXuXuXuXuXuXuXuXuXuXuXuXuXuXuXuXuXuXuXuXuXuXeXeXeXeXeXeXeXeX5XqX4XqXqX4X4X4X4X4X4X4XW.W.W.W.W.W.W.W.W.W.W.m.b.b.b.b.b.b.b.b.b.b.b.c.c.k.G.G.G.G.G.G.G.G.c.k.k.u.y.y.u.u.y.u.u.u.u.u.u.y.u.k.k.c.c.c.c.c.c.c.c.v.v.v.x.n.n.W.AXUXW.4X4X4X4X4X4X4X4XAXUXUXUXUXUXUXUXUXUXUXUXPX^.n.n.zXzXx.x.x.g.g.g.e.e.e.e.e.e.g.LXUXD.H sXUXZ.H H D D D c c Z.FXx x FXUXfXx x c c c c c v xXUXUX2Xz z z z v v v v v v v v M M b b b z b z z z z z 0 0 0 < < < < < < 3 < 3 3 3 0 0 0 0 0 0 0 0 0 0 0 0 0 0 0 9 0 0 0 8 7 : : ; - - - = = = = = = = = = = = = = = = = = = = = = = = = $ $ $ = $ = # # = = = = = = = = = = = $ $ = # # # # # O X X X X X X X X X X X # X . . . X # # & > > > > 1 1 1 1 1 7 7 q q q q q @ + + + O + = * * * * o $ O O . . . . O O # $ & & & % ; ; 7 0 9 7 7 ; - > % # . . . . . O O $ 9 q 9 +     + 8 o     O O .         ",
"    X , , #                                                               . . . . . . . . . .   . . . . . . . . . . . . . . . . . . . . . . . . X X . . . . X X X X X X X X X X X X . . X X O $ O O O O $ $ $ $ $ $ $ $ $ O O O O O O $ $ $ $ O O $ $ $ $ $ $ $ = * * * * = * : : : : : : : : : : : : : : : : : : : 3 3 3 3 3 3 3 3 3 3 3 3 5 5 5 5 5 5 5 5 5 3 : : : 3 3 0 0 0 0 3 : : : : 5 5 5 6 5 6 h h f 0 0 3 3 3 3 3 3 3 3 3 3 3 3 3 3 aXp p p p p z z z z z C >.C c z c c c c v c v v FXUXF.IXUX2Xo.o.j.j.g.z.z.z.U.2XzXzXAXPXIX9Xm.>X>X>X>X>X>X9XUXUX9X4X4X4X4X4X4X4X9XKXUXUXZXeXeXrXrXrXZXZXZXUXUXKXZXZXZXZXbXbXbXIXUXKXcXcX8X8X8X(././.~.kXzXcXHXPXHXkXP.H.H.H.H.H.I.I.H.P.P.!.!.!.!.!.!.!.!.!.!.!.P.P.P.L.L.L.L.~.~.~.~.^.^.^.^.^.^.^.^.^.^.7X7X7X7XqXqXqXqXqXqXeXeXeXrXrXeXeXeXeXuXeXeXuXuXuXuXuXuXuXuXuXuXuXuXuXuXuXuXuXuXuXuXuXuXuXuXuXuXuXuXeXeXeXeXeXeXeXeXeXeXeXeXeXqXqXqXqXqX7X7X7X7X7X7X^.^.^.^.^.^.^.^.^.m.L.L.L.L.L.b.L.L.L.L.J.b.c.c.c.c.j.k.c.G.G.G.G.G.G.G.G.V.s.s.s.s.s.s.s.y.y.y.y.y.u.u.u.k.c.c.c.c.c.c.c.c.b.v.v.x.n.n.W.AXUX4X4X4X4X4X4X4X4X4X4X4X4X7X7X4X4X4X4X4XwXIXUXHXm.^.KXm.x.x.v.j.g.g.e.e.e.e.e.e.H D.UXIXh.sXUXZ.D H D D D D c B.FXx x xXUXxXx x x x c x v v v :.F.F.fXLXFXD.v v v v v v v C C C M M M M b b b z z z 0 0 0 < < < 1 < , , < < 3 3 0 0 0 0 0 0 0 0 0 0 0 0 9 9 9 0 0 0 0 8 7 7 7 < ; ; ; ; = = # = = = = ; ; ; ; ; ; ; ; ; ; ; & = ; ; ; = = = = = = = = = = = = = = = = = = = = = = = # # # # # O O O O O X X X X X X . . . . X X X O # # # + = & 2 p i i l i i 1 : 7 q t t q 8 o $ $ & X O o 4 4 4 * o o . X O O O $ $ & , < 7 q q v v q 7 7 9 < - = X . . . . O O # 9 q q +   . + 8 +   . . O .         ",
"    X , , X                                                                 . . . . .   . . .   . . . . . . . . . . . . . . . . . . . . . . X . . . . . . . . X X X X X X X X X X X . . X X O # $ O $ $ $ $ $ $ $ $ $ $ $ $ O O $ $ $ $ $ $ $ $ * * $ $ * * * * * * * * : : : : : : : 3 3 3 3 5 5 w w w w w w w w w w w w w w w w w w e e w w w w w w w w w w w m M M M M M M M w w w w e e m m Q Q Q Q Q m n 5 5 w w b b n n n n n b b m m m =.Z m n n n n n n B B C C V Z Z Z P P P L L L sXUXUXT.LXUXxXM.Z.Z.Z.Z.D.D.U.U.U.U.U.U.PXUXPX1X1X1X1X7X7X7X7XKXZX7X7X7X7XqX9X9X9X9XKXUXUXZXrXrXrXZXZXZXZXZXUXUXKXZXZXZXAXAXnXnXPXUXPXcXcXcXcXkX+X+X+X+X+X+XoX!.HXUXIX!.!.!.oXoXoXoXoXoXoXoXoX].].].].].].].].].].].].].{.].oXoX+X+X+X+X(.(.(.(.(.(.8X8XkXkXkX8XwXqXqXqXqXqXqXqXeXeXrXrXeXrXrXeXeXeXeXeXeXuXuXuXuXuXuXuXuXuXuXuXuXuXuXuXuXuXuXuXuXuXuXuXuXuXeXeXeXeXeXeXeXeXeXeXeXeXeXeXqXqXqXqXqXqX7X7X7X7X^.^.(.(.^.^.^.^.^.^.Y.Y.Y.Y.Y.Y.Y.Y.Y.P.P.P.P.P.P.P.J.G.c.k.k.V.K.I.I.I.I.I.I.I.I.I.I.I.I.H.H.H.H.H.C.C.V.V.V.G.H.H.H.H.K.H.H.L.L.b.v.v.n.W.W.AXUX4X4X4X7X7X7X7X7X7X7X7X7X7X4X4X4X4X4X4XW.bXUXUX^.HX^.m.v.v.v.v.v.v.c.j.j.j.g.g.g.r.zXUXFXsXUXD.H H Y H Y Y Y D.FXL L xXUXHXL F L C C C C v v v C C C xXUXIX[ v v v v v C C C Z Z Z Z C C C C C C C M M M b z z z 0 0 0 0 0 0 z z 0 0 0 b b b b z 0 0 0 0 0 0 0 0 0 0 0 0 0 0 0 8 7 < ; ; - = = = - ; ; ; ; ; ; ; : ; ; ; ; ; ; ; ; ; ; ; ; ; ; - = = = = = = = = = = = = = = = = = $ $ = = # $ # # # # O X X X X X X X X O X X X X X X X $ # # # # % > u s s F l i 2 * 7 7 q q q @ + o o o o o o : : 4 4 4 o o O X = ; 9 q q q q q q q q q q q 7 7 ; % X . . . O O 9 9 q + . . o 8 +   . . O .         ",
"    . - , O                                                               . . . . . .         . . .       . . . . . . . . . . . . . . . . . . X X X X X . X X X X X X X X X X X O X X X X # $ $ $ $ $ $ $ $ $ $ $ $ $ $ $ $ $ $ $ $ $ $ o o $ * * * * o * * : : * * : : : : : : : : : : 3 3 3 5 5 5 w w w w w w w w w w w w w w w w w w w w w w w w w w e e e e e e e w w w w w w w 0 w e e m R Q R m m e w 5 5 5 5 n n m m m m m m m m m m m Q aXm m m m n B B B B V V V V V Z L L C C -.FXUXUXUXB.xXUXJXM.M.Z.Z.Z.Z.D.D.U.U.U.U.U.AXUXUX1X1X1X1X7X7X7X7X7X7X7X7X9X9X9X9X9X9X9XKXUXUXZXrXrXrXiXZXZXZXZXUXUXKXZXZXAXAXAXbXbXHXIXIXbXcXcX8X8X+X+X+X+X+X+X!.!.nXUXUX!.I.I.!.!.oXoXoXoXoXoX!.!.!.oX].oX].oXoXoXoX].].].!.!.!.!.!.(.!.(.(.(.(.(.(.(.(.(.(.(.8X7X7XqXqXqXqXqXqXqXqXeXrXrXrXeXeXrXeXeXeXeXuXuXuXuXuXuXuXuXuXuXuXuXuXuXuXuXuXuXuXuXuXuXeXeXuXuXuXeXeXeXeXeXeXeXeXeXeXeXeXqXqXqXqXqX7X7X7X7X7X7X^.^.^.^.^.^.^.^.^.^.^.^.^.^.~.Y.Y.Y.Y.Y.Y.P.L.L.L.b.b.c.v.j.j.c.G.H.H.H.H.H.H.H.H.G.G.G.H.H.G.G.G.G.c.c.c.c.c.c.c.G.G.J.J.G.J.J.J.b.b.v.v.n.E.AXUX4X4X4X4X4X4X4X4X4X4X4X4X4X4X4X4X4X4X4XW.bXUXUXHXbXm.v.v.v.x.v.x.j.g.g.g.g.g.e.e.e.j.LXUXLXUXD.D H H F H H L D.FXL F 2XUXUXo.c L L L L v v v v v C C aXUXUX<.v v v v v v C C C C C C M M M M b M b b z z z z z z 0 0 0 3 0 0 0 0 0 0 0 z b b z z z 0 0 9 9 9 9 9 9 0 7 7 7 7 7 8 7 : < ; ; ; ; ; ; ; ; ; ; ; ; ; ; ; ; ; ; : : < ; ; ; ; ; ; ; ; = = ; ; ; & ; & & : : : : : = = = = = = = = = $ # # # # # O X O O X X . . . . . . . X O % % % # # # % , 1 1 u i i i l l 9 9 7 7 7 @ 8 8 @ .     o : : : 4 : : : 7 7 q q q q q q 7 7 7 q q q q q q 7 7 = + + O O X 7 9 9 +   . o 8 o . . . O .         ",
"    . - , X                                                               . . . . . .         . . .         . . . . . . . . . . . . . . . . . X X X X X . . . X X X X X X X X X O X X X X # $ $ $ $ $ $ $ $ $ $ $ $ $ $ $ $ $ $ $ $ * * * o * * * * * * * : * * : : : : : : : : : : : : 3 3 3 5 5 5 w w w w w w w w w w w w w w w w w w w w w w w w w w w w w w w w 0 0 0 0 0 w w w w w e e e R R m m w w w w w w w n n n n m m m n n n g g m m xXF.m m n n B n B B B V V V V V C C C sXIXUXUXUXFXP F.UXUXsXM.Z.Z.Z.D.D.D.D.U.U.U.U.AXUXUXm.U.1X1X7X7X7X7X7X4X4X4X4X4X9X9X9X9X9XKXUXUXZXrXrXrXrXZXZXZXZXUXUXPXZXZXAXAXZXbXbXbXUXUXHXcXwX8X8X(.(.(.(.(.!.!.!.xXUXUX+XI.I.I.I.I.I.I.I.I.!.!.!.!.!.!.!.oX!.!.!.!.I.I.!.!.!.!.!.!./././.~.~.~./././.(.(.(.(.^.7X7X7X7XqXqXqXqXqXqXeXrXrXrXeXeXrXeXeXeXeXeXuXeXeXeXuXuXuXuXuXuXuXuXuXuXuXuXuXuXuXuXuXeXeXeXeXeXeXeXeXeXeXeXeXeXeXeXqXeXqXqXqXqX7X7X7X7X7X7X^.^.^.^.^.^.^.^.^.^.^.^.^.^.^.~.Y.Y.L.U.U.L.L.L.J.b.v.v.v.x.g.x.c.G.G.G.G.G.G.G.G.G.c.c.c.c.c.c.c.k.u.u.u.k.k.u.c.c.c.c.c.b.c.J.J.J.b.b.v.v.n.n.AXUX4XW.4X4X4X4X4X4X4X4X4X4X4X4X4X4X4X4XW.W.0XUXUXPXn.n.x.x.x.x.x.g.g.g.g.g.g.e.e.e.e.e.Z.IXUXUXD.D D D D F H F D.FXF F o.UXUXfXc c v v v v v v v v v C 2XUXUX<.v v v v v v v M C C C M z M b b b b z z z 0 0 0 0 0 0 < < 3 3 3 3 3 3 0 0 0 0 0 0 0 0 0 0 9 9 9 9 7 7 < < 7 < < : : : ; ; ; ; ; ; ; ; = = = ; ; ; ; ; ; ; ; ; ; ; ; ; ; ; ; ; ; ; ; ; - ; ; ; ; ; ; : : : : : : : = = = = = = = = $ = # # # # # # # O X X . . . . . . X X X % # % # X # # # # % # 1 i i x l l 2 3 7 7 q q q 7 + + + o o + = : : 8 8 q q q q q q 7 7 7 7 7 q q q q q q q 7 7 ; ; + + O 7 9 9 o . o o 8 o . . . . .         ",
"    . - , O                                                               . . . . . .           .       . . . . . . . . . . . . . . . . . . . . . . X X . . . X X X X X X X X O O O X X # $ $ $ = = = $ = = $ = $ $ = = * : * * o o o o * * * * * * * * * : : : : : : : : : : : : : : : 3 3 3 5 5 5 w w w w w w w w w w w w 5 5 w w w w w 0 0 0 0 0 0 0 0 0 0 0 8 7 8 8 8 0 0 w w w w e 6 e m m R m m w w w b b b b w 0 0 3 3 3 3 3 3 3 3 3 3 3 =.UXaX0 z z z z z z z z c c c B B %.FXUXUXUXUXUX:.P -.LXUXIX2XZ.Z.Z.D.D.D.D.m.m.m.m.AXUXUXAX1X>X>X1X1X7X>X>X>X>X4X4X4X4X4X4X9X9XKXUXUXZXrXrXrXrXbXbXbXbXUXUXPXAXAXAXAXAXZXbXbXPXUXUXAXkX8X(.(.(./././.~.~.~.nXUXUX+XI.I.I.I.I.I.I.I.I.I.I.I.I.I.!.!.!.!.!.!.!.I.P.~.P.~.~.~.~.~.~.^.~.^.^.^.^.^.^.^.^.^.^.^.^.7X7X7X7X7X4XqXqXeXeXrXrXeXeXeXeXeXeXeXeXeXeXeXeXeXeXeXeXuXeXeXeXeXuXuXuXuX5XuXuXuXeXeXeXeXeXeXeXeXeXeXeXeXeX9X9X9X9XqXqX7X7X7X7X7X^.^.^.^.^.^.^.^.^.~.~.^.Y.Y.Y.Y.Y.Y.P.L.P.P.P.P.P.K.J.G.c.c.v.v.v.v.j.k.y.s.s.s.V.k.y.y.y.y.y.y.t.t.y.y.y.y.y.y.y.y.y.y.y.u.u.k.c.G.G.G.G.J.L.m.m.m.n.AXUXW.W.W.4X4X4X4X4X4X4X4X4X4X4X4X4X4XW.W.W.0XUXUXbXn.n.n.x.x.x.x.x.HXPXj.e.e.e.e.e.e.e.H sXUXUXT.D D D D D F F D.LXF F F FXUXUX2Xc c v v v C v v v v C sXUXUX<.v v v v v v v v v v v v M M M M M b b z 0 0 9 < < < < < 3 3 3 3 3 3 < < < 3 0 0 0 0 0 0 0 0 0 9 9 9 0 0 8 7 8 : ; ; ; - - - = = = = = = = = = = - ; ; ; ; ; ; ; ; ; ; ; ; ; ; ; ; ; ; ; ; ; ; ; : : : : : : : : : ; ; ; = = ; ; = = = = = = = = # # O o O O # % % # # # . X       X X # # # O O + . . $ > a a D x l l 1 + @ 7 q q q 7 X . . O + = 7 q q q q 7 7 ; = + 7 q q q 7 q q q q q q q q 7 ; = 9 9 7 o o o o 8 o . . . . .         ",
"    . # , % X                                                           . . . . . . .                 . . . . . . . . . . . . . . X X X X X X X X X X X X X X X X X X X X X X O # # # # $ $ $ $ $ $ * * * * * $ = = : : : : : : * * * * * * * * * * * * : * : : : : : : : : : : : 3 : 3 3 w 0 0 0 0 w w w w w w w w w w w w w w w w w w w w w w w w w w 0 0 0 0 0 0 8 8 7 7 8 0 w w e m m m m e m m n n n w w w w w w w b b b 3 3 3 < 3 5 5 g m m fXUXJXF.n n n n n m V V V V V aXIXUXUXUXUXFXF.-.-.-.B.LXUXUXKXsXD.D.D.D.D.U.U.U.U.HXUXUXUXPXzX7X7X7X4X>X>X>X4X4X4X7X7X9X9X9X9XIXUXUXAX0XrXiXZXZXZXZXAXUXUXPXAXAXAXAXAXZXbXbXbXPXUXUXIXnXcX+X+X+X+X(.!.!.!.VXUXUXI.I.I.I.I.].].].I.I.I.I.I.I.I.I.I.I.!.!.I.!.I.I.I.I.!.!.!./././.~././././././.(.(.(.(.(.7X7X7X7X7X4X4X4X7XqXeXqXqXeXeXeXeXeXeXeXeXeXeXeXeXeXeXeXeXeXeXeXeXeXeXeXuX5X5X5X5XuXeXeXeXeXeXeXeXeXeXeXeXeXeX5X5X5X5X9X7X7X7X7X7X7X7X^.^.^.^.^.^.^.^.^.^.Y.Y.Y.Y.Y.Y.Y.Y.Y.Y.Y.Y.Y.Y.P.J.J.J.b.c.j.j.x.j.j.g.k.V.H.f.C.C.V.C.C.V.y.y.y.y.y.y.s.V.V.V.V.V.V.V.V.V.V.G.G.c.c.J.L.L.L.L.L.m.m.AXUX7XE.W.E.4X4X4X4X4X4X4X7X7X7X7X7X7X7X4XW.nXUXUXzXm.m.m.v.v.v.v.zXUXUXc.g.g.e.e.e.e.e.e.g.UXUXsXD D D D x x D 2XLXF F F L xXUXUXLX2Xo.c v v v v v v v xXUXUXX.v C C C C C C C C C C M M z z z z z z b b z w w w 0 0 0 0 0 0 w 0 0 0 0 0 0 0 0 0 0 w w w 0 0 0 0 0 0 0 0 0 8 8 8 < < ; ; ; ; ; : < : ; ; ; ; ; - ; ; ; : : : ; ; : ; ; ; ; ; ; ; ; ; ; ; ; ; ; : : : : : : : : ; ; ; ; ; : : : : ; ; ; ; = = = = = = # # # # # # # # X X X . . . . . X . X X X X # # % % # % > 1 i i p c c i = + @ @ 8 8 7 - X X = 7 7 7 @ + + = ; 7 7 q 7 7 7 q q q 7 q q 7 7 7 7 9 q q 7 +   . + 8 o . . . . .         ",
"    . # , % X                                                           . . . . . . .                 . . . . . . . . . . . . . . X X . X X X X X X X X X X X X X X X X O O O # # # # # $ $ $ $ $ $ * * * * * $ $ o o : * * * * * * * * * * * * * * : : : : : : : : : : : : : : 3 3 0 0 0 0 0 0 0 w w w w w w w w w w w w w w w w w w w w w w w w w w 0 0 w 0 w 0 0 0 0 0 0 0 w w w m m R Q m m m m m m m m m m n n n n n b b w p 3 0 f g g m m m m sXUXUXfX>.Z m m V V V V A.FXUXUXUXUXFXaXP P -.-.-.o.o.sXLXUXUXUXHXzX2XD.U.U.U.zXUXUXUXUXUXUXPXAX9X>X>X9XKXUXZX9X7X7X9X9X0XAXPXZXIXIXAXrXZXZXZXZXAXKXUXUXHXAXZXZXZXZXZXbXbXbXbXAXIXUXUXUXPXHXvX+X+X!.!.+XIXUXJXI.I.I.I.].].].].].].].].].].].].].!.!.!.!.!.I.I.I.!.!.!.!././././././././././.(.(.(.(.(.8X7X7X7X7X7X4X7X7XqXqXqXqXqXeXeXeXeXeXeXeXeXeX5X5XeXeXeXeXeXeXeXeXeXeXeX5X5X5X5XeXeXeXeXeXeXeX5X5X5X5XeXeXeXeX5X5X5X5X4X7X7X7X7X7X7X7X7X^.^.^.^.^.^.^.^.^.^.^.^.^.~.Y.Y.Y.Y.Y.Y.P.P.P.P.P.P.P.J.c.c.c.c.c.j.j.k.G.H.I.C.C.C.C.H.C.t.y.y.y.y.y.s.V.V.V.C.V.V.V.V.V.V.V.c.c.c.c.L.L.L.L.L.m.m.nXUXKX4XE.W.W.4X4X4X4X4X4X7X7X7X7X7X7X7X7X0XPXUXUX0Xm.m.m.m.m.7XnXUXUXzXg.j.j.j.e.e.e.r.j.sXUXUXLXh.D D D x x D.LXFXF L F F v 2XLXUXUXUXFXdXD.X.v v v <.LXUXLXv v C C C C C C C C C C C M v v z z z z z b z b b w w w 0 w w 0 w 0 0 0 0 0 0 0 0 w b b b b w w w w w w 0 0 0 0 0 8 7 < < < < < < 7 8 : : : : ; ; ; ; ; ; ; : : < ; : : ; ; : ; ; ; ; ; : : ; ; : : : : : : : : : ; ; : : : : : : ; ; ; ; ; ; ; = = = # # # # # # # O X X X X X X X . . X X . X X X # # % % # % % > > 1 i a a a i i 9 9 7 7 7 7 @ + + @ + + + + + 7 7 7 @ q 7 7 7 q q 7 @ @ 7 7 7 7 7 9 q q 7 = + + + 8 o . . . . .         ",
"    . % , % #                                                             . . . . .             .     . . . X X X . X X X X X X X X X . X X X X X X X X X X X X X X O O O # # # # # # # $ $ = = : = * * * * o o $ o o * * * * * * * * 4 * 4 4 4 4 : : : : : : : : : : 3 3 3 : 3 3 0 0 0 0 0 w 0 w w w w w w w w w w e e e e e e e e e e e w w w w w 0 0 w w w w 0 0 w w w w w w w e M m Q Q Q Q Q Q Q Q m m m Q m m m m m m m n n n b n m m m m m V m %.fXUXUXUXGXFXFXfXMXHXUXUXUXUXFXF./ / / / ` -.-.-.-.M.Z.sXHXUXUXUXUXUXUXUXUXUXUXPX0XPXUXUXUXUXUXKXIXUXUXUXUXUXUXUXUXUXUXUXrXrXrXZXAXKXIXUXUXUXUXUXUXPXAXAXZXZXZXZXZXbXbXbXbXcXcXnXJXIXUXUXUXUXUXUXUXUXUXUX+XI.I.I.I.oXoXoXoX].].].].].oXoX].].oXoXoXoXoX].oX].!.!.!.!.!./.!./././.(./.(.(.(.8X8X8X8X8X7X7X7X7X7X7X7X7XqXqXqXqXqX9XeXeXeXeXeXeXeX5X5X5X5XeXeXeXeXeXeXeXeXeX5X5X5X5X5X5XeXeXeXeXeXeX5X5X5X5X5X5X5X5X5XqX5X5X7X7X7X7X7X7X7X7X^.^.^.^.^.^.^.^./.~././.~.~.~.~././././.P.P.P.P.P.P.P.P.P.G.G.c.c.c.j.j.c.G.H.I.H.H.C.C.C.C.s.y.r.y.y.y.s.V.V.C.C.V.V.V.V.V.V.k.k.c.c.c.L.L.L.L.L.L.m.0XUXUXUXUXUXUXUXUXUXUXUXUXUXUXUXUXUXUXUXUXUXIXHXbX7XUXUXUXUXUXUXUXUXnXg.g.g.U.PXUXUXUXUXUXUXUXLXxXUXUXUXUXUXUXUXUXF.F L L L v L L D.xXLXUXUXUXUXUXUXUXUXUXUXD.v v C C { { { { C C C C C M v v z z z z z z z z b w w w 0 0 0 0 0 0 0 7 7 0 0 0 b M M M N N M M M M M M b 0 0 0 0 0 8 8 7 < 7 7 8 7 8 7 7 : : : < ; ; ; ; ; ; ; : : : : : : : : : : ; ; 7 7 7 8 : : : : : : : : : : : ; ; : : : : ; ; ; ; ; ; ; : = = = # # # # # # O O X X O X X X . X X X . X X X # # # % % % # % % > > > u a G F A a - ; @ @ @ @ @ o o o . X ; 7 q q @ 8 7 7 7 9 7 7 + @ @ 7 7 7 7 7 7 7 7 7 ; ; + 8 o . . . . .         ",
"    . # & % #                                                             .   .             .       . . . . X X . X X X X X X X X . . . X X X X X X X X X X # O O O # # # # # # # = = = = = = : : * : : : * * * * * * * * * * 4 4 4 4 4 4 4 4 4 4 : 4 4 : : : : : : : : : : : : : : 8 8 8 8 0 0 0 0 0 3 3 3 3 5 w w w w w w w w w w w w w 0 0 0 8 8 8 8 0 0 0 w w w w w w w w w e m m Q r Q Q Q Q Q Q Q Q m m m m w 5 5 5 5 5 n n m m m m m m m m n n b b } fXIXUXUXUXUXUXUXUXIXfXA.P P P P P P T T o.o.o.o.h.h.k.D.2XxXHXKXPXPXLXLXHX1Xm.>XzXPXUXUXUXUXUXUXKXKXUXUXUXUXUXUXUXAX9X9X9X9X0X0X0XbXZXZXZXZXZXAXAXZXZXZXZXZXbXbXbXbXbXcXcXcXcXkXvXHXPXPXIXPXPXPXHX+XI.I.I.I.I.I.I.I.I.I.I.I.I.I.I.!.I.I.I.I.I.P.I.P.P.P.P.P.P.P.P.P.P.P.Y.Y.^.~.^.^.^.^.^.^.^.^.^.^.4X4X4X4X4X4X7X7X7XqXqX9XeXeXeXeXeXeX5X5X5X5X5X5XeXeXeXeXeXeXeXeX5X5X5X5X5X5X5X5X5X5X5X5X5X5X5X5X5X5X5X5X6X4X6X6X4X4X4X4X4X4X4X4XW.W.W.W.W.W.W.W.W.m.W.W.L.m.b.b.b.b.b.b.b.b.L.J.J.J.J.J.J.c.c.j.g.g.j.g.k.k.G.H.H.C.C.C.C.C.s.t.r.r.r.r.r.t.V.C.C.V.V.V.V.V.y.y.u.g.j.j.c.L.L.Y.Y.Y.U.W.KXUXUXUXUXUXUXUXUXUXUXUXUXUXUXUXUXUXUXIXZX7XW.W.W.7X8X0X0X8X8X8XU.x.g.g.g.g.g.U.2X2X2X2X2X2Xh.Y D.2XsXsXsXsX2XD.x x c c x x c x v x v :.dXFXFXLXLXLXLXFXD.v v v v v v v v v v v v v v v v v z l z 0 0 0 0 0 0 0 0 0 0 0 0 0 0 0 0 0 0 0 0 0 b b M M M M M M M M M w 0 0 0 9 7 9 7 7 7 7 7 7 0 0 0 8 8 8 8 8 8 8 7 : : : ; ; ; ; ; ; ; ; ; ; ; ; ; ; ; ; ; ; : : : : : ; : ; ; ; ; ; ; ; ; ; ; ; ; ; = = ; ; ; ; = = = = = = # # # # X # X X X X X . . X X X . . . . X O $ $ $ % # # % + + # > u u A F s a i : : ; 7 7 7 8 8 8 7 @ + + : 7 @ @ 8 8 7 + + 7 8 7 7 7 7 7 7 7 7 7 7 + : o . . . . .         ",
"    . X & # X                                                                 . . . .   . . . . . . . . . . . X X X X X X X X X X X . X X X X X X X X O # # # # O # # # # # # # = = = = = = = * * * : : : : : : * * * * 4 4 4 4 4 4 4 4 4 4 : 4 : : : : : * : : : : : : : : : : : : : : : : : : : : 3 3 3 3 3 3 3 3 3 3 3 3 5 w 3 3 3 3 0 8 7 7 < < < 7 8 8 0 0 w w w 0 0 0 w w e e Q Q r Q Q Q Q r Q Q m e w 5 5 5 5 0 5 5 w w n m R m m m n n b b b p p z z z %.>.F.F.F.>.;.Z B C C C L L L L L L L Y o.o.o.j.j.j.j.j.j.j.z.z.z.z.m.m.m.>X>X>X0XAXKXAXZX7X4X7X0XAXAXAXAXAXbX9X9X9X9X9XeXrXrXbXbXZXZXZXZXZXZXZXZXZXZXZXbXbXbXbXbXcXcXcXcXkXkXkX+X+X/.!.!.P.I.I.H.I.I.I.I.I.I.I.I.I.I.I.H.H.H.H.H.H.H.H.G.G.G.L.L.L.L.L.L.L.L.L.L.b.L.L.L.^.^.^.^.^.^.^.W.^.^.W.4X4X4X4X4X4X4X4X4X9X5X5X5X5X5X5X5X5X5X5X5X5X5X5XeXeXeXeXeXeXeXeX5X5X6X6X6X6X6X5X5X5X5X5X5X5X5X6X6X6X4X4X4X4X6X4X4X4X4X4X4X4XW.W.W.W.W.W.W.W.m.m.m.m.m.v.v.v.v.v.v.v.v.v.v.v.c.c.c.c.c.c.c.j.j.g.g.g.g.e.u.y.G.H.H.H.C.a.f.C.V.t.r.e.r.r.r.r.s.V.C.s.V.V.G.G.k.y.j.g.g.j.j.b.L.Y.Y.Y.U.W.m.7X7XrX7XqXqXqXqXqXwXwXwX0X0X0X0X0X0X7X4XW.W.W.W.W.m.m.m.m.v.v.v.v.g.g.g.g.e.e.e.e.r.r.r.r.Y Y Y H H D x x x x x x x c x x c x c c z z l l l l v z z z v v v v v v v v v v v v v v v v v l z l 0 0 0 0 0 0 0 0 0 0 0 0 0 0 0 0 0 0 0 0 0 0 0 0 0 0 z z b w w w 0 0 0 9 7 < < 7 8 8 8 7 7 7 7 7 8 7 7 7 7 8 7 7 7 8 8 8 : : ; : ; ; ; ; ; ; ; ; ; ; ; ; ; ; ; ; 7 ; ; ; ; ; ; ; ; ; ; ; ; = = ; ; = = = ; = = = = = = = = = = # # # # # # X X X X X X X X . X . . . . X X X X # # # # . . . # % > , i i i a a i 1 < 7 7 7 @ @ + o O O : @ @ @ @ @ @ @ 7 8 @ 8 7 8 7 7 7 7 7 7 ; o : o . . .   .         ",
"    . X & # .                                                   . . . .     . . . . .         . . . . . . . . . X X X X X X X X X X X X X X X X X O O O O O O O O O # # # O O # # # $ = = = = : * * : : : * * * : : 4 4 4 4 4 4 4 4 : 4 : : : : : : : : : * : : : : : : : : : : : : : : : : : : : : : : : : : : : : : : : : 3 3 3 3 3 3 8 8 8 7 < 7 7 7 7 8 0 0 w w w 0 8 8 8 w e r R r Q Q Q Q Q r m e e w 5 3 3 0 0 0 0 w 5 n m m m m m n b b p p p p p z b b n n n m m m m m B B C C C C L L L L L L Y o.o.g.g.g.g.g.g.g.l.l.l.l.n.n.n.>X>X>X>X>X>X>X>X4X7X7X7X7X7X7X0X9X9X9X9X9X9X9XeXrXrXbXbXbXZXZXZXZXZXZXZXbXbXbXrXrXbXbXbXcXcXcXkXkXkXkX+X(././.P.P.P.H.H.I.I.I.I.I.I.I.f.H.H.H.H.H.H.H.H.H.G.G.G.G.c.c.c.c.v.v.v.v.v.v.v.b.L.L.L.L.W.W.W.W.W.W.W.W.W.W.W.4X4X4X4X4X4X4X4X4X4X4X5X5X5X5X5X6X6X6X5X5X5X5XeXeXeXeXeXeXeX5X5X5X5X6X6X6X5X5X5X5X5X5X6X6X6X6X6X6X4X4X4X4X4X4X4X4X4XW.W.W.W.W.W.W.W.m.m.m.m.m.v.v.v.v.v.v.v.v.v.v.v.v.v.v.c.c.c.j.j.j.k.j.j.g.g.g.g.e.r.y.k.G.H.C.C.a.a.s.V.t.r.r.e.e.I I t.s.C.C.C.C.C.G.V.k.j.g.g.g.g.c.b.L.L.Y.L.W.m.n.E.E.E.W.4X4X4X4XW.4X4X7X7X4X7X4X4X4XW.W.W.W.W.m.m.m.m.m.v.v.v.v.x.g.g.g.g.e.e.e.r.r.r.r.Y Y Y G F D D x x x x x c c x x c c c c c c l l l v l l l l l l v v v v v v v v v v z v z z z z z z 0 0 0 0 0 0 0 0 0 0 0 0 0 0 3 3 3 < < < 7 9 0 0 0 0 0 0 w 0 0 0 0 0 0 7 7 < < < < < < 7 7 7 7 7 7 8 8 8 8 8 8 8 8 7 7 8 8 : < ; ; ; ; ; ; = = = = = = ; ; ; ; 7 : : : : ; ; ; ; ; ; ; ; = = = ; ; ; = = = = = = = = = = = = = = # # O O O O O O X X X X . . . . . . . . . . . X X O O X X X . X X X % > 1 i a a i 1 < 7 7 7 + O o . O : @ @ @ @ @ + @ 8 8 @ 8 8 8 7 7 7 = ; ; + + 8 o . . . . .         ",
"      X & # X                                               . . . . . .     . . . . .       . . . . . . . . . . X X X X X X X X X X X X X X X O O O # # O O O O O O # # # O O # # # $ # = = = * : * * : : : : 4 4 4 4 4 4 4 : : : : : : * * * * : : : : : * : : : : : : : : : : : : : : : : : : : : 3 3 3 3 3 3 3 3 8 8 : 3 w 0 0 0 0 0 8 7 7 7 7 9 7 8 8 8 8 0 0 0 8 8 8 8 w e m Q E R Q Q Q Q R e e w w 0 3 3 0 0 0 0 w w m m m m m n w w 3 3 3 z z b b b n n m V V V V V V V V V V K L L L L L L L Y o.o.h.j.j.j.j.j.j.j.z.z.z.m.m.m.n.>X>X>X>X>X>X>X>X4X7X7X7X7X7X7X9X9X9X9X9X9X9X9XrXrXbXbXbXZXZXZXZXZXZXZXbXbXbXrXrXrXbXbXcXcXlXkXkXkXkXkX(./.Y.P.P.P.P.H.H.I.I.I.H.H.f.f.H.H.H.H.f.f.f.f.H.H.H.H.H.H.H.H.L.L.L.L.L.L.L.L.L.L.L.L.L.L.^.^.^.^.^.^.^.^.W.W.W.W.7X4X4X4X4X7X7X4X4X4X4X4X4X4X5X6X6X6X6X5X5X5XeXqXeXqXeXeXeX5X5X5X6X6X6X6X6X5X5X5X5X5X4X4X4X4X4X4X4X4X4X4X4X4X4X4XW.W.W.W.W.W.W.W.W.W.m.m.m.b.L.L.b.b.L.L.L.b.L.L.J.J.J.G.J.G.G.G.G.G.G.c.k.k.j.g.g.e.e.r.k.V.C.H.C.a.a.a.C.t.r.e.e.e.Y Y t.i.C.C.C.C.G.G.G.c.k.g.g.g.g.j.c.L.L.P.L.L.m.m.E.E.E.E.4X4X4X7X^.^.7X4X4X4X7X4X4X4XW.W.W.W.W.m.m.m.m.m.v.v.v.v.v.g.g.g.g.g.e.e.r.r.r.r.Y Y Y Y G H D x x x x x c c x c c c c c v v v v v v v v v v v v v v v v v v M C M M M M v b b b b b b z b w w w 0 0 0 0 0 0 0 0 0 3 3 < < < 7 9 7 7 0 0 0 0 0 0 0 0 0 0 0 9 8 7 7 ; ; ; ; ; < < 7 7 7 7 < < < ; ; ; < : : : 8 : : 8 < ; ; ; ; ; = = = ; ; ; ; 7 7 7 8 7 8 8 7 7 7 7 7 ; ; ; ; ; ; ; ; ; = = = = = = = = = = = = = = = = = = = O O O O O O O X X . X X X .               . & & $         O X X X & , 1 i i a u 2 * o       o + @ 8 7 @ + @ @ @ + + @ @ 7 7 7 7 = ; + + 8 o . . . . .         ",
"      . $ # X                                                       .   . . . . . . . . . . . . . . . X . . . . . X X X X X X X X X X X X X O O O O # # # # # # O O # # # # O O # # # = = = = * : 4 4 4 4 4 4 4 4 4 4 4 4 : * * * * : : : : 4 4 4 4 4 4 4 4 : : : : : : : : : : 8 8 8 8 8 8 8 0 0 0 0 0 w w w w w w w w w w w w w w 0 0 0 0 0 0 0 9 8 8 8 8 8 0 7 8 8 8 w e m Q Q Q r Q Q R Q m m w w w 0 0 w w w w w e m m h R R h n b w w 3 3 z z b n n m m m m V W W W W W ^ ^ ^ ^ ^ ( / ` ` ` ` ` M.M.M.M.Z.Z.Z.Z.Z.J.J.J.J.U.U.m.m.m.m.m.m.n.>X>X>X>X7X7X7X7X7X7X7X9X9X9X5X4X5X9X9XrXrXbXbXZXZXZXZXZXZXZXZXZXbXbXrXrXbXbXbXcXvXvXcXcXcXcX+X(./.P.P.P.P.P.I.I.I.I.I.I.f.f.f.H.H.H.H.I.I.I.I.I.I.I.I.I.I.I.I.I.I.I.I.I.I.P.P.P.P.P.P.Y././.~.~./.^.^.^.^.^.^.^.^.^.7X7X7X7X7X7X7X7X7X7X7X7X7XqX4X4X6X5X5X5X5XqXqXqXeXeXqXeX5X5X6X6X6X6X6X6X5X5X5XqX7X4X4X4X4X7X7X7X7X4X7X7X7X^.^.^.^.^.^.^.^.^.^.^.^.Y.P.P.P.P.P.P.P.P.P.P.P.P.P.P.P.K.K.H.H.H.H.H.H.H.G.G.V.y.g.e.e.e.e.j.k.C.H.C.C.C.C.C.s.t.r.e.e.e.r.I y.V.V.V.V.C.H.G.G.k.e.g.g.g.g.j.b.L.L.Y.Y.Y.m.E.E.E.E.W.W.7X7X^.^.^.4X7X7X7X7X7X4XW.W.W.W.W.m.m.m.m.v.v.v.v.v.v.g.g.g.g.g.g.e.e.e.e.r.Y Y Y Y Y H F D x x x x x c x c c v v c v v C v v v v v C C v C C C M C C C C C C C C C M M M M M M b b b b b w 0 0 0 0 0 0 0 0 0 0 0 0 0 0 0 0 9 9 9 9 9 9 0 0 0 0 0 0 0 0 0 9 9 < ; ; ; ; ; ; ; < < < < < < < ; ; < < < < : 8 7 8 8 8 : ; ; ; ; ; ; ; ; ; ; ; 7 7 7 7 8 7 7 7 7 7 7 7 7 7 ; ; : ; ; = = = = = = = = = ; ; ; ; ; = = = = = = = = = = + O O O O X X . . . . . . . .             O O X X X # # % # # # & , 1 i i i s s , # X X + + @ + + @ @ @ + + + + + 7 7 7 ; = + + 8 o     . . .         ",
"      . $ # .                                               .           . . . . . . . . . . . . . . . X . . . . . . X X . O X X O X X X X O O O O O # # # # # # O O # # # # O O # # = = = = * * 4 4 4 4 4 4 4 4 4 4 4 : : * * * * * 4 4 4 4 4 4 4 4 4 4 4 4 4 4 : : : : 8 8 : 8 8 8 8 0 0 0 0 8 0 0 0 w w w w w w w w w w w w w w w 0 0 0 0 0 0 0 0 0 8 8 8 8 8 7 8 8 w e e Q Q Q r r Q Q R m m e w w w w w w e e e m R R R R R h m b w 5 3 3 3 b n m m m m m m W W W W W W ^ ^ ( ( ( ( ( ( ' ' ' ' ' N.N.N.N.M.Z.Z.Z.Z.Z.J.D.U.U.U.U.m.m.m.m.m.m.>X>X>X7X7X7X7X7X7X7X9X9X5X5X4X4X9X9XeXrXrXbXbXZXZXZXZXZXZXZXbXbXbXrXrXbXbXzXzXvXvXvXcXcXcXcX(./.Y.L.P.P.P.I.I.I.I.I.I.I.f.f.H.H.H.H.H.I.I.I.I.I.I.I.I.I.I.I.I.I.I.I.I.I.I.I.I.I.I.P.P.P.T./././././././././.^.^.^.(.(.^.^.^.7X7X7X7X7X7X7X7X7X7X4X4X4X4X4X4X5XqXqXqXqXqXqX9X5X5X6X6X6X6X6X6X5X4X5XqX7X7X7X7X7X7X7X7X7X7X7X^.^.^.^.^.^.^.^.^.^.^.^.^.Y.Y.P.P.P.P.P.P.P.P.P.P.P.P.P.K.K.K.K.H.H.H.H.H.H.G.G.G.V.y.g.e.e.e.e.e.k.C.H.C.C.C.C.C.C.s.y.e.e.r.r.I r.t.V.V.V.s.s.V.V.k.r.g.g.g.g.g.v.b.L.L.Y.U.U.W.n.n.n.W.W.7X^.^.^.^.7X7X7X7X7X7XW.W.W.W.m.W.n.n.n.v.v.v.v.v.v.v.g.g.g.g.g.e.e.H e.e.Y Y Y Y Y Y G F F D c x x x x x x c c c c v v v v v C C C C C C C C C M M C C C C C C C C C M M M M M b b b b b w z z 0 0 0 0 0 0 0 0 0 0 0 0 0 0 0 9 7 9 9 9 0 0 0 0 0 0 0 0 0 9 9 7 7 ; ; ; ; ; ; ; ; ; < 9 7 7 7 < < < < < < : : : 8 8 : ; : ; ; ; ; ; = ; = ; ; 7 ; 7 7 7 7 7 7 7 7 7 7 7 7 7 : : ; ; = = = = = = = = ; ; ; ; ; ; ; = = = ; = = = = = = + O O O O . . . . X X X X X     . . . . X X X X # # # # # X $ & & > , i i a i 2 , - = + + + + @ @ @ + + + @ @ @ 7 ; = + + o : o     . . .         ",
"      . = X .                                             . . .   . . . . . . . . . . . . . . . . . X X X X . . . . X X X O O O O # O O O O # # # # # # # # # # # # # # # # # # # # # = = * * : 4 4 6 6 6 6 6 4 4 4 4 * : * * * * 4 4 4 4 4 6 6 4 4 4 4 4 4 4 4 5 5 4 : : : : 8 0 0 8 0 0 0 0 8 8 8 8 w w w w w w e w w w w w w w w 8 8 0 0 0 0 0 0 8 8 8 8 7 8 8 0 w e m Q Q r r r m Q R e e e w w w w w e m Q R R R R Q R R e n b 0 0 3 3 3 b n m m m m W W W W W W W W W ^ ^ ^ ~ ~ ^ ( ^ ( ' ' ' ' ' ;.N.N.N.M.Z.Z.Z.Z.Z.D.D.D.U.U.U.m.m.m.n.n.m.>X>X1X7X7X7X7X7X7X9X9X5X4X5X5X9X9XrXrXrXZXZXbXZXZXZXZXZXZXZXbXrXrXbXbXbXzXzXvXvXvXcXcXkXkX(./.Y.P.P.P.P.I.I.I.I.I.I.I.I.I.I.f.I.I.I.I.I.I.I.I.I.I.I.I.I.I.I.I.I.I.I.I.I.I.I.I.I.I.I.I.P.T.Y././././.~./././.^.^.^.^.(.^.7X7X7X7X7X7X7X7X7X7X7X7X4X4X4X4X4X4X9XqXqXqXqX9X5X5X6X6X6X6X6X6X6X4X4XqX7X7X7X7X7X7X7X7X7X7X7X^.^.^.^.^.^.^.^.^.^.~.^.Y.Y.Y.Y.Y.P.P.P.P.P.P.P.K.K.H.H.H.H.K.K.H.G.G.G.G.G.H.G.G.V.V.k.e.e.e.e.e.e.j.V.C.C.C.C.C.C.C.s.t.r.e.e.r.G r.y.k.V.V.s.s.C.V.k.y.g.g.g.g.g.v.b.L.L.Y.Y.Y.m.n.n.n.W.W.W.^.^.7X^.7X7X7X7X7X^.^.W.W.W.W.W.n.n.n.v.v.v.v.v.v.c.j.j.g.g.e.g.e.H H H H Y Y Y Y G I I F F F x x x x x x c c c v v c c c v C C C C C C C C M M M M C C C C C C C C M M M M m b b b b b b w 0 0 3 3 3 3 0 0 0 0 0 0 0 0 0 0 0 9 9 9 9 9 9 9 9 9 0 0 0 0 9 9 8 7 7 < ; ; ; ; ; ; ; 7 7 7 7 7 7 7 8 7 < < : : 7 : ; ; ; 7 7 7 7 ; = = = = = ; 7 7 7 7 7 7 7 7 7 7 7 7 7 7 7 7 7 : ; ; ; = ; = = = = ; ; ; ; ; ; ; ; ; ; ; ; = = = = = = = = # O X X X X X X X X X X   . .   . . . X X X # # # X . . . . $ & > > i p c i 1 - # . . . + + + + + ; 7 @ @ @ ; + + o o : o .   . . .         ",
"      . = X .                                           . . . . . . . . . . . . . . . . . . . . . X X X X X X X . X X X O O O O O # # # # # # # # # # # # # # # # # # # # # # # $ # = = = * : 4 4 6 6 6 6 6 6 6 4 4 * * $ o : * 4 4 6 6 6 6 6 6 6 4 4 4 4 4 4 4 4 5 4 4 : : : : 0 0 8 0 0 8 8 w 8 8 w w w w w e e e w w w w w w w 8 8 8 0 0 0 0 0 8 8 8 8 8 8 0 e e Q Q Q Q r r r r Q e e w w 0 0 0 w w e R Q Q R m h R m m w w 0 0 0 3 3 3 f m m W R R W W W W W W W W W W ^ ^ ^ ^ ^ ^ ^ / ( ` ` ` ` ;.;.M.M.M.Z.Z.Z.Z.Z.Z.D.D.D.D.z.z.m.n.n.n.n.>X1X1X7X7X7X7X7X7X9X9X4X5X4X4X5X9XeX0XrX0XbXbXbXbXZXZXZXZXbXbXrXrXrXbXbXbXbXvXvXvXcXcXcXkX(././.P.P.P.P.I.I.].].oX].].I.I.I.I.f.I.I.I.I.I.I.I.I.I.I.I.I.I.I.I.I.I.I.I.I.I.I.!.!.!.~.P./.P.P.~.~.~.~.~.~.^.^.^.^.^.^.^.^.^.7X7X7X7X7X7X7X7X7X4X4X4X4X4X4X4X4X4X7XqXqXqX7X4X4X4X6X6X6X6X6X6X6X4X4X7X7X7X7X7X7X7X7X7X^.^.^.^.^.^.^.^.^.^.^.^.^.^.^.Y.Y.Y.Y.Y.P.P.P.P.P.P.P.P.J.J.H.H.H.K.K.H.G.V.V.C.C.C.C.V.G.G.V.g.e.e.e.e.e.r.s.f.C.C.C.C.s.C.C.s.r.G G e.G G r.h.V.V.s.s.C.C.V.k.r.e.g.g.g.g.v.b.L.Y.Y.Y.W.m.m.n.m.W.W.W.^.7XW.^.7X7X7X7X^.^.4XW.W.W.W.E.n.n.n.v.v.v.v.c.c.v.j.j.g.g.g.e.H H H H Y Y Y G G I Y L F F x x x x x x l l l l z c c z z C v C C C C v v M M M C M M M M M M M M M b b b b b b b b b b w 3 3 3 3 3 3 3 3 3 0 w w w b b 0 0 0 9 9 9 7 9 9 9 0 0 q q 0 0 0 0 8 7 7 ; ; ; ; ; ; ; ; ; < 7 9 7 8 7 7 7 < ; ; ; ; ; ; ; ; 7 7 7 ; ; ; ; ; ; ; 7 7 7 7 7 7 7 7 7 8 8 8 8 7 7 7 8 7 : ; ; ; ; = = = = ; ; = = = = ; ; ; = ; ; : : : : = = = = # = + + + X X X # X X X           .               . . . . X # X . O o # > i s c c 2 , $ o     O + = 7 7 7 @ @ + o o o : o .   . . .         ",
"      . O X .                                             . .     . . . . . . . . . . . . . . . . X X X X X X X X X O O O O O O X O O O O O O # # # # # # = = # # # # O # # # # = = = = : 4 4 6 6 6 6 6 4 4 4 : : : : * : : 4 4 4 4 6 6 6 6 6 6 4 4 4 4 4 4 4 4 4 4 : : 8 8 8 8 8 8 8 8 8 8 8 8 8 8 8 w w w w w w w w w w w w 8 8 0 8 8 8 0 0 9 9 7 7 7 0 w e m e e r m r Q Q Q m e e w w 0 w 5 5 e e e r r r r R R R m w w w 0 0 0 < 3 b b m m m R R R W W W W W W W W W W ^ ^ ^ ^ ^ ^ ^ ( ( ` ` ` ` ' {.FXFXB.Z.Z.Z.Z.Z.Z.Z.Z.D.z.z.m.m.m.m.>Xm.>X1X1X1X1X7X7X7X7X7X4X4X5X4X4X9X9X0X0XrXrXrXZXPXPXAXbXZXiXiXiXrXrXrXbXbXbXbXvXvXcXcXcXkX8X/./.~.L.P.P.P.P.I.I.].].].].I.I.I.I.R.R.R.R.I.I.I.I.I.I.I.I.I.I.I.I.I.I.I.I.I.I.I.I.I.P.P.P.L.L.L.L.L.L.^.^.^.^.^.^.^.^.^.^.^.^.^.^.^.^.^.7X4X4X4X4X4X4X6X4X4X4X4X4X7X7XqXqX7X7X4X4X6X6X6X6X6X6X4X4X7X7X7X7X7X7X7X7X7X^.^.^.^.^.^.^.^.^.^.^.^.^.U.U.Y.U.U.L.L.L.L.L.L.L.L.L.J.J.J.J.J.K.K.K.K.K.H.H.H.G.H.H.C.C.C.V.C.k.y.y.y.y.y.y.s.s.C.C.C.C.a.a.C.C.r.r.G G G G I y.s.s.C.C.C.V.V.V.k.u.g.g.g.g.x.v.v.v.m.m.n.n.n.n.W.W.W.W.W.W.W.^.^.^.7X7X7X0XKXKX^.^.W.m.m.n.n.x.x.x.x.v.v.j.j.j.j.j.j.g.r.r.r.r.Y G Y G G F sXFXfXF D x x x c x c c c c c c c c c c v v C C C v C C M M C C M C C C C M M M b b b b b b b b b b 0 3 3 3 3 3 3 3 3 3 3 0 w w w 0 0 0 0 0 0 0 9 9 9 9 7 9 9 9 9 q q 9 9 9 7 9 7 < ; ; ; ; ; ; ; 7 7 9 7 7 7 7 7 7 7 7 ; ; ; ; ; : : : : ; 8 8 ; ; 8 8 7 7 7 7 7 7 7 7 8 8 8 8 7 8 7 7 7 7 ; ; ; ; ; ; ; = = = = = = = = = = = = = = = = = = = = = + + + + + + O O O X X . . . .                       . . . . . . . . . . . # $ > , p p p i i = . . + + + @ 7 8 ; ; = + : o       . . X # .   ",
"      . O X .                                             . . .     . . . . . . . . . . . . . . . . . X X X . X X X O O O O O X X O O O O O O # # = # = # O O # O O O O X # # = # # = = * 4 6 6 6 6 6 4 4 4 : * : : * 4 4 4 4 4 4 6 6 6 6 6 6 6 4 4 4 4 4 4 4 : 4 4 4 : 8 8 8 8 8 8 8 8 8 8 8 8 8 8 8 w w w w w w w w 0 0 0 0 8 8 7 7 7 8 9 9 9 7 8 8 8 w e e Q m r r r r r Q m e e w 0 0 0 w w 5 e m R R r r r R R e e w 3 3 3 0 3 3 5 b m m m R R R R W W W W W W W W W W ^ ~ ^ ( ( ( ( ( ( ' ' ` ` S.LXUXxXM.Z.T.2X2X2X2X2X2XU.z.z.z.m.m.m.m.m.U.1XHXKX8X7X7X7X7X4X4X4X5X4X4X9X9X0X0XrXrXrXbXHXUXIXbXbXiXrXrXrXrXbXbXbXbXcXvXvXcXcXkX8X(./.~.Y.L.P.P.P.I.I.I.I.].].].R.I.I.I.R.I.I.I.I.I.I.I.I.I.I.I.I.I.I.I.I.I.I.I.I.I.I.P.P.P.P.L.L.L.L.L.b.m.m.W.^.^.^.^.^.^.^.^.^.^.^.^.^.^.^.W.W.4X4X4X4X4X6X4X4X4X4X4X4X4X4X4X4X4X4X4X4X6X6X6X6X4X4X4X7X7X7X7X4X7X7X7X^.^.^.^.^.^.^.^.^.^.^.^.U.Y.U.U.Y.Y.Y.L.L.L.L.L.L.L.L.L.J.J.J.J.J.K.K.H.K.G.H.H.H.H.G.H.C.C.C.C.C.V.V.s.s.s.s.s.s.s.s.f.C.C.a.a.a.C.y.r.G G G G I r.t.s.V.V.V.V.V.V.k.u.g.g.g.g.g.v.v.v.m.n.n.n.n.n.W.W.W.W.W.W.W.W.W.4X4X4X7XPXUXbX^.^.8X7X7X7X7X7X^.m.x.v.v.U.Y.Y.T.T.U.j.j.r.r.r.Z.T.T.h.G H o.IXUXF.D c c c c c c c c c c c c c c c v v C C C v C M v M M C M C C C M M M M b b b b b b b b b b 0 3 3 3 3 3 3 3 3 3 3 0 0 0 0 0 0 0 0 0 0 q 7 7 9 9 9 9 7 7 9 9 0 9 9 9 9 7 7 7 < ; ; ; ; ; ; ; 7 7 7 7 7 7 8 7 7 7 ; ; ; ; ; ; : : : ; 8 8 8 8 7 7 7 7 7 7 8 7 7 7 8 8 8 8 7 7 7 7 7 7 7 ; 7 7 ; ; ; ; = = = = = = = = = = = = = = = = + + = + + + + + + + O O O X X . X X X                               . . . . .       . # % , u i i u u , $ X + + + + @ : ; : : : o     . .           ",
"      . O X .                                             . . . . . . . . . . . . . . . . . . . . X X X X X X X X X O O O O O X X O O O O O # # # # # = O O O O O O X # O # # # = = = : : 4 6 6 6 6 6 4 4 * * * * * * 4 4 4 4 4 6 6 6 6 6 6 6 6 6 4 4 4 4 4 4 4 : : : : 8 8 : : 8 : 8 8 8 8 8 8 8 8 w w w w w w w w 8 8 8 7 7 7 7 7 7 7 7 8 8 8 8 8 0 w e e m Q r r r m m Q m m e w w 0 0 0 w w e e e m Q m m m e e e w 3 3 3 < 9 0 f n m m R R R R R W W W W W W W W W W W W ~ ( ( ( ( ( ( ' ' ' ' ' sXUXLXN.N.sXUXUXUXUXUXUXUXzXz.m.m.m.m.m.U.U.U.1XUXUX8X7X7X4X4X4X4X4X4X4X5X9X9X0X0XrXrXbXbXbXIXUXAXrXrXrXrXrXbXbXbXbXzXvXvXcXcXcX8X8X(./.^.Y.P.P.P.I.I.I.].].I.I.R.I.I.I.I.I.f.f.f.I.I.I.I.I.I.I.H.I.I.I.I.I.I.I.I.I.I.P.P.P.P.K.J.J.J.L.L.L.L.L.L.L.L.L.U.U.U.U.^.^.W.W.^.^.^.W.W.4X4X4X4X4X4X4X4X4X4X4X4X4X4X4X4X4X4X4X4X6X6X6X6X6X4X4X4X7X7X7X4X4X4X7X^.^.^.^.^.^.^.^.^.^.^.^.^.Y.Y.Y.Y.Y.Y.Y.L.P.P.P.P.P.P.K.P.K.K.H.K.K.K.H.H.G.G.H.H.H.H.H.C.C.C.C.C.C.V.V.V.s.s.s.s.s.f.f.f.s.i.a.a.a.s.t.r.I G G G G r.t.y.s.s.s.s.s.s.y.u.g.g.g.g.g.x.v.v.m.m.m.m.m.m.n.n.m.W.W.W.W.4X4X4X4X4XbXUXPXW.W.zXUXUXUXUXUXUXUX8Xx.zXUXUXUXUXUXUXxXj.r.r.T.IXUXUXUXUXxXo.F sXUXLXF c c c c c c C C c B B c c c c c c C v v v M M M M M C C C C C M M M M b b b b b b b b b w w w 5 3 3 3 3 3 0 0 0 0 0 0 0 0 0 0 0 0 0 0 9 9 7 9 7 7 7 7 7 7 9 9 9 9 9 9 8 9 < < ; ; ; ; ; ; ; < < 7 7 7 8 7 7 7 ; ; ; ; ; ; ; ; ; 8 7 8 7 8 8 8 7 7 7 7 8 8 8 8 8 8 8 8 8 8 7 8 7 7 7 7 7 7 7 ; ; ; ; ; ; ; ; = = = = = = = = = = = + = = = = + + + + + O O O O O X X X . X .                           . . . . . . . . . . # % % > > 1 s A s , # .   o + + 7 @ @ : o O X X .           ",
"      . O X                                               . . . . . . . . . . . . . . . . . X X X X X X X X O X X X O O X O O X X O O O = = # # # # # # O O O O O O O # # # # $ = = : : : 4 4 6 6 6 4 4 4 4 * * * 4 4 4 6 6 6 6 6 6 6 6 6 6 6 6 6 4 4 4 4 4 4 4 4 4 4 : 8 8 : 8 : : 8 8 8 8 8 8 8 8 0 w w w w w w w 8 8 8 8 8 8 0 0 8 8 8 0 w w w w e e e m r r r m Q m e e e w w 0 0 0 w w e e e Q m r r r R m e e w 0 3 3 3 3 0 b m h m R R R R R R R W W W W W W W W W ( ( ( ( ( ( ( ( ( ( ' ' ' ' LXUXxXM.M.sXUXUXUXUXUXUXUXzXD.J.U.U.U.U.U.U.U.U.UXUX8X7X7X4X4X4X4X4X4X4X9X9XrX0X0X0X0XbXbXbXKXUXPX0XrXrXrXbXbXbXzXcXzXvXcXcXcXkX8X(./.~.Y.P.P.P.I.I.I.].].].].].].].].].].].].].I.I.I.I.I.I.I.I.I.I.I.I.I.I.I.I.I.I.I.I.I.I.I.T.T.T.T.Y.Y.Y.Y.Y.Y.Y.Y.Y.Y.Y.Y.^.^.^.^.^.^.^.^.^.^.^.^.7X7X^.4X4X4X4X4X4X4X4X4X4X4X4X4X4X4X4X4X6X6X6X4X4XW.4X7X4X4X4X4X^.^.^.^.^.^.^.^.^.^.^.Y.Y.Y.Y.Y.Y.Y.L.L.L.L.P.P.P.P.P.K.K.K.K.H.K.G.G.G.G.H.G.G.G.G.H.H.H.C.C.C.C.C.C.C.C.C.C.C.C.C.f.f.a.a.C.C.C.a.a.s.s.y.r.I G G G G r.t.s.s.s.s.s.V.V.c.g.g.g.g.g.g.v.v.v.m.b.m.m.m.m.n.n.n.W.W.4X7X^.^.^.^.PXUXAXW.W.zXUXUXUXUXUXUXUX8X8XUXUXUXUXUXUXUXxXj.r.zXUXUXUXLXIXUXUXZ.F Y UXUXB.c c c B B B B B B B B B C C C C C C C C M C C C C C C C C C C M M M M b b b b b b b b b b w w w w 3 3 3 3 0 0 0 0 0 0 0 0 0 0 0 0 z z 0 0 0 9 7 7 7 7 7 7 9 7 9 9 9 9 8 7 9 < < < ; ; ; ; ; ; ; ; ; < 8 8 7 7 < ; ; ; ; ; ; ; ; ; ; : 8 8 8 8 8 8 8 7 7 7 7 8 7 7 7 7 8 8 8 8 7 7 7 7 7 7 7 7 ; ; 7 7 ; ; ; = = = = = = = = = = = = + = = = = + + + + + + O O O O O X X X X . .                       . . . . . . . X X .         . # $ % 2 u u s u , ; + + + @ @ o                   ",
"        O .                                               . . . . . . . . . . . . . . . X X . X X X X X X X X X X X X X X X O O X O O O O O # # # # # # O O O O O O # # # # # $ = = : : : 4 4 4 4 4 4 4 4 4 4 4 4 4 4 6 6 6 6 6 6 6 6 6 6 6 6 6 5 4 4 4 4 4 : : : : : : 8 8 8 8 8 8 8 8 0 0 0 0 0 0 w w w w 0 0 0 0 w w w 0 0 0 w w w w w w w w e e e e e m r r e e e e e e w 0 0 0 0 w w e e Q Q Q Q r r r m m e e w 0 0 3 3 5 n m m m m R R R R R R W W W W W W W W W W W ( ( W W ^ ^ ^ ^ ^ ( ` ` A.UXUXF.-.M.sXUXLXZ.Z.Z.z.z.z.U.U.U.zXxXzXU.U.U.zXUXUXnXzXzX7X4X4X9XAXAXAX0X9XeXZX0XbXAXAXZXrXAXUXUXrXrXrXrXbXbXbXzXbXcXcXcXcXcX8X(.^.^.Y.Y.L.P.P.P.I.I.].].].].].].I.I.I.I.I.I.I.I.I.I.I.I.I.I.I.I.I.I.I.I.I.I.I.I.I.I.I.I.P.P.P.P.P.Y.Y.Y.Y.Y.Y.Y.Y.Y.Y.Y.Y.^.^.^.^.^.^.^.^.^.^.^.^.^.^.^.^.W.W.W.4X4X4X4X4X4X4X4X4X4X4X4X4X4X4X4X4X4X4XW.4X4X4XW.W.W.W.W.^.^.^.^.^.^.^.^.^.^.^.L.U.U.L.L.L.L.L.L.L.L.L.L.P.H.H.J.J.J.G.G.G.G.G.G.G.G.V.V.V.V.V.V.V.V.V.V.V.V.V.V.C.C.C.C.s.s.a.p.V.V.C.s.s.s.s.t.r.I G G G G r.y.y.s.s.s.s.s.s.c.j.g.g.g.g.g.x.v.v.v.b.m.m.m.n.n.n.n.W.W.W.W.W.W.W.7XUXUX7XW.W.zXUXPXm.m.m.v.v.v.KXUXxXb.j.j.j.j.j.j.K.UXUXxXh.Y Y 2XzXH F F HXUXfXc c c B B B B C B B B B v c c b b C C M M M M C C C C M M M M M b b b b b b b b b b b b 5 w 3 5 5 3 3 3 3 3 0 3 3 0 0 0 0 0 0 0 0 0 0 0 0 0 9 9 7 7 < 7 7 7 7 9 7 7 7 7 7 7 7 < < ; ; ; ; = = = ; ; ; : 8 7 7 ; ; ; ; ; ; ; ; ; = ; ; : : 8 8 8 8 8 8 7 7 7 7 7 7 7 7 7 7 8 8 7 7 7 7 ; ; ; ; ; = ; ; ; ; = = = = = = = + + + + + + + + + + + + + + + + + + O O O O X O O X X . .                       . . .       . X . .         X . . % > u u u u u , ; + o o o     . .           ",
"        X .                                       .       . . .     . . . . . . . . . . . X X X X X X X X X X X . . . . . X X O O O O O O O O O X X X X O O O O O # # # # # # $ = = = * * 4 4 4 4 4 4 4 4 4 4 4 4 4 4 4 4 6 4 6 6 6 6 6 5 5 6 4 5 4 4 : : : : : : : : : 8 8 8 8 8 8 8 8 8 8 8 0 0 0 w w 0 0 0 0 w 0 w w w w w w w e e e e e e e e e N N m e e e e e e e w w 0 0 0 9 9 w e e Q Q Q Q Q Q m R m n w w w 0 0 3 5 g h m m m m m m m m m m m m V V V V V W W W W W W W W W W ^ ^ ^ / / / F.UXUXo.o.h.sXUXLXM.Z.k.z.z.z.zXPXIXUXUXUXPX7XU.UXUXUXUXUXUX0X4XZXUXUXUXUXUXZX9XIXAXUXUXUXKXrXrXUXUXbXrXrXrXbXbXbXzXzXcXcXcXcXkX8X(.^.U.L.L.L.P.P.I.I.I.I.I.I.I.I.I.I.I.I.I.I.f.f.f.H.H.H.H.H.H.H.H.H.H.H.H.H.H.H.H.K.K.P.P.P.P.K.K.K.P.P.P.P.L.Y.Y.Y.Y.Y.Y.U.^.^.^.^.^.^.^.^.^.^.^.^.^.^.^.W.W.W.W.W.W.4X4X4X4X4X4X4X4X4X4X4X4X4X4X4X4XE.W.4X4XW.W.W.W.W.W.W.W.W.W.W.W.W.W.W.W.m.m.m.m.m.m.m.m.b.b.L.L.L.L.L.L.J.J.J.G.G.G.G.G.G.G.V.V.k.k.k.k.k.k.k.k.h.h.M.M.s.s.s.s.s.s.s.s.s.i.s.s.V.i.i.s.s.y.r.G G G G G G r.y.y.y.y.y.y.y.u.u.e.g.g.g.g.g.x.v.v.v.v.m.n.n.n.n.n.E.W.W.W.W.W.W.0XUXUXW.W.W.zXUXPXm.m.v.v.v.v.PXUXzXj.g.g.g.g.g.r.xXUXHXr.Y Y Y G H H F F fXUXxXc c c c c c c c c c c c c z z z z z z z z z z v z z z z z z z b b b b b b z z z z z 0 3 3 3 3 3 3 3 3 3 3 3 3 : 3 3 3 0 0 0 0 0 0 0 0 0 0 0 9 7 7 < < < < < < 7 7 7 7 7 7 < < < < ; ; ; ; = = = = ; ; ; ; ; ; ; ; ; ; ; ; ; ; = = = ; ; : : : : 8 8 8 ; 7 7 7 7 ; ; ; ; ; ; ; ; ; ; ; ; ; ; ; ; = ; ; = = = = = = = = = + + + + + + + + + + = = + + + + + + + O O O X O O X X X . . .                               . . . .               . X % > u u u u 2 & O o O . . O . .         ",
"        X .                                       . .     . .         . . . . . . . . . . . . . . . X X X X . . . . . . . X X O O O O O O O O O X X X X X X O O # # # # # = = = $ = = = = * * : : : : : : : : : : : : * 4 4 : : : 4 4 4 4 4 : * : : : : : ; ; ; : : : : : : : : : : : 8 7 7 7 8 8 8 8 8 8 8 8 8 8 8 0 0 0 0 : : 0 3 3 5 w 0 0 0 0 0 0 w w w w w 0 0 0 0 8 8 7 7 7 9 9 w e e w w e w w e w w w w 0 0 0 9 9 0 0 f g g w 5 5 f f 5 5 f b b f f f f g g g g g g n n B B B B B B B B C L F.UXLXL Y Y 2XUXIXFXFXFXzXj.j.2XUXUXIXAXPXUXHXm.HXUXUXKXHXHX9X0XUXUXKXAXUXUXAX9XUXUXUXPXKXAX9X9XUXUXZXrXrX0XrXrXrXwXwXwXwX8X8X8X(.^.~.L.U.L.L.L.P.P.P.H.H.H.H.G.G.G.s.s.s.G.s.s.s.y.u.u.u.k.u.u.u.u.k.k.k.c.c.c.c.j.j.v.v.v.v.v.x.x.x.x.x.x.v.v.v.v.x.v.v.v.n.m.m.m.m.W.W.W.m.m.n.n.E.W.W.W.E.E.E.E.E.E.E.W.W.W.W.W.E.E.E.E.E.E.4X4XE.E.E.E.E.W.W.W.W.W.W.W.W.W.W.W.W.n.n.n.n.n.n.n.x.x.x.x.v.x.x.v.v.v.c.c.c.c.c.k.u.u.u.u.u.u.u.r.y.y.r.r.r.r.r.r.r.r.r.r.r.r.r.r.r.r.r.I r.r.r.r.I I Y I I I t.r.r.G G G G G G G I r.r.r.r.r.r.r.e.e.e.g.g.g.g.g.x.v.x.x.x.n.n.n.n.n.n.n.n.n.n.n.n.0XUXPXn.n.n.0XUXIXHXHXHXzXx.x.zXUXUXHXHXHXxXj.e.e.IXUXU.G H H H H H D D D sXUXHXx x x c x x x x l l l l l l l l l l l l l l l l l l l l 9 9 0 0 0 0 0 9 < < < < 3 3 3 3 3 , , , , , , < ; : ; ; : : : : < < < 7 9 9 9 7 7 7 7 7 7 7 ; ; ; ; ; ; ; ; ; < < < ; ; ; ; ; ; ; ; ; = = = = = ; = = ; ; ; ; = = = = = = = = = ; ; : : 8 8 8 : : 7 7 7 7 ; ; ; ; ; ; ; ; ; ; ; ; ; = = = ; = = = = = = = = = = = + + = + + + + = = = = = = = + + + + O O O X O X X . X X . . X   .                           . . . . . . . . X # # # .       X > u u u u > & O o o           ",
"        X .                                       .       . .           . . . . . . . . . . . . . . . X X X . . . . . . X X X X O X X X X X O X X X X X X X X X X # O O # # # # # # # # $ * * * : : : * * * * * * * * * : : * : : : : : * * * : = : : : : ; ; ; ; ; ; ; ; ; ; ; ; ; ; : ; ; ; ; ; ; : : : : : ; : : 7 7 7 7 ; ; < : : : : 8 8 8 : : : 3 8 7 8 9 0 8 8 7 7 7 7 7 9 0 0 w w 0 0 0 0 0 0 0 0 < < 7 9 9 9 9 9 9 0 0 0 3 3 3 3 3 3 3 3 3 3 3 3 3 p p f g g g g g g g b b b b j B B B B B F.UXLXL L Y 2XUXUXUXUXUXxXj.j.2XUXIXU.z.m.UXUXm.z.UXUX>Xn.n.>XAXUXAX4XAXUXKX4X7XUXUXAX9X9X9X9X9XUXUXZXrX0XwXwXwXwXwXwXwX8X8X8X(.^.^.L.L.L.L.L.P.P.P.P.H.H.H.H.G.G.s.s.s.y.y.s.s.y.y.y.y.u.u.y.y.y.u.u.u.u.u.u.u.u.u.u.j.j.j.c.c.x.x.v.v.v.v.v.v.v.v.v.v.v.v.v.v.v.v.m.W.m.m.m.m.m.n.n.E.E.E.E.E.E.E.E.W.W.W.W.W.W.W.W.W.E.E.E.E.E.E.E.E.E.E.E.E.E.E.E.E.E.E.E.E.n.n.n.n.n.n.x.x.x.x.x.x.x.x.x.x.x.x.g.j.j.g.j.u.u.u.r.r.r.r.r.r.y.r.r.r.r.r.r.r.r.r.r.r.r.r.r.r.r.r.r.Y I I I G I I I U r.I I I t.t.I I G G G G G G G G r.r.r.r.r.r.r.e.e.g.g.g.g.g.x.x.x.x.x.x.n.n.n.n.n.n.n.n.n.n.n.0XUXPXn.n.n.0XUXUXUXUXUXnXx.x.v.PXUXUXUXUXUXUXT.e.UXUXD.G H H H H H F D D sXUXHXc x c x x x l l l l l l l l l l l l l l l l l l l l 9 l 9 0 0 2 0 9 0 9 < < < < < 3 3 3 3 3 3 3 < , < < ; ; < ; : < < < < < < 9 9 9 9 9 9 7 9 9 7 7 7 < < ; ; ; ; ; ; ; ; ; ; ; ; ; ; ; ; ; ; ; = ; ; = = = = = = ; ; = ; = = = ; ; = ; ; ; ; ; : : : : : : 7 7 7 ; ; ; ; 7 7 ; ; ; ; ; ; ; ; = = ; ; ; = = = = = = = ; = = = = = = = = = = + = = + + + + + + O O O O O O O O O O . . X X . . . .         . .               . . . . . . .       . X # # # # # > 2 > > > > & X         ",
"        X .                                               . .   . .     . . . . . . . . . . . . . . . X X X . . . . . X X X X X X X . . . X X X X X X X X X X X # # O O O X O # # O O # $ * * 4 4 4 4 4 * * * * * * * * : : : : : : * : * * : : = = : : : : : ; ; : : : ; ; ; ; ; : : : ; ; : : : : : : : : : : : : 7 7 7 7 7 8 8 8 8 0 0 0 0 0 0 0 0 0 0 0 9 8 8 8 8 9 9 9 8 0 0 w w e w w 0 0 0 0 0 0 0 8 8 0 0 0 0 9 0 0 0 0 0 3 3 3 3 3 5 5 5 5 5 5 f f f f g g g h g g g g n n n n n n B B B B F.UXIXL L Y 2XUXIXzXzXzX2Xj.j.2XUXPXj.z.z.UXUXm.m.UXUX>Xn.n.n.KXUX0XZXUXPX9X7X7XUXUX0X9X9X9X0X0XUXUXbX0XwX0XwX8X8X8XwX8X8X8X8X(.^.~.~.L.L.L.P.P.P.I.H.H.H.H.H.H.H.H.G.s.s.s.s.s.s.s.s.s.s.V.s.s.s.s.k.k.k.k.k.k.k.k.u.u.c.c.c.c.c.c.c.c.c.c.v.v.v.v.v.v.v.v.v.v.v.v.m.m.m.W.m.m.m.n.n.n.E.E.E.E.E.E.W.W.W.W.W.W.W.W.W.W.W.E.E.E.E.E.E.E.E.n.W.W.E.E.E.E.n.n.n.n.n.n.n.v.v.v.v.v.v.v.v.x.v.x.v.v.v.v.c.c.j.c.k.k.k.u.y.u.y.y.u.u.y.y.y.y.y.y.y.y.y.y.y.y.y.t.y.y.y.r.r.r.r.r.r.r.r.r.t.t.t.t.t.t.t.t.t.I G G G G G G G G r.r.y.y.y.y.y.r.u.g.g.g.g.g.g.x.x.x.v.v.v.v.m.n.n.n.n.E.n.n.n.0XUXIXm.m.m.0XUXIXzXzXzX8Xv.v.v.v.8XzXzXzXLXUXIXe.IXUX2XG Y G G H H F F F fXUXFXc c c c c c c z z z z z z z z z z z z z z z z l l l z z z z z 0 0 z z 0 0 0 3 3 3 3 3 3 3 3 3 3 3 < < < < < < < < < < 3 3 8 8 9 9 9 9 7 7 8 8 7 8 7 9 9 7 < ; ; ; ; ; ; ; ; ; ; ; ; ; ; ; ; ; ; ; ; ; = = = = = ; ; ; ; ; ; ; ; ; ; ; ; ; ; ; ; ; ; ; : : : : 7 7 7 7 7 7 7 7 ; ; ; ; ; 7 ; ; ; ; ; ; ; ; = = = = = = ; = = = = = = = = = = + + = = = = = + + + O O O O O O O O O X X X X . . . . .         .                                     X X $ . . . . & > > > > > $         ",
"        X .                                               . .     . . .     . . . . . . . . . . . X X X X X . . . X X X X X X X X . . . . . X X X X O O O O O O O # # O X O O O O O # $ * 4 4 6 6 4 4 4 4 4 4 4 : * : * : : 4 4 4 4 4 4 4 : : : : : : : : : : : : : : : : : : : : : : : : : : 0 8 8 0 0 0 0 0 0 0 0 8 0 0 0 0 0 0 w w w w e e e e w w w w w 0 0 8 7 7 7 7 7 0 w w e e m N e e e e e e e w w w w w w w w w w w w w w b n n n n m m m m m h m m m m m m m m V V V V V V V V V V K K K A.UXUXN.T T sXUXLXh.h.h.h.k.j.sXUXPXb.b.z.UXUXU.m.IXUX>Xn.n.n.KXUXAXUXIX9X7X7X7XUXUX0X0X0X0XwXbXUXUX0XwX0XcXcXkXcXkXkXkXkX8X(.(.^.^.~.~.L.P.P.I.I.I.I.I.I.I.I.f.f.f.f.f.f.f.f.f.f.f.f.f.f.f.f.f.f.f.f.f.f.H.H.H.H.H.H.H.H.H.H.H.H.H.H.H.H.H.H.P.P.P.P.L.L.L.L.L.L.L.L.L.~.~.Y.L.m.m.W.W.E.E.m.W.W.W.W.W.^.^.^.^.^.^.^.^.W.E.E.E.E.E.E.E.E.m.W.W.W.m.W.W.m.m.m.m.m.m.m.m.m.m.m.b.b.b.b.b.b.b.b.b.b.c.c.c.c.G.c.c.G.G.G.G.V.V.G.G.G.V.V.V.y.y.y.y.y.s.y.t.i.i.i.i.i.s.s.i.i.t.t.t.t.t.i.i.i.i.i.i.p.p.i.t.I G G G G G G I r.t.y.y.y.t.y.y.u.u.u.g.g.g.g.g.x.v.m.m.v.v.m.m.n.n.n.n.m.m.W.7XUXUX^.m.m.zXUXPXm.b.m.b.b.b.b.c.c.k.j.j.b.UXUXb.xXUXHXh.Y Y Y I Y J F J FXUXfXJ B B B B B B B B B B b z z z z b b b b b b z z z z z z b b b b b b b b b b b b b b w 3 3 3 3 3 3 3 3 3 3 3 3 3 0 0 0 0 0 0 0 0 0 0 0 0 0 0 0 0 0 0 0 9 7 8 7 < < ; ; ; ; ; ; ; ; ; ; < 7 7 7 7 ; ; ; ; ; = = ; ; ; ; ; ; ; ; ; ; ; ; ; ; ; ; ; ; ; ; ; ; ; ; ; 7 7 7 7 7 7 7 7 7 7 7 7 7 7 7 7 7 7 7 7 ; ; ; ; ; ; ; ; = = = = = = = = = = = = = = = = = = + + + + O O O O O O O O O X O . . . . . .     . . .                                         # % #   X . . $ % $ # X .     ",
"        X                                                 . . . . .   . . . . . . . . . . . X X X X X X X X X X X X O O O X . . . . . . X X X X O O # # O + + = # # # # # # # $ $ $ = * : 6 6 6 6 6 6 6 6 6 4 4 4 : * : : : 6 6 6 6 6 6 6 5 5 5 4 4 4 4 4 4 4 4 4 4 4 4 w w w w w w w w w w w w w 0 0 0 0 0 0 0 0 0 w w w w w w e e m m R m e 6 6 6 e e e e w : 8 8 8 7 9 0 w e N Q Q Q r Q Q Q Q Q Q Q r r Q Q Q R R R R R R R R R m m m m R R R R R R R R W W W W W W W W W W ( ( ( ( ( ( ( ( ( ( ( IXUXsX` -.sXUXLXT.T.T.2X2XT.sXUXLXD.U.U.UXUXT.U.HXUXHX1X>Xm.bXUXUXUXzXzXPX0X8XUXUXzX0X0X0XwXAXUXIXwX8XcXcXcXcXcXkXkXkXkXkX(.(./.Y.~.~.P.P.I.I.I.I.].].].].R.I.I.I.I.f.f.f.f.f.f.f.f.f.f.f.f.f.I.I.C.I.I.C.C.C.H.C.H.H.H.H.H.I.H.H.I.I.H.H.H.H.K.K.K.P.P.P.K.K.K.K.P.Y.Y.Y.P.~.~.m.n.n.n.n.n.n.m.m.^.^.^.^.^.^.U.U.U.U.W.W.E.E.n.n.n.n.E.W.W.W.U.L.L.L.L.Y.L.L.L.L.L.P.P.L.L.P.P.P.H.H.H.J.J.J.H.H.G.G.G.H.H.G.C.C.C.C.C.C.C.C.C.C.C.V.C.C.C.C.s.a.a.a.a.a.a.i.i.a.a.a.a.a.p.p.p.a.p.p.p.a.a.a.p.a.a.p.U I G G G G G I t.i.s.p.s.s.V.V.s.y.u.e.g.g.g.g.x.b.L.U.L.L.m.m.m.n.n.x.n.m.m.m.IXUXzXm.m.zXUXPX8X8X8X8X8XU.b.T.T.T.T.T.xXUXIXr.Z.UXUXLXD.Y T sXFXJ L T UXUXT.C V V V V V V V m V V m B B B B B b b b b b b b b b b b b b b b b b b n b b n n b b g f 5 5 5 5 3 3 3 3 3 5 5 3 0 0 0 0 0 0 0 0 0 0 0 0 0 0 0 0 0 0 0 0 0 0 8 7 < < ; ; ; ; ; ; ; < 7 7 9 9 8 7 7 7 < < ; ; ; = = = ; ; ; ; ; ; ; ; ; ; ; ; ; ; ; ; ; = = ; ; ; 7 7 7 8 7 7 7 7 7 7 7 7 7 7 7 7 7 7 7 7 7 7 ; ; ; ; ; ; ; ; ; ; = = = = = = = = = = = = = = + + + + O O O O O O O O O O O . . . . . . . . X X X                         . .           .         O                     ",
"                                                    . . . .   . . . . . . . . X . . . . O O O O O O O O O O O O O O O O O X X . . . . . O O O # $ $ $ $ = = = = # O O O O # # $ = = : : 4 6 6 6 6 6 6 4 4 4 4 * * * : : 4 4 6 6 6 6 6 6 6 6 6 4 4 4 4 4 4 4 4 5 4 5 5 5 w w 8 8 4 : 3 w 0 w w w 0 0 0 0 0 0 0 0 0 0 w w w w w e e e e e e e e e e e e e e w 0 8 7 7 8 8 w e e e Q Q Q r r Q Q Q Q N N m e e e e m m R R R R m e m m m m m h h R R R R R R R R R W W W W W W ^ ^ W ^ ^ ( ( ( ( ( ( ( _ xXUXFX` ` sXUXUXUXUXUXUXUXsXsXUXLXZ.K.K.UXUXT.U.8XUXUXUXUX0X>XPXUXUXUXUXUXHX7XUXUX0X0XwXwXwXIXUXAXwX8X8XcXcXcXkXkXkXkXkX8X(./.Y.Y.~.~.L.P.I.I.I.].].].].I.I.].R.R.I.I.f.f.f.f.f.f.f.f.f.f.f.f.f.f.f.f.f.f.f.f.C.H.H.H.H.H.I.H.H.H.H.I.I.I.H.I.K.K.K.K.P.P.P.P.P.P.P.P.P.L.L.~.m.m.m.m.n.n.n.n.m.m.L.^.^.^.^.^.^.^.U.Y.W.E.E.E.n.n.n.n.E.W.W.^.L.L.L.L.L.Y.L.L.L.L.P.L.L.L.L.L.L.L.L.H.H.G.G.G.G.G.G.G.G.G.H.H.G.C.C.C.C.C.C.V.V.V.V.s.s.s.s.s.s.s.s.s.s.s.s.p.p.p.p.i.i.i.i.i.i.i.p.p.a.a.a.a.p.p.a.p.i.I G G G G G G I y.s.s.s.s.s.s.s.t.y.r.g.g.x.x.g.v.b.L.L.L.L.m.m.n.n.n.n.n.n.m.AXUXHXm.m.zXUXUXUXUXUXUXUXkXT.UXUXUXUXUXUXUXzXj.r.2XUXUXUXUXUXUXUXD.J T.UXUXP L C C B B B B B B B B b n b z z z z z b b b b b b b b b b b b b b b b b b b b b f 5 5 5 5 w w 5 3 3 3 3 3 3 3 3 0 0 0 0 0 0 0 0 0 0 0 0 0 0 0 0 0 0 0 0 0 0 8 8 < ; ; ; ; ; ; ; ; ; ; < 7 7 7 7 7 7 < 7 < ; ; ; = ; = ; = ; ; ; ; ; ; ; 7 ; ; ; ; ; ; ; = ; ; ; ; ; 7 ; 7 7 7 7 7 7 7 7 7 7 7 7 ; ; ; 7 ; ; ; ; ; ; ; ; ; ; ; ; ; ; = = = = = = = = = = = = = + + O O O O O O O O O O O O O O O . . X X . . .                                                                         ",
"                                                    . . . . .   . . .   . . . X . . . . O O O O O O O O O O O O O O O X X X X . . . X X O O O $ $ $ $ $ = = = O O O O O O # # = = : * 4 4 6 6 6 6 6 6 4 4 : : * * : 4 4 6 6 6 6 6 6 6 6 6 6 6 4 4 4 4 4 4 4 4 4 4 4 w w 8 8 8 : : : : 3 0 3 3 0 0 0 8 8 8 8 8 8 8 8 0 w 5 5 w e e e e e e e e e e e e e w 0 8 7 7 8 8 e e e N Q N N N N Q Q N N m M e e 0 8 w e e m m m m e e e m m m m m m h R R R W W R R R W W W W W W W W W W W W ^ ^ ^ ^ ^ ^ ) ) F.UXUXF.T sXUXUXUXUXUXUXUXsXsXUXLXK.K.K.UXUXT.U.m.1XHXUXUX0X>X7XAXUXUXIXAX8X8XUXUX0X7X7X7XbXUXUX0X8X8X8XkXkXkXkXkXkXkXkX(./.^.Y.Y.^.Y.L.P.P.I.I.].].].I.I.I.R.R.I.f.f.f.f.f.f.f.f.f.f.f.f.f.f.f.f.f.f.f.f.f.f.f.f.f.H.H.H.H.H.H.H.H.H.I.H.I.H.K.K.J.J.L.L.L.L.L.L.L.L.L.L.b.b.b.m.m.m.n.n.n.n.n.m.m.L.^.^.^.^.^.^.Y.U.m.E.E.n.n.n.n.n.n.W.^.~.L.L.L.L.L.L.L.L.L.L.L.L.L.L.J.J.J.J.G.G.G.G.G.G.G.G.G.G.G.G.G.H.H.C.C.C.C.C.V.V.s.s.s.s.s.s.s.s.s.s.s.s.i.i.i.i.i.i.i.i.i.i.i.i.t.t.i.p.p.p.a.p.p.p.p.p.p.T G F F G G A G r.V.s.s.s.s.s.s.M.k.y.g.g.x.x.e.v.v.b.L.L.L.L.m.m.n.n.n.n.n.m.8XUXUX8Xm.zXUXUXUXUXUXUXUXkXT.UXUXUXUXUXIXkXj.j.r.r.D.FXUXUXUXIXsXY J LXUXxXJ B B B B B B B B B B c z z z z z z z z z b b b b b b b b b b b b z z z z z b b b 5 5 5 5 5 5 w w 3 3 3 3 3 3 3 3 0 0 0 0 0 0 0 0 0 0 0 0 0 0 0 0 0 9 9 9 9 9 7 7 7 ; ; ; ; ; ; ; ; ; ; ; < 7 7 7 7 7 8 7 < < ; ; ; ; = ; = = ; ; ; ; : 7 7 : : ; ; < < ; ; ; ; ; ; ; ; ; ; ; 7 7 7 7 7 7 7 7 7 7 7 ; ; ; ; ; ; ; ; ; ; ; ; ; ; ; ; ; ; ; ; ; ; = = = = = = = = + + O O + + O O O O O O O O O O O O O O O . . .                                                                         ",
"                                                    . . . . .           . . . . . . O O O O O O O O O O O O O O O X X X X . . X O X X O O $ = = $ $ $ $ # O O O O O O O O # # = = = : * : 4 4 6 6 6 6 4 4 * * * : 4 4 6 6 6 6 6 6 6 6 6 6 4 4 4 4 4 4 4 4 4 4 4 4 : : : : : : : : : : : : : : : : : : : : : : : : : 3 5 4 5 e e e e e e e e e e e e w w 0 8 8 7 0 0 e e e e Q Q N Q Q Q Q N e w 0 0 0 0 0 w w e e e m m m m e m m m m m m m R R R R W R W W W W V m m h m h g n m V V V V V V V K K K J FXUXFXL L Y Y Y o.o.h.h.h.h.Z.Z.K.K.K.K.U.U.m.m.m.n.n.n.m.m.1X7X7X8X8X7X7X7X7X7X7X7X7X7XPXUXHX8X8X8XcXkXkXkXkXkXkXkX8X(.^.Y.Y.Y.L.L.P.P.I.I.I.I.I.I.I.I.I.f.I.f.f.f.f.f.f.f.f.f.f.f.f.f.f.f.f.f.f.f.f.f.f.f.f.f.H.H.C.H.H.H.H.H.H.H.H.H.H.H.H.H.G.c.c.c.c.c.b.b.b.b.b.v.v.v.v.m.m.m.n.n.n.m.m.m.L.^.^.^.^.^.U.U.U.U.m.n.n.n.n.n.n.n.n.m.W.L.L.L.L.L.L.L.L.L.L.L.L.L.L.L.L.J.J.G.G.G.G.G.G.G.G.G.V.G.G.V.G.G.G.C.V.V.V.V.s.s.s.s.s.s.t.t.y.t.y.y.t.t.y.t.y.t.t.t.t.t.t.t.t.t.r.r.U ` i.p.p.p.p.p.p.a.p.` I F F G G G G I t.s.s.s.s.s.s.M.k.j.e.g.g.g.g.x.v.v.b.b.m.L.m.m.m.n.n.n.n.n.m.HXUXHXm.m.v.v.b.b.b.b.v.v.c.c.c.k.k.k.j.j.j.r.r.r.Y G Y Z.M.Y F F F.UXUXX.c c c c s s s p p p p p p 2 2 i 1 l l l z z z z b b b b b b b z 0 0 0 0 0 3 0 0 5 5 5 5 5 5 5 5 5 5 3 3 3 3 3 3 3 3 3 3 0 0 0 0 0 0 0 0 9 9 9 9 9 9 9 9 7 7 9 7 < < ; ; ; ; ; ; ; ; ; ; ; < < 7 7 7 7 8 7 : < < ; ; ; = = = = = = ; ; ; 7 8 : : ; ; : : : : ; ; ; ; ; ; = = = 7 7 7 7 7 7 7 7 7 7 7 ; ; ; ; = = = = = = = = = = ; ; ; ; ; ; ; ; = = = = = = = = + + + + + + + + + + O O O O O O O O O O O O . . .                                                                       ",
"                                                    . . . . . .         . . . O O O O O O O O O O O O O O O O O X X . .   X O O O O O O $ = = = = O O O O O O O O O O # # $ $ = = = : : : 4 4 6 6 6 6 4 4 4 4 4 4 6 6 6 6 6 6 6 6 6 6 6 6 6 4 4 4 4 4 4 4 4 4 4 4 4 4 4 : : : : : : : : : : : : : : : : : : : : : : 4 4 4 6 e e e r e e e e e e w 0 8 7 7 7 9 0 e e e e e Q Q Q Q Q Q e e e w q 8 8 0 w e e e e e e e m R e e m m m m m m m R R R R W R R R W W R h h h h h h h h h h m k k k V K K K K ;.xXxXN.T T T T ` ` T h.h.M.Z.Z.K.K.K.K.K.b.m.m.n.n.m.m.m.U.U.1X1X1X7X7X7X7X7X7X7X7X7X0XAXHX0X8X8XkXkXkXkXkXkXkXkX8X(.^.U.Y.Y.Y.P.P.P.I.I.I.I.I.I.I.I.H.f.p.s.s.s.s.s.p.p.f.f.f.f.f.f.f.f.f.f.f.f.f.f.f.f.f.f.C.f.C.C.C.H.H.H.H.H.H.H.H.H.H.H.H.G.G.G.c.c.b.b.b.b.b.b.b.J.J.L.b.b.b.b.b.m.b.m.L.L.L.Y.Y.Y.U.U.U.U.U.m.n.n.n.n.n.x.x.x.v.b.L.L.L.L.L.L.L.L.L.L.L.L.J.J.J.J.J.J.J.J.G.G.G.G.G.G.G.V.V.V.V.V.V.V.V.C.C.V.V.V.s.s.s.s.s.s.s.s.s.s.s.i.s.i.i.i.i.i.i.i.i.t.t.t.t.t.t.i.i.i.p.p.p.p.p.p.p.p.p.T J F F G G G G t.s.s.s.s.s.s.V.k.k.y.e.u.g.g.g.x.x.v.b.b.m.m.m.m.n.n.x.x.x.n.U.AXAXU.b.v.v.b.b.c.v.c.j.c.c.c.k.j.j.y.y.r.r.r.r.r.Y Y Y Y I I I sXxXsXB B B B c c B B j j p p p p p p 2 1 1 l l l l 2 z z b b b b b b b 5 5 5 0 0 0 0 5 w 5 5 5 f 5 w 5 5 5 5 5 5 3 3 3 3 3 3 3 0 0 0 0 0 0 0 0 0 0 0 0 0 0 0 9 0 9 9 7 7 < 7 < 9 9 < < ; ; ; ; ; < < 7 9 9 8 8 7 8 7 7 < ; ; ; = ; ; ; = = ; ; : : : : : : 8 7 8 : : ; ; ; ; = = = = ; ; ; ; 7 ; ; ; 7 7 7 ; = ; ; = = = = = = = = = = = ; ; ; ; ; = = = = = = = = = = = = + + + = + + O O O O O O O O O O O O O O O . . .                                                                     ",
"                                                      . . . .           . . . O O O O O O O O O O O O O o O X X X         X O O O O $ $ = = = = = O O X O O O O O O # # $ $ $ = = = : : 4 4 6 6 6 6 6 6 6 6 6 6 6 6 6 6 6 6 6 6 6 6 6 6 6 6 6 4 6 4 4 4 4 4 4 4 4 4 4 4 : : : : : : 8 8 8 8 : 4 : : : : : : : : : : 4 w 5 6 e e e r e e e e e e 0 8 7 7 7 9 0 0 e e e e e Q Q Q Q Q N e e e q q q q e e e e e e e e m Q R R m R R R R R R R R R R R R R R R R W R R R k R R R W W W W W W W W ^ ^ ^ ^ ^ ^ ) ^ ` ` ` ` ` ` i.M.M.M.M.Z.Z.Z.K.K.K.Z.b.m.n.n.m.m.m.m.U.U.U.1X1X7X7X7X7X7X7X7X7X7X7X7X7X8X8X8XkXkXkXkXkXkXkXkX8X(.Y.Y.Y.^.Y.P.P.I.I.I.I.I.I.I.I.H.f.f.i.i.i.t.t.i.i.p.a.f.f.f.f.f.f.f.f.f.f.f.f.f.f.f.f.f.f.f.C.C.C.C.H.H.H.H.H.H.H.H.H.H.H.H.H.H.J.J.L.L.L.L.L.L.L.J.J.P.L.L.L.L.L.L.L.L.L.L.L.Y.Y.Y.Y.Y.U.U.U.m.n.n.n.n.n.x.x.x.v.b.L.L.L.L.L.L.L.L.L.L.L.L.J.J.J.J.J.J.J.J.G.G.G.G.G.G.G.V.V.V.V.V.V.V.C.C.C.V.V.V.V.s.s.s.s.s.s.s.s.s.s.p.p.p.p.p.p.p.p.i.i.i.i.i.i.p.i.i.i.i.p.p.p.p.p.p.p.p.p.` I F F G G G G I i.s.s.s.s.s.V.V.k.k.u.u.u.g.g.g.g.v.v.b.b.b.m.v.m.x.x.x.x.n.m.m.m.b.b.v.v.b.b.c.v.c.j.c.c.k.j.j.j.y.y.r.y.t.t.t.t.Y Y Y I I J J J J J J B B B B B B B B B j f b z z p p 1 l l l 2 1 z z z b b b n b b f 5 5 5 b b 5 5 5 5 5 5 f f 5 5 5 5 5 5 5 5 3 3 5 3 3 0 0 0 0 0 0 0 0 0 0 0 0 0 0 0 0 0 0 0 0 8 7 7 7 7 7 7 9 7 < < ; ; ; ; < ; < < < < 7 7 8 7 7 < ; ; ; = = ; = = = ; ; : : : : : 7 7 8 : : ; ; ; ; = ; = = ; ; ; ; ; ; ; ; ; 7 7 ; ; ; ; = = = = = = = + = = = ; ; ; ; ; ; ; ; ; = = = = = = = = + + + = + + O O O O O O O O O O O O O O O O .                                                                       ",
"                                                        . . . .       . . . O O O O O O O O O O O O o . . . X . . .     . O O O o = = = $ $ $ $ O O O . O O O O O O $ = = = = = = * : 4 4 6 6 6 6 6 6 6 6 6 6 6 6 6 6 6 6 6 6 6 6 6 6 6 6 6 6 6 6 6 4 4 4 4 4 4 4 4 4 4 w w w w 4 w w w 0 8 0 w w w w 8 8 8 w w w w w w e e e h r r e e e e e w 0 7 7 7 7 0 w e e e e e N N Q Q Q N e e q q q q q M M N N Q Q Q r r r r R R R R R R Q Q Q Q Q R Q Q R R R E R R R R W W W ( ( ( W W ~ ~ ( ( ( ( ( ( ( ( _ ( _ ' ' ' a.a.a.a.N.N.C.C.C.C.C.K.K.Z.Z.z.x.x.n.m.m.m.U.U.U.U.U.U.1X7X7X7X7X7X7X7X7X7X7X7X7X8X8XkXkXkXkXkXkXkX8X(./.Y.^.^./.Y.I.I.I.I.I.I.I.I.I.I.f.f.s.t.t.t.t.t.i.i.p.a.f.f.f.f.f.f.f.f.f.f.f.f.f.f.f.f.f.f.f.f.f.f.C.C.H.C.H.C.H.H.H.H.H.T.T.(.+X+X+X+X(.+X(.(.(.T.P.P.(.(.(.(.T.P.P.P.P.L.L./.8X8X8X8X8XL.L.L.8X7X7XW.n.x.x.x.x.v.b.L.L.L.L.L.J.J.L.L.L.L.J.J.J.J.J.J.J.G.H.H.G.G.G.G.G.G.G.V.V.V.V.V.V.C.C.C.C.C.C.C.C.s.s.s.s.f.s.f.a.a.a.a.a.a.p.p.p.a.a.p.p.p.p.p.p.p.p.p.p.p.p.p.p.p.p.p.p.p.p.U F F G G G D I t.i.s.s.s.s.s.V.V.k.u.u.y.k.u.g.g.v.v.b.b.b.b.m.m.v.x.x.x.x.x.m.v.b.b.v.v.v.v.c.c.j.j.c.k.k.j.y.y.r.y.y.y.t.t.t.t.T T T T T T T K K K K K J K B V V V V B B B B B b z p p 1 1 1 1 1 2 z z z b b n n n n b g f b b b f f 5 5 5 5 f f f 5 f 5 w w w w w 5 0 0 0 0 0 0 0 0 0 0 0 0 0 0 0 0 0 0 0 0 0 0 0 0 0 0 0 0 0 9 7 7 < ; ; ; ; ; ; ; < < < 7 7 8 7 7 7 7 < ; ; ; = = = = = ; ; ; : : : 8 8 8 8 : : ; ; ; ; ; ; = = = = = ; ; ; ; ; 7 7 7 7 ; ; = = = = = = = + + = = ; = ; ; ; ; ; ; ; ; = ; = ; = = = + + + + + O + O O O O O O O O O O O O O O O O . . . . . .                                                           ",
"                                          X . = N N N N N O . w N N N N N N N N e O O N N N N N : . : N N e N N N N N = O o o = = = = = $ O O O O O O O O O O O $ = = = = * : : : : 4 4 6 6 6 6 6 6 6 6 6 6 6 6 6 6 6 6 6 6 6 6 6 6 6 6 6 6 6 6 6 4 4 4 4 4 4 4 4 4 4 4 4 4 w w 4 4 4 4 w 4 w w w 4 4 w w w w w w w e e e e e e e e e e e w w 0 7 7 q q q e e Q e e N N Q Q $.$.$.=.=.$.*.*.*.{ e } =.=.,.,.,.Q Q &.,.,.,.,.,.,.,.,.! R R R R R R R R R R R W W W W W W W ^ ~ ~ W W ( ~ ~ ~ ( ( ( ( ( ( ( ' ' ' ' ' ' a.a.a.N.N.N.N.C.B.Z.K.Z.Z.j.x.x.m.1X1X1X8X8X8X8X8X8X8X8X0X8X7X1X8X0X0X0X0X7X7X8XcXzXcXzXzXkXkXkXkXkXkX8X8X/././.+X+X+XoXI.I.I.+X+X+X{.T.T.T.T.I.I.K.K.I.I.I.].].].].].].].{.].f.d.f.f.f.f.f.f.f.f.f.f.f.f.f.f.C.C.C.H.H.C.H.H.H.I.T.T.T.T.T.T.T.T.T.T.T.T.L.L.8X(.Y.Y.Y.L.L.L.L.L.L./.8X/.T.(.(.L.L.L.U.m.m.n.x.x.x.x.x.v.b.L.J.J.J.J.J.J.J.J.J.J.J.H.H.G.G.H.H.H.H.H.H.H.V.C.C.C.C.C.C.C.C.C.V.s.s.s.s.s.s.s.s.a.s.s.s.s.s.s.s.s.s.s.i.p.p.p.p.p.p.p.p.p.p.p.p.p.p.p.p.p.p.p.p.p.p.p.p.p.p.` I F F G G G F t.K.I.I.I.I.C.s.K.T.T.T.T.T.P.Y.U.U.v.b.Y.Y.Y.Y.Y.m.v.m.U.U.U.U.U.Y.Y.Y.b.v.v.c.c.c.c.c.c.k.y.y.y.y.y.y.t.t.t.t.t.T T T U U U U K K K K K K K K V V V V V V V V n n b f p 3 2 2 2 2 2 2 3 p p g n n n n n g g g g g g g g 5 5 5 5 5 5 5 f 5 5 w w w w w 5 3 0 0 0 0 b 0 b z z 0 0 0 0 0 0 0 0 0 0 0 0 0 0 0 0 0 0 0 9 0 7 7 < { } { } { } } } } M 7 0 } } } } } < ; M } N { { { { } } w : : : : : : : : : ; ; ; ; ; = = = = = ; ; ; ; ; ; 7 7 7 7 ; ; ; ; = = = = = = = = = = = ; ; ; ; ; ; ; ; ; ; ; = : { { N N N N N N N N N N N O O e N N N N w O : N N N N N + . . w N N N e     O N e e w     . e e e e e e e e e e e e ",
"                                      . . X . : @.N e N @.O . e @.N N N N N N @.e O O @.} N N @.8 . 8 @.N N N N N N N = o = = = o = = $ O O X X X X O O O = # = = = = : * * : : : : 4 4 6 6 6 6 6 6 6 6 6 6 6 6 6 6 6 6 6 6 6 6 6 6 6 6 6 6 6 6 6 4 6 4 4 4 4 4 4 w w w 4 4 4 4 4 4 w w 4 4 w 4 4 4 w w w 4 w w 6 5 e e e e e e e e e e e 0 8 9 7 q q q e e e N Q Q Q Q N N 1.1.=.=.=.=.*.=.<.} e #.1.1.,.1.1.Q Q ,.1.,.,.,.,.,.,.,.! R R R R R R R R R R R R R R W W W W W W W W W ( W ( ( ( ( ( ( ( ( ( ' ' ' ' ' ' a.a.a.a.N.N.N.C.C.K.Z.Z.b.j.x.z.m.1X1X2X2X8X8X8X8X8X8X8XzX0X1XU.0X0X0X0X0X8X7X8XzXcXlXvXxXkXkXkXkXkXkXkXkX/././.+X+X+XoXI.I.I.+X+X+X{.T.I.T.I.K.K.S.K.S.I.I.].].{.{.{.].].].I.f.f.f.f.f.f.f.f.f.f.f.f.C.f.C.H.H.H.H.H.H.H.H.H.H.H.H.H.H.H.H.H.K.K.K.K.T.T.P.L.8XY.L.J.L.L.L.L.L.L.L.Y.8XL.L.T.(.L.L.L.v.x.x.x.x.x.x.x.x.v.b.L.L.L.L.L.L.J.J.K.J.J.J.H.H.J.J.G.G.H.H.H.G.G.G.G.C.C.G.C.H.C.C.C.C.C.C.s.s.s.s.s.s.s.s.s.s.s.a.s.p.p.p.p.p.p.p.p.a.a.p.p.p.p.p.p.p.p.p.p.p.p.p.p.p.p.p.p.p.p.p.i.U J A G G G G T F.I.I.T.T.s.s.I.T.T.T.T.T.T.K.T.U.c.c.T.T.Y.Y.2XU.v.m.1XU.U.U.U.U.Y.Y.b.b.c.c.c.c.c.c.k.j.y.y.y.y.y.t.t.t.t.t.t.t.t.t.U U U U K K K K K K K K K V V V V V V V m n n n g p p 3 2 2 2 2 3 3 p f g n n n n n g g g g g g g g f f f 5 5 5 5 w w w b w w w 0 0 0 z 0 b b b b b z 0 0 0 0 0 0 0 0 0 0 0 0 0 0 0 0 9 0 0 0 0 9 9 7 *.*.{ } { { { } *.M ; w *.} } *.=.8 < { *.} } { { { { *.M < : : : : : 8 8 : ; ; ; ; = = = = = ; ; ; ; ; ; ; ; ; ; ; ; ; ; ; ; ; ; = = = + + + = = = ; ; ; ; ; = ; ; ; = = 8 #.} N { N { { N N N N @.@.O O @.@.N N @.w O : @.} N N @.o . . e N N N N     O e e e w     O @.N e e e e e e e e e e ",
"                                      . . X   : @.:   : @.+ X e @.O O O O O O @.e O O @.w X ; @.8 . 8 @.+ . X . O O O + o o o o O = # O O X X X X O O O # = = = = = = = : : * * * : 4 4 4 6 6 6 6 6 6 6 6 6 6 6 6 6 6 6 6 6 6 6 6 6 6 6 6 6 6 6 6 6 6 4 4 4 4 4 4 4 w w 4 4 4 4 4 4 4 4 4 4 4 w w w w w 4 4 w w 6 6 e e e e e e e e e w e q 7 7 7 q q w e e e N Q Q Q Q e e 1.=.e e e q q { <.@.e #.1.Q Q ,.1.Q Q ,.,.Q Q Q Q R R ,.( R R R R Q Q R R R R R R R R W W ( W R R R W ( ( ( ( ( ( ( ( ( ( ( ( _ ' ' ' ' ' a.a.a.a.N.N.N.C.C.Z.Z.b.j.g.j.v.m.2XU.m.U.U.U.U.U.U.Y.Y.8X8XU.U.8X7X7X7X0X8X7X8XzXkXkXkXxXkXkXkX(.(./.kXkX/.!.I.I.I.I.I.I.I.I.+XI.I.H.f.s.s.i.i.i.i.i.i.p.p.f.f.d.f.f.f.f.f.f.f.f.f.f.f.f.f.f.f.f.f.f.C.C.C.H.C.H.H.H.H.I.I.I.I.K.P.P.P.H.H.H.K.K.K.K.T.T.J.L.8XY.L.J.J.L.L.L.Y.Y.P.T.8XL.L.T.(.L.L.U.m.v.x.x.x.x.x.v.x.m.L.L.L.Y.Y.Y.Y.P.P.J.J.J.J.J.J.J.J.G.G.G.G.G.G.G.G.G.V.V.G.G.C.C.C.V.V.C.C.C.s.s.s.s.s.s.s.s.s.s.p.p.p.a.a.p.p.p.p.p.p.p.p.p.p.p.p.p.p.p.p.p.p.p.p.p.p.p.p.p.a.a.p.p.U I A G G G G Y F.s.i.C.T.s.s.K.T.s.s.s.s.s.y.T.K.k.c.T.U.b.m.2XU.v.m.U.v.x.x.v.v.v.v.v.b.c.c.c.c.c.j.k.k.r.y.y.y.y.t.t.t.t.t.t.t.t.t.T U U U K K K K K K K K K V V V V V V V V n n n n f p p 2 2 2 2 2 3 p p f g g b b n g g g g g g g f f f f 3 3 5 5 5 5 w 0 z z 0 0 0 0 z z z z z z z z 0 0 0 0 0 0 0 0 0 0 0 0 0 0 9 9 9 9 0 0 9 9 9 8 *.{ ; ; ; ; ; 0 *.M ; w *.0 7 M *.7 8 { @.; - = ; = = *.M ; ; : : : : : 8 : ; ; ; ; = = ; ; ; ; ; ; ; ; ; ; ; ; ; ; ; ; ; ; ; ; ; = = = + = = = = = = ; ; ; ; = = ; ; ; = 0 #.8 = = = = = + + + + N @.O O @.e O O @.w O : @.8 o w @.o . . . . . e N                   O @.:                     ",
"                                  . . . . . . : @.:   : @.= O e @.O O O O O O @.e O X @.w . = @.: . 8 @.+ X O O O o + + o + O O O O O O X X X X X O O O = = = = = = = = : : : : * * : 4 4 6 6 6 6 6 6 6 6 6 6 6 6 6 6 6 6 6 6 6 6 6 6 6 6 6 6 6 6 4 6 4 4 4 4 4 4 4 4 4 4 w 4 4 4 4 w w 4 4 4 : 8 8 8 w 4 4 w 6 6 e e e e e e e e w w w 0 9 9 8 8 w e e e e e N Q Q Q N e e $.#.e e q q q { 1.#.Q #.1.#.Q &.1.Q Q &.,.Q Q Q Q R R ,.&.Q Q R R R W W Q Q W R R R R ( ( ( ( ( ( ( ( ( ( ( ( ( ( ( _ _ _ ( ( ( ( ( ' ' ' ' ' a.N.M.N.N.N.C.Z.V.k.j.g.j.j.z.2XU.b.J.U.U.U.U.U.Y.Y.8X8XU.m.8X7Xm.1X0X8X7X8XzXkX+XkXzXkX+X(.(././.+XkX/.P.I.I.I.I.I.I.I.I.+XI.H.f.s.s.s.i.i.i.i.i.i.p.a.f.f.f.f.a.a.a.f.f.f.f.f.f.f.s.s.s.s.s.s.s.s.s.s.s.V.V.G.V.H.T.T.T.T.T.T.T.T.K.H.H.K.P.H.G.T.T.G.c.(.Y.G.J.Y.L.b.Y.(.(.(.8X8XL.L.T.(.L.L.(.8XU.U.U.m.x.x.U.U.U.T.(.(.(.(.(.(.(.(.J.G.G.c.c.c.c.c.c.c.G.G.G.G.G.V.V.V.V.V.V.V.V.s.s.s.s.s.s.s.s.s.s.s.i.s.s.i.p.p.p.p.p.p.p.p.p.p.p.p.p.p.p.p.p.p.p.p.p.p.p.p.p.p.a.p.p.p.p.p.p._ a.T U F F F G G I Z.i.t.C.T.s.s.K.T.s.s.s.s.y.y.T.K.u.k.T.U.c.b.2XU.b.b.Y.x.x.x.x.x.x.v.c.c.c.c.c.c.k.k.y.u.r.y.y.y.y.y.y.t.t.T T T T T U U U U K K K J J J J B B V V V B B B n n n B n n f p p 2 2 2 2 2 3 3 3 p p f f b f f f f f f f 5 f f f 5 3 3 3 3 3 3 3 3 0 3 3 0 0 0 0 0 0 0 0 0 0 0 0 0 0 0 0 0 0 0 0 0 0 0 0 9 9 7 7 7 9 7 7 7 7 7 *.{ < ; ; ; ; 0 *.0 ; w *.0 7 M *.7 8 { @.: ; - = = = *.M ; ; ; : : : : : : ; ; ; ; ; = ; ; ; ; ; = = = = = = = = ; ; ; ; ; = = = = = = = = = = = = = = = = = = = = ; ; = 8 #.8 = = = = + + + O O N } O O } e O O @.w O : @.w o w @.o . . . . . e N . .     .         O @.:                     ",
"                                N @.@.@.@.@.@.@.@.=   : N + O e @.O O : : O O @.e X . @.w   = } @.@.@.@.= O o N #.#.#.@.O O = @.@.@.@.@.@.@.@.0 O O O # = = = = = = = = $ $ $ = = = * : 4 4 4 4 6 6 4 4 4 4 4 6 4 4 4 4 4 4 4 4 4 4 4 4 4 4 4 4 4 4 4 4 4 4 4 4 : : : : : : : : : : 8 8 8 8 : : : : : 8 4 4 w e e e e e e e e e w w 0 8 8 8 8 0 e e e e e e e e Q Q N e e e $.#.e e q q q { 1.1.1.1.1.Q Q &.1.Q Q &.,.,.,.,.,.R R ,.Q h h h h h h h h h h h m h h m h h m h h h m m m V V V V V V V V K K K K K K P U T T T T T T ` M.M.M.h.h.j.j.j.j.b.2Xm.b.b.T.2X8X8XU.U.U.2X2Xm.m.8X7Xm.m.8X8X^.8XzXkX(.kXzXkXcXkXkXY.Y.(.(.P.I.+X+X+X+X+X+X{.{.T.H.s.H.T.T.T.T.T.t.t.t.I.T.T.T.T.T.T.T.T.T.T.T.C.i.i.p.i.i.i.i.t.t.t.t.t.t.t.y.y.y.t.y.V.T.G.V.V.V.V.k.c.j.y.y.U.U.j.u.U.J.g.g.Y.b.j.v.Y.b.g.b.U.J.J.U.Y.L.L.T.T.J.J.T.Y.v.x.U.m.x.x.U.m.v.v.b.c.c.v.v.b.c.c.k.u.k.k.j.u.u.y.u.r.r.y.y.r.r.y.y.y.y.t.t.t.t.y.y.y.r.r.t.t.r.I I I r.r.I I I I Y I I I I I I I I I I I I I I I I U I U U U ) ) p.p.p.p.p.p.p.' a.F.F.Z.Z.Z.Z.Z.Z.Z.T I M.K.t.t.K.T.s.s.V.V.y.y.Y.K.u.u.T.J.j.b.T.T.T.T.Y.v.x.x.U.U.U.T.Y.c.k.c.T.T.Y.Y.U.U.U.T.k.r.r.r.r.Y Y I I I I I J J J J J J B B B s s s j j j j s p p p f p p p p p p p 2 2 2 2 2 2 3 3 3 3 3 3 3 3 3 3 3 3 3 3 3 3 3 3 3 3 3 3 3 3 3 2 3 3 3 3 3 3 3 3 3 3 3 0 0 0 3 9 9 9 9 9 9 9 9 < < < 9 < < < < < < < ; < < ; ; } M ; ; ; ; ; 0 *.*.*.*.*.8 7 M *.8 8 { *.*.*.*.} = - *.M = = ; ; ; ; : : 8 : : ; ; ; ; = = = ; ; = = = = = + + = = = = = = = = = = = = = = = = = = = = = = = = = = = = = 8 #.8 + + N @.@.@.: O X e e O O } e O O N w O : @.w . 8 @.@.@.@.@.. . w e . . N @.@.@.@.@.@.@.@.:   : @.@.@.@.@.      ",
"                                N N e e e e e e e o . . X O O e @.O O N N O O } e . . @.w   O e e e e e = O O w N N @.@.O O + e e e e e e N @.w O O + $ = = = = = = $ $ $ $ $ $ $ $ $ : : : 4 4 4 4 4 4 4 4 4 4 4 4 4 4 : 4 4 4 4 4 4 4 : : : : : : : : : : : : : : : : : : : : : : : : : : : : 4 4 4 4 w w w e e e e e e e w w 0 0 8 8 7 8 0 w e e e e e e e e N N N e e e <.#.e q q t e { =.=.$.$.$.Q N #.1.N m @.&.&.&.,.&.n m ,.Q g g g g g h h h h g g g g g g g g g g j j j g j j k V B B B B V V K K J J J J P P T T T T T T T t.t.h.j.j.j.j.j.b.2XJ.b.b.U.U.T.1XU.U.U.U.m.m.m.8X8XU.U.^././.8XzXkX(.8XkXkXkXkXkXY.Y.Y.P.P.P.(.T.T.T.T.T.T.T.I.H.s.H.T.I.K.I.T.t.t.t.C.C.C.C.C.C.C.C.C.C.C.F.M.t.i.I.s.y.t.t.y.y.y.y.y.y.y.y.y.y.r.r.k.T.k.y.y.y.y.r.r.r.r.r.J.U.u.u.U.J.e.g.U.b.g.v.U.v.g.v.U.c.c.J.L.L.L.T.T.J.J.(.Y.x.x.U.m.x.x.U.v.g.x.j.g.g.g.g.g.g.g.g.e.e.e.e.e.u.e.r.r.r.r.r.r.r.r.r.r.r.r.y.y.y.y.r.r.r.r.r.r.I I I I I I I I I I I I I I I I I I I I I J I J J I I I I I U U U ) i.p.p.p._ p._ ' p.F.F.M.h.h.h.h.h.h.Y I I Y r.r.Z.T.t.t.K.K.y.y.Y.K.y.u.T.J.c.c.U.U.U.U.U.v.g.g.b.m.m.U.U.j.j.k.K.K.K.J.J.J.Z.Y.k.r.r.r.r.Y I I I J F F F F F F J J B s s s s s s s p p p p p p p p p p p p 3 3 3 2 2 2 2 2 2 2 2 2 2 2 3 2 2 3 3 2 2 2 2 2 2 2 2 2 2 2 2 2 2 2 2 3 3 3 3 3 3 3 3 < 3 9 9 < < 9 9 < < < < 9 9 < < < < 9 < < < < < < < < - ; ; } M ; ; ; ; ; 7 M M N { { 7 7 M *.7 7 M { { { *.} ; ; *.M ; ; ; ; ; ; : : 8 7 7 : : : ; ; ; ; ; = = = = = = + + + + + + = = = = = + + + = = = + + + + + + + + + = = = = + 8 @.8 + + w e e e ; X X X X O O } e O O O O O : @.8 o : e e e N @.. . . . . . N N e e e e e e e =   : @.e w e @.      ",
"                                N e             . . . . O . o e @.o o N N . . N e     @.w       . O O O o o O O O O N @.O O O X X X X X O = @.w + + + + + + + O + O O O O O $ # # $ $ $ * * * * * : : : : * : : * : : : : * * * : : : * * * * * * : : : : : : : : : : : : : : : : : : : : : : 4 4 4 5 6 w w e e e e e e e w w 0 7 7 7 7 7 0 e e e e e e e N N N N e e e e e <.#.e q q t t e e N Q Q N N N #.1.m N M M m n =.&.b b >./ g g g g g g g g g g g g g g g g g g j j j j j j j j k k B k B B B J J J J J J J K T T Y Y Y Y Y Y r.h.h.h.j.j.k.J.T.J.b.b.b.b.J.J.J.m.m.m.U.U.U.8X2XU.Y./././.(.kX8X(.(.(.(.(.(.kXY.Y.P.P.K.H.T.T.H.H.G.G.G.G.s.s.s.H.T.C.s.C.T.t.t.i.i.p.i.i.i.t.t.t.t.t.t.F.s.t.t.K.t.y.y.y.y.y.y.y.y.y.y.y.r.r.r.r.k.Y.J.V.k.k.y.r.r.y.r.r.K.Y.u.u.U.U.c.c.U.b.g.j.U.v.g.v.U.J.L.Y.Y.L.L.Y.(.J.J.(.Y.x.x.U.m.x.x.U.m.v.b.b.v.b.b.b.v.c.v.g.e.e.g.e.g.g.g.r.r.r.r.r.r.r.r.r.r.r.y.y.y.y.y.t.r.r.r.r.r.r.r.r.I I I I I I I I I I I I I I I I I I I I I J J J I I J J J K U ` a.a.' ' _ _ p.p.F.C.U I F F G F G G G G G G I M.K.t.t.K.K.y.y.Y.K.u.u.T.J.k.c.j.c.c.c.c.v.v.g.g.g.g.U.U.g.j.k.y.y.y.y.y.y.y.T.k.r.r.r.r.Y I I I F F F F F F F F c j s j j s s s p p p p p p p p p p p p p 3 3 3 3 3 2 2 2 2 2 2 2 2 2 2 2 2 2 2 2 2 3 2 2 2 2 2 3 2 2 2 2 2 2 2 3 3 2 3 3 3 3 < < < 9 9 9 9 9 9 9 9 9 9 9 9 9 9 9 9 9 9 9 9 9 < < < < < < < } M < < < < < < < < < < ; 7 7 M *.7 8 7 8 7 7 #.} < < *.M ; ; ; 7 7 < < 7 8 8 8 : : 7 ; ; ; ; ; = = = ; = = = = + + + + + + + + + + + + + + + + + + + + + + + + + + + + + 8 #.8 + + + + + X . . . X X X X N e O O O O O : @.8 X X X . . w @.O O O . . . N e . . . . .         : @.+   w @.      ",
"                                N e         . O o o = o = O . e @.o . N e     N w     @.w + + + = : : : : : : : O O N } = = = + + = = + O = @.w : : : O O O O X X O O O O O $ $ $ * * * * : : : : : * * * * * * * * * : : : * * * * : : : : : : : : : : : : : : : : : : : : : : : : : : : : : w 4 5 6 6 e e e e e e e w w 8 : : : 8 8 8 w e e e e e N N N N N e e e e e e e <.#.{ { { { N N } #.@.Q Q Q Q #.1.Q Q Q Q Q Q ,.&.m m ,.( m m m h h h h h h h n h h h h h h h k k V h h h k k k k V V V V V K K K K K K K K T U T T ` i.t.t.M.M.M.M.V.V.V.Z.T.K.J.J.K.K.K.K.U.U.U.U.U.U.U.8X8XT.T.T.T.T.(.kX(.(././././.+XkXT.T.T.T.P.P.(.T.K.H.H.H.H.s.s.s.s.C.T.s.i.C.T.t.y.s.s.p.p.p.p.p.p.p.p.i.p.I.C.i.p.I.p.i.i.i.t.t.t.t.y.t.t.y.y.y.y.y.V.T.T.T.T.T.k.y.y.y.y.y.V.V.y.u.Y.T.T.T.T.J.u.u.b.j.g.b.Y.Y.T.T.8XJ.J.T.T.J.L.(.Y.c.j.Y.J.c.c.Y.Y.Y.T.T.T.T.T.T.T.T.T.c.k.k.k.k.k.k.K.J.k.y.y.y.y.y.y.y.s.s.s.s.s.s.s.s.s.s.s.p.i.p.p.i.p.i.i.i.t.t.t.T T T T T U U U U U U U U U U U U U U U U K U U ) p.p.p.' ' _ p.p.S.S.i.U U U U U U U U T T I I M.K.I I Z.K.y.y.T.K.k.k.T.K.c.c.c.c.c.b.b.b.c.k.j.g.g.U.U.j.k.k.k.k.k.k.y.y.t.T.Z.h.h.t.t.t.T Y I J F F F F F F c s s s j j j j j j j j p p p p p p p p f f f f f f p p f p p 3 3 3 2 2 2 2 2 2 2 3 p p p p 3 p p p 3 3 3 3 3 p 3 p 3 3 z 0 z z z z z z z z z l 0 0 0 0 l 0 l l l 0 9 9 0 9 9 9 9 9 9 < < < < %.{ 9 9 0 8 7 7 7 0 0 0 8 7 7 M *.0 0 0 0 0 0 #.} 7 < *.M < ; 7 7 7 < : 8 8 8 8 : : 7 7 7 ; ; ; ; ; ; ; ; ; = = = = + + + + + + + + + + = = = = = = + + + + + + + + + + + 8 #.8 + = = = = = = + X X O O O @.e O O = = = : @.8 X X X O . w @.= = o + . . N N + + O O .   . O O 8 @.+   8 @.      ",
"                                w :     . . . : @.#.#.@.@.o . e @.. . w 8     N e     @.@.@.@.@.@.#.@.@.@.@.@.@.O O N @.@.@.@.@.@.@.@.e O : @.@.@.@.@.: O X X X X O O O + = = = * : : : * 4 4 4 4 4 * * * * : : : 4 4 4 4 4 4 4 4 4 4 4 4 4 4 4 4 4 4 4 4 4 4 4 4 4 5 4 4 5 5 5 4 w w w w w w w w w 6 e e e e e e e w 8 8 8 8 8 8 w w e e e e e N N N N N N N N e e e e e e <.1.1.1.1.$.{ { #.1.1.1.#.Q Q $.1.1.1.1.1.1.1.1.,.Q Q ,.( Q R R R R R R R R R R R R R R R R R R R R W W V k k V V V V V V V V V K K K ^ ` ` ` ` ` i.i.i.M.M.N.N.M.C.Z.Z.Z.K.{.K.K.T.sXsXsXsXsXK.K.K.K.K.Y.kXT.T.T.kXkXkXkXkX+X(.+X+X+X+X+XlXlXkXkX+XI.I.+X+X+X+X+XT.H.H.I.T.T.T.T.s.i.C.I.t.i.S.{.{.{.{.{.{.{.{.I.d.d.I.d.p.d.{.d.p.d.d.p.p.p.p.p.p.p.p.s.s.s.s.s.C.C.H.I.T.H.C.C.C.C.V.V.V.V.V.G.G.G.G.G.c.u.u.u.u.u.g.c.c.J.Y.2XJ.J.Y.T.J.J.T.T.G.c.T.Y.c.c.J.G.G.J.J.G.G.G.G.G.G.G.c.c.c.G.V.G.G.T.K.V.V.V.s.s.s.s.s.s.s.s.s.s.s.s.s.s.a.a.a.a.a.a.a.a.a.a.a.p.p.a.p.p.p.p.i.i.i.i.i.` ` ` ` ) U U U U K U I I U U U ) ) ) ) ` ` ' p.S.N.i.i.` ) ) i.F.F.F.F.S.U I C.K.I I M.C.s.s.T.K.V.V.T.T.T.T.T.T.T.T.T.T.T.T.Y.j.j.J.U.U.Y.T.T.T.T.T.K.t.V.T.T.T.T.T.M.t.t.T T I J F F F F F c c c s B B B k k j j j j g g g g p f f f g g g g g g b g g f f p 3 3 3 2 2 2 2 2 3 p f f f f f f f f f f f f f f p p z z z z z z z z z z z z z z z z z z z z z z z l 0 0 0 9 9 9 9 9 9 9 9 9 %.*.*.*.*.M 7 7 M *.=.=.M 7 8 M =.*.*.*.*.*.*.*.} 7 < *.M < < 7 7 7 : : : : : : : : : ; ; ; ; ; ; ; ; ; ; ; ; ; = = = + + + + + + + + + + = = = = + + + + + + + + + + + + 8 @.8 + w @.@.#.#.#.+ + + O O O @.e O O @.@.@.#.@.8 X + 8 O . w @.@.@.@.} . . N @.@.@.@.w .   : @.@.@.@.=   8 @.    e ",
"                            . . . . . .   . . : @.w w e @.+ . e @..           N e . . 8 8 8 8 8 8 w w w w w N @.O O : w w w w w w w @.e + + w w w e @.: X X X X X O O O = = = : * * : : : 4 4 : : : : * * * : : 4 4 4 4 4 4 4 4 4 4 4 4 4 4 4 4 4 4 4 4 4 4 4 4 4 4 4 4 4 w 4 4 w w w w w w w w w w w e e e e e e e w 8 8 8 8 0 8 w e e e e e e Q Q N N N N N e e e e e e t { { { { 1.*.{ { @.#.#.#.#.Q Q #.&.&.&.&.&.&.&.&.#.Q Q ,.&.R Q Q R R R R R R R R R R R R R R R R R R W W V V k k V V V V V V V V V K ^ ^ ` ` ` ` ` i.a.N.N.N.N.N.C.C.C.C.C.K.{.K.K.T.sXT.T.T.sXK.K.K.K.K.Y.kX+XT.T.kXkX+X+X+X(.!.+XlX+X+X+X+X+X+X+X+X].I.].{.I.I.+XT.H.H.H.H.H.C.C.s.i.C.F.i.i.S.{.S.S.S.S.S.S.{.I.d.d.d.d.d.f.{.d.a.d.d.d.p.p.p.p.p.p.p.s.s.s.s.s.s.s.s.K.T.H.C.C.C.V.V.V.V.V.V.V.V.G.c.c.k.u.e.u.u.u.e.u.j.c.U.T.c.c.Y.T.c.c.T.Y.G.c.T.K.c.c.c.c.c.c.c.c.c.c.c.c.c.c.k.k.k.k.k.k.k.T.K.k.k.y.y.s.y.s.s.s.s.s.s.s.s.s.s.s.i.i.i.i.i.i.i.i.p.i.i.p.p.p.i.i.i.i.i.i.i.i.` T T T U U U U U J J I I I I U U U U U U ) ) U U ) U ) U U U U i.F.N.i.N.S.U I V.K.G G r.t.t.y.T.K.y.k.J.J.J.J.J.J.J.J.J.J.J.U.T.j.j.j.j.k.k.V.G.J.G.T.K.t.h.Z.Z.V.Z.T.M.t.T T T I F F F F F F c c c s B B B B k j j j g g p p p p p p f g g g g g g g f f f f f 3 3 3 2 2 2 2 2 2 3 p p p f f f f f f f f f f f p p p z z z z z z z z z z z z z z z z z z z z z z 0 0 0 0 9 9 9 < 3 3 < < < z M M M *.M 9 7 0 M M M 0 9 7 0 M M M M M M M M w < < #.M ; ; ; ; ; ; ; : : : : : : : ; ; ; ; ; ; ; ; ; ; ; = = = = = + + + + + + + + + + + = + + + + + + + + + + + + + + 8 @.8 + 0 @.w 8 N #.+ + + X X X } e O O @.N 8 8 8 + X 8 @.= O = 8 8 8 N Q . . : 8 8 : @.w . . O : : : : o   8 @.    e ",
"                  .     . . . . . . . o . . . : @.: . 8 @.O . e @.          . N e O O O O O o O O O O O O O e @.o o o O + + + + O + #.e + + O O X 8 @.: X X X O O O = = = = = : * * : : : : : * : : * * * * : : 4 4 4 4 4 4 4 4 4 4 5 5 5 5 5 5 5 4 4 4 4 4 4 4 4 4 4 w w w w w w w w w w w w w w w w w w w w w e w 8 8 8 8 0 0 w e e e e e e e N N { { N N N N e q e t { { { { { { 1.*.{ { { { { { Q Q Q Q Q Q Q Q Q Q Q Q Q Q Q ,.&.Q Q Q Q Q R R R R Q R R R R R R R R R R Q m m m V k k k V V V V V V V V K K ^ ` ` ` ` ` i.i.N.N.N.N.N.C.C.C.C.C.K.T.K.K.T.{.K.H.T.sXK.P.P.Y.Y.T.kX+XT.T.kX+XT.T.T.T.!.+XlX+X!.!.I.I.I.+X+XI.I.I.I.I.H.{.I.H.s.s.s.s.t.t.t.t.C.I.t.i.S.I.p.p.p.p.p.p.{.I.p.p.p.p.p.f.{.f.p.p.p.p.p.s.s.s.s.s.s.s.s.s.s.s.s.s.s.G.T.V.s.C.K.K.K.K.K.K.K.K.J.y.y.J.J.b.b.b.j.e.g.b.J.U.U.T.k.k.K.T.U.U.Y.U.k.k.T.Y.J.U.U.U.U.J.J.J.J.J.k.k.k.k.J.J.J.J.J.J.J.Y.J.r.y.y.y.y.y.y.y.y.y.y.y.y.t.t.t.t.y.t.t.t.t.t.t.t.t.T T U U U U U U U U U U U I I I I I I I J J J A J J J J J S S S I U U I I J J J J I I I I U Z.T J T Z.I G M.Z.G G G r.r.r.K.J.y.y.y.y.y.y.k.y.y.y.j.j.k.J.Y.j.e.e.e.e.e.r.y.y.t.T.Z.t.y.y.y.y.M.F.h.T T T U I J F F F c F c c c s j j j j j j j g d p p p p p p p p d p f f f f f f f 3 3 3 3 3 3 2 2 , , 2 2 3 3 3 3 p p p 3 3 p p p f p p p p p z z z z z l l z z z z z 9 9 9 0 0 0 9 9 9 0 9 9 9 9 9 9 9 3 < < < < < < < < < *.M < < < < ; ; < < < ; ; ; ; ; ; ; ; ; ; ; ; *.M ; ; ; ; ; ; ; ; ; ; ; ; ; ; = = = = = = = = = = = + + = = = + + + + + + X X X + + + + + + + + + + + + + + + + + 8 #.: X 8 @.+ X w @.X X X X X X } e O O @.w O O X X X 8 @.+ O . . . . e N . . . . . . @.w . .               8 @.    e ",
"                O : = = : + . .   . . . : : : w @.: . : @.O   w @.      : : : @.e O O + : : : : : : : : = O e @.: : : : : : : : : : @.w X X X X X 8 @.: X X X X O O # = = = = = * * : * * : : : : * * = : : : * * * : 4 : : : : 4 4 4 4 : : 4 4 4 : : : : : : : : : : : : : : : : : 4 4 4 4 4 8 w w 4 4 4 4 w w 0 0 8 8 0 0 0 0 w w w q q e e e e e e e q q q q q q [ { { { { { { { 1.#.{ { { { { { #.@.Q Q Q N N N Q Q Q Q Q Q Q ,./ w n n h h n n m m m n n m m m m m m m m m g j j j j j j j j k j j j B B J J K K K K K U T T T T T T t.t.t.t.t.t.V.T.V.h.Z.T.V.k.K.T.J.J.J.J.K.K.T.T.J.J.8XY.Y.U.Y.U.L.Y.8XY.Y.Y.P.G.G.T.T.P.K.H.H.s.y.T.H.y.y.s.h.t.t.t.t.t.Z.K.r.t.C.K.y.y.y.y.y.U K.V.U U t.t.t.s.K.t.I I I r.r.r.e.e.e.e.e.e.e.r.e.r.J.r.e.j.U.r.e.k.U.K.U.U.U.U.U.U.c.e.e.U.U.U.U.U.v.e.j.U.U.U.U.U.e.u.J.U.Y.U.U.J.e.e.U.U.U.U.U.U.U.U.U.U.U.U.j.e.e.e.J.U.U.U.U.U.U.U.k.e.e.e.e.e.e.e.r.r.r.G G G G G G G G G G G G G G G G G G G G A A A A F F F A A A A A A A A A A A A A A A J J J J J U U U U I F F F F A A I I I Y Z.F D Y Z.F F h.Z.D G G e.e.e.J.k.e.e.e.j.g.g.j.y.j.j.j.r.e.k.U.j.j.j.j.j.j.j.j.r.t.K.h.I I G G G t.Z.Y G G I F J F F s s s s s s s s s s j j j j p p p p p p p p p p p p p p p p 2 2 2 2 2 2 2 2 2 2 2 2 , , , 2 2 2 2 2 2 3 2 2 2 2 2 2 3 3 3 3 2 2 2 1 1 2 0 9 9 l l l l 9 9 9 9 9 9 9 9 9 9 9 9 9 9 < < < < < < < < < < < - < < *.M 0 0 0 0 9 9 0 ; ; ; ; ; ; ; 8 0 0 8 0 0 0 *.e = = = = = ; ; = = = = = = = = = = = = = = = + + + + + + + + + + + + + + + + X X + + + + + + + + + + + + + + + + 8 #.: X 8 @.+ X w @.: : : : : : @.e X X @.e : : : = X 8 @.: : : : . . e N : : : = .   @.w     : : : : : : = w @.    e ",
"                e @.@.@.@.e           o @.@.@.@.@.:   o w .   w @.      @.@.@.@.e . . : @.@.@.@.@.#.#.#.= O w #.@.#.#.#.#.@.@.@.@.@.@.w X X X X X = w = X X X X O O # $ $ = = = = $ = * $ : : : : = : = : : : * * * * : : : : : : : : : : : : : : : : : : : : : : : : : : : : : : : : : : : : 8 8 8 : : : : 0 0 8 8 0 0 0 0 0 0 0 q q q q q q q q q q q q q q t q [ [ { { { { { t t 1.1.1.1.1.1.1.1.1.{ N N N N e #.1.1.1.1.1.>.,.,.Q w w b 5 g g g g g g n g g g g g g g g g g g g j j j j j j j j j j j j j J J J J J J J I I J I I I I T T T t.t.y.k.T.V.y.V.T.k.k.J.T.T.T.T.T.T.T.T.Y.J.J.8X8X8X8X8XY.L.Y.8X8X8X8XT.G.G.Y.T.T.T.T.Y.u.y.T.K.y.y.K.K.K.K.K.K.K.K.K.y.y.C.K.y.y.y.y.y.t.K.C.y.y.i.K.K.K.K.t.r.r.r.r.r.r.r.r.r.r.r.r.r.r.r.y.K.y.r.k.K.r.r.k.K.e.e.e.e.e.e.K.b.e.r.U.k.e.g.U.k.e.k.U.j.e.e.e.r.u.e.e.e.e.e.e.e.e.e.e.e.e.e.e.e.e.e.e.e.e.e.e.e.e.e.e.e.e.e.e.e.e.e.e.e.e.e.r.r.r.r.r.r.r.r.I I r.r.I I I I I I I I I I I I I I I I I I I I I I I J J J J J J J I I I I J J J J J J M.A.Z.Z.B.M.J J A A A J Z.Z.Z.Z.Z.F A F T J F M.Z.G I G Z.Z.K.K.k.e.e.j.U.U.U.U.U.U.U.U.r.e.k.U.U.U.U.U.U.D.U.U.U.K.K.M.I I I I G r.h.I I I I I J J J A s s s s s s j s j j j j j g d p p p p p p p p p p p p p p 2 3 2 2 2 2 2 2 2 2 2 2 , 1 1 2 2 2 2 2 2 2 3 2 3 3 3 3 3 3 3 2 p p 2 1 1 2 9 9 9 l l l l l l l l l l l l l l l 9 9 9 9 9 9 9 9 9 9 9 9 9 9 < < < *.*.*.*.*.*.*.*.*.7 ; ; ; ; ; N #.*.*.#.*.*.#.#.M ; ; = = = ; ; = = = = = = = = = = = = = = + + + + + + = = = = = = + + + + + + + X + X X + + + + + + + + + + + + 8 #.8 + 8 @.= + w @.@.@.@.@.@.@.@.e X X @.@.@.@.@.8 X 8 @.@.@.@.@.. . e @.@.@.@.N . . @.w   o @.@.@.@.@.@.@.@.@.    e ",
"                e } = = N e           o @.e = = = .           w @.      : : : : o . . O : : : : : : w @.+ X o : : : : : : : : : : : : + . X X X X X X X X X X X O O O O O O $ $ = = = = : : : : : = : * : * * * * * : : : : : : : : : : : : : : : : : : : : : : : : : : : : : : : : : : : : : 8 0 8 0 8 0 8 8 0 8 8 8 0 0 0 0 0 0 q q q q q w w q q q q q q t t t t t { { { { { t t { { { { { #.{ #.1.{ { N N N e #.1.Q Q Q Q Q Q N m b n n g g g g n n h g g g h h h h g g g g k j j j j B B j j j j j j j j J J J J J J J J I I I I I I U T T t.t.y.M.T.k.y.V.T.k.j.k.k.k.c.J.J.J.J.J.J.J.J.U.U.U.Y.8XY.L.P.P.P.P.T.(.H.H.H.H.K.H.T.Y.y.y.T.K.y.t.K.Z.h.h.h.h.t.t.i.t.i.C.S.i.y.t.y.t.i.I.C.i.i.i.i.i.i.s.i.t.t.t.t.t.y.y.y.y.y.y.y.y.y.y.s.T.s.y.V.T.y.y.G.T.y.y.y.y.y.y.K.J.y.r.Y.c.e.j.U.k.e.k.T.k.y.r.r.u.u.u.e.e.e.e.e.e.e.e.e.e.e.e.e.e.u.r.u.r.r.r.u.u.r.u.r.r.r.r.r.r.r.r.r.y.y.y.y.r.y.y.y.y.y.y.y.y.y.y.y.y.t.t.t.t.t.U U U U U t.t.U U U U U U U U U U U U U U U U U U U U I I U U U U N.Z.T U M.N.S S J J J J B.h.I I L F F F A I I N.S.U U U t.t.t.t.y.r.r.y.h.h.k.j.k.k.G.Y.r.r.j.j.j.j.j.j.g.g.g.j.h.h.t.y.t.r.r.Y I I I I I I I I I J J J J J B j j j j j j j j j j j g g g f g g d d d p p p f p p p 3 3 3 3 5 3 3 3 3 2 2 2 2 2 2 2 2 2 2 2 2 3 3 3 3 3 3 3 p p p l l l l l l l l l l l l l l l v l l l l l l l l l l l 9 9 9 9 9 9 9 9 9 9 9 9 9 9 v v v z 0 0 0 M *.9 7 7 < < < N #.0 0 0 0 0 0 0 7 ; ; ; ; ; ; ; ; ; ; ; ; ; ; = = = = = = = + + = = = = = = = = = = = = = + + + + + X X X + + + + + + + + + + + + 8 @.8 + 0 #.= + + : : 8 : 8 : : : = O O : : : w @.0 X = : : : e @.. . : : : : N N . . @.w . o @.w : : : : : : :     e ",
"                e N     e e           O @.w                   e @.X . . . .         . .         . X 8 @.+ . . . O O O O X O X X . X . . . . X X X X X X X X O O O O $ = = = = = = = : : : * : * * * * : : 4 4 4 4 4 4 4 4 4 4 4 4 4 4 4 4 4 4 4 4 : 8 8 4 4 4 4 8 8 8 8 w w w w w w w w w w w w w w w w w w 0 8 8 8 8 0 w w e e e e e e M M M M M v v v [ [ [ [ t t t { { { { { { { #.#.#.#.#.#.#.#.1.#.@.} N Q Q =.1.Q Q Q Q Q Q Q Q Q Q Q W W Q W W W W W W W W W W W W W W W W k k k B B B B B V V k k V K K K K K K U U U T T ` ` i.i.i.a.i.N.i.s.C.T.Z.M.Z.T.V.k.k.k.k.V.J.J.K.H.K.K.K.P.P.I.I.T.kXT.I.I.I.I.I.{.+XI.I.I.I.I.I.{.T.s.s.T.K.y.t.K.h.r.t.t.t.t.t.i.p.d.`.].d.d.d.d.d.d.{.I.d.d.d.d.d.d.d.d.p.p.p.p.p.p.p.p.p.p.p.p.p.p.p.C.{.I.I.T.T.s.p.I.T.T.T.T.I.s.s.T.T.K.K.T.b.r.j.U.k.r.k.T.Y.T.T.G.k.k.J.J.J.b.J.b.J.J.J.j.e.e.J.J.K.K.K.P.P.P.P.P.Y.K.K.P.P.K.K.y.y.K.I.K.I.I.I.I.I.I.a.i.p.p.p.p.p.p.p.p.p.p.p.p.p.p.p.p.p.p.p.p.p.p.p.p.p.p.p.p.p.p.p.i.p.i.i.) ) ) ) ) ) ) ) ) ) ) ) N.S.U U N.N.S S S S S J B.T A A F F F J I U t.C.T.i.i.i.i.i.i.i.i.i.i.s.i.s.s.y.t.t.Z.T.k.y.r.r.r.r.e.e.e.G H Y Y r.t.t.i.t.t.t.t.t.t.i.i.` ` ` ) U U K K K K K K K k k j j j j j k k k V n k h h h g g g g g g g g g g g g g g g g f f p 3 2 2 2 2 2 2 2 3 3 3 p p p p p p p p z z z z z z z z l l z z z z v v v v v v v v v v v v v v v v v v v v v v l l l l l l 9 q 9 q 9 9 9 M *.0 9 8 7 7 7 { %.7 7 7 8 7 8 8 7 7 7 7 7 7 7 7 7 < < < 7 < ; ; ; ; ; = = = = = = = = ; ; ; ; ; ; ; ; = ; = = = + + + + + + + + + + + + + + = = = 8 #.8 + w @.= + + + + + + + + + + + + + + + + : @.0 O O O O O w @.O O o o o o @.N . . @.w . o @.4     .             e ",
"        = 8 w w N N     e N 8 8 8 8 8 w @.w           + w w w N @.X . : w w w w w w w w : . . . O O w @.e w w = O O w w e w w w w w w w w w w = X X X X X : e e e e e = : : : = : : : * * : 4 4 4 4 4 4 4 4 4 4 4 4 4 4 4 4 4 4 4 4 4 4 4 4 4 4 4 4 4 4 4 4 4 4 w w 4 4 4 4 w w w w w w w w w w w w w w w w 8 8 8 0 8 0 w e e e e e e e N N M e q q q q t t [ [ t t t { { #.$.$.$.$.$.$.#.#.#.#.#.$.1.#.@.#.$.=.=.1.1.Q Q &.,.,.&.&.( Q Q Q Q Q Q R R R R W Q Q Q R R R W W W W W W W k k k k k V V V ^ ^ ^ ^ ^ K K K K K K ^ ) ) ` ' a.a.a.a.a.a.a.a.C.{.C.M.C.T.V.M.Z.K.K.K.T.T.T.T.T.T.T.T.T.T.I.T.kX+X+X{.{.{.{.+X+XI.I.I.I.I.I.{.T.I.C.T.V.y.t.K.V.y.t.s.Z.C.N.p.p.d.].{.S.S.S.d.d.d.{.].S.S.S.S.S.S.S.d.a.p.p.p.a.a.a.p.p.p.p.p.p.p.p.C.T.T.T.T.T.C.s.K.I.T.T.T.T.s.s.K.K.K.J.J.j.e.g.U.j.r.k.Y.T.T.T.V.V.k.J.Y.J.J.J.b.b.b.U.k.e.r.U.K.K.K.Y.K.K.K.K.K.K.K.K.K.K.T.K.t.i.T.T.I.I.I.I.I.I.T.a.i.p.p.p.p.p.p.p.p.p.p.p.p.p.p.p.p.p.p.p.p.p.i.i.i.i.p.p.) ) ) ) ) ) ) ) ) ) ) ) ) ) ) ) a.N.N.N.S.S.) U N.B.` ` ` ` ` i.B.T A A A F A I t.M.N.S.F.t.U M.N.C.C.C.C.C.C.Z.N.i.t.i.i.i.Z.T.Z.Z.V.t.r.r.h.k.h.h.h.h.h.V.Z.C.C.C.C.i.` ` ` ) ) a.N.N.N.N.N.U K K K K K K k k k j k k k k k h k k k h h h h h h h h h h h h h h h h h g g g f f 3 3 2 2 2 2 2 2 2 2 3 p p p p f p p p z z z z z z z z z z z z v v v v v v v v v v v v v v v v v v v v v v v l l l { { { } } M q q 9 9 9 M *.0 9 w M M M @.%.7 7 M M M M M w 7 7 7 7 < < < 7 7 7 < 7 7 ; ; ; ; ; = = = = = = = = = = = = = = = ; ; ; = = = = + + + + + X X + + + + + + + = = 8 #.8 + w @.= + 8 w w w w w w w w w w e e 8 + : #.N e e e e e N @.O O O O O o } @.w w @.w . o @.4 . . : w w w O     e ",
"        w @.@.@.@.N     e @.@.@.@.@.@.@.@.w   + e O   : @.@.@.@.@.X . N @.@.@.@.@.@.@.@.w O : e : O w @.@.@.@.: O O N @.@.@.@.@.@.@.@.@.@.@.@.8 X X X X + e #.#.#.#.@.: : : : : * * * : : 4 4 4 4 4 4 4 4 4 4 4 4 4 4 4 4 4 4 4 4 4 4 4 4 4 4 4 4 4 4 4 4 4 4 4 w 4 4 4 4 4 w w w w w w w e e w w w w w w w 8 8 8 8 0 w e e e e e e e e N e e q q q q q q t t t t t { { #.#.9.9.9.9.9.1.#.#.#.#.#.$.1.#.@.$.1.4.4.4.1.Q Q 1.4.4.1.1.&.Q Q Q Q Q R R R R R W Q Q Q R R R R R W W W W V k k k k k V V V ^ ^ ^ ^ ^ ^ K K K K K ^ ) ) ` ` ' a.a.a.a.N.a.N.N.S.C.M.V.Z.V.M.K.T.T.T.{.{.{.{.{.{.kXkXkXT.I.I.kXkXkXkX+X+X+X+X+XI.I.I.I.I.I.{.{.T.T.T.C.y.y.V.t.t.t.C.T.I.F.a.p.d.].{.{.{.{.`.d.p.{.{.{.{.{.{.{.{.{.C.p.p.p.p.p.p.p.p.p.p.p.i.i.i.i.s.s.i.s.s.s.s.s.s.s.s.s.K.T.t.t.t.t.r.e.e.e.e.j.U.k.r.y.u.y.s.s.s.k.y.J.K.e.e.e.e.e.e.U.k.e.r.U.k.r.y.y.y.y.y.y.y.y.y.y.y.y.K.K.t.t.T.K.i.i.i.i.i.s.T.a.i.i.i.i.i.i.i.p.p.i.i.i.p.p.p.p.p.p.' p.p.i.i.) ) ) ` ` ) ) ) ) ) ) ) ) ) ) ) ) ) ) ) ) N.S.F.F.S.S.^ K N.A.Z.Z.A.A.A.Z.A.T A I o.F A T Z.A.F.F.F.T U B.F.F.F.F.F.F.F.T.C.t.s.K.V.t.V.T.T.T.T.h.r.r.Z.K.D.Z.D.D.D.K.K.T.F.F.F.N.` ` ` ) ) N.F.F.F.F.A.K K K K K K k k k j j k k k k k k j j h h h h h h h h h h h g h g g g g g g g f f p 3 2 2 2 2 2 2 2 2 2 3 p p p p p p p p z z z z z z z l z z z v v z v v v v v v v v v v v v v v v v v l l l l l l l *.*.*.*.*.{ 9 9 9 9 7 M *.0 9 M *.*.*.*.%.7 7 #.*.*.*.*.M < 7 < ; ; ; ; 7 ; < ; ; ; ; ; ; ; ; = = = = = = = + = = = = = = = = = = = = = = + + + + + + O + + + + + + + = = ; w : + : w = + e #.#.#.@.@.@.@.@.@.@.@.@.e + : @.@.@.#.@.@.@.@.@.O O O O O O } @.#.#.#.w . O 4 o   . w @.@.@.:     e ",
"        8 @.: O O O . . O + + O O O O O O .   : @.: X w @.: + + = O O N N = = = = = = @.w O : @.w O o : : : = + O O N } + + + + + + + + + : @.8 + + O = = e #.: : N @.: : : : : : : : : : 4 4 4 4 4 4 4 4 4 4 4 4 4 4 4 4 4 6 4 4 4 4 4 4 4 4 4 4 4 4 4 4 4 4 4 4 w w w w w w 4 w w w w w w w w w w w 8 8 8 8 8 8 8 e e e e e N N N N e e q q q q q q q q q q t t { { #.#.#.9.1.$.$.9.1.#.#.#.#.#.$.1.#.#.$.4.&.&.! ! Q Q 1.,.Q Q ,.,.Q Q Q W W W W W W W Q Q Q Q Q R W W W W W V V V j j j j V k k V ^ K K K K K K K K K K K K P ` ` ` ` ` i.i.M.M.M.V.V.V.V.V.V.V.k.K.T.V.K.K.H.H.K.K.K.K.K.sXT.I.I.I.I.I.I.I.I.I.I.I.I.I.I.I.I.f.I.H.f.s.s.t.t.y.y.t.y.t.y.t.i.p.d.d.d.d.d.d.d.].].p.p.p.p.p.p.p.a.p.f.I.p.p.p.p.p.i.p.p.p.i.p.p.i.i.i.i.i.i.i.i.s.s.s.s.i.i.t.t.K.K.y.y.y.y.r.r.r.e.e.j.U.k.r.y.y.y.y.y.y.y.y.J.K.e.e.e.e.e.e.U.k.e.e.U.k.r.y.y.r.r.r.r.y.y.y.y.y.y.K.K.y.y.T.K.y.y.t.t.t.s.F.i.t.t.t.t.i.i.i.i.i.t.t.i.i.p.p.p.p.p.p.p.p._ i.) ) ) ) ) ) ) U U ^ ^ U U U U U U U K K K ' S.` ) ) ) K K K U I U U U U U K J J I B.I A T Z.U I I Y I I Z.C.T t.t.t.t.t.K.C.t.M.T.V.y.t.k.y.y.y.r.r.r.J.D.r.e.e.Y Y r.r.y.t.i.F.i.U U U U U N.F.) U N.B.K K K K J J B B j j j j j j j g g g g g j g g g g g g g g g g f f f f f f p p p p p 3 2 2 2 2 2 2 2 2 2 3 p p p p p p p z z z z z z z z z z z z v v v v v v v v v v v v v v l l l l l l l l l l l 9 9 *.} l l *.{ 9 9 9 9 9 M *.9 7 M *.0 8 8 0 < < @.} 8 8 *.M < ; ; ; ; ; ; ; ; ; ; ; ; ; ; ; ; ; ; ; = = = = = + + + + + + + + + + = = = = = = = = = = + + + + + + + + + + + + + + + + + + + e @.= = = = = = = = : = @.e + + ; ; : : ; ; = = = O O O . . . o o o o o O . . o . . . O o o o O     . ",
"        w @.O                                 : @.: X w @.= . . O O O N N O O O O O O @.w O : @.w O O O O O O O X X N } X X . . X X X X X = @.w + + + = = e #.: : N @.: : : : : : : : : : * * : : : : : : : 4 4 4 4 4 4 4 4 4 4 : : : : : : : : : : : : : : : : : : : : 8 8 8 8 8 8 8 8 0 0 0 8 0 0 8 8 8 0 0 0 w w e e e e e e e e e e q q q q q q q t t [ [ { { #.#.#.#.#.9.1.#.$.0.1.#.#.#.#.#.$.1.#.@.=.1.Q Q Q Q Q Q ,.,.Q W ,.( R R R m m h h m m h h h h h h h h h h h h k j j j j j j j V k k V V V V K K K K K K K J J J K U U U U U U U T T T T t.t.t.t.t.t.K.T.t.t.s.s.s.V.V.V.V.V.T.K.V.V.G.G.H.K.H.H.H.H.H.H.I.H.H.f.f.f.s.s.s.t.t.y.y.y.y.t.t.t.t.t.p.p.p.d.p.p.p.p.I.S.p.U U U U U U U U i.S.i.U U U U U U U I I I I r.I I I r.t.I I t.Z.K.K.K.K.K.K.K.Z.r.r.r.r.e.e.g.J.J.J.U.j.e.j.K.K.K.K.K.r.r.G.J.e.e.e.e.e.e.U.j.e.e.J.g.e.r.J.J.J.J.r.e.e.k.K.K.K.U.Z.e.G Z.Z.Z.Z.Z.t.I y.Z.Y G I I I I I I I I I U U ) p.p.p._ p._ ` U U U U I J J J J J J J J S S S S S j S S S S j T B.J J j j J J J S S S S S J S S S S U B.U A T B.J J J J J J M.M.F A G G G G Z.h.G r.K.t.G I I I I G G G G Z.Z.G G G G G G G G I I Z.T F J J J J T B.S S ` N.j j j j j j j j j j j j j j j g d d d d d p p p p p p 5 5 2 5 d 5 3 3 5 2 2 2 2 2 2 2 2 2 2 2 2 2 2 2 2 2 p p p p p p p p p p z z z z z z z z v v v v v v v v v v v v v v v v l l l l l l l l l l 9 9 X.{ 9 9 *.{ 9 9 9 9 7 M *.9 < M *.; ; ; ; ; ; } { ; ; *.M ; ; ; ; ; ; ; ; ; ; ; ; ; ; ; ; ; ; ; = = ; ; ; = + + + = = = = = = = = = = = = = = = = + + + + + + + + + + + + + + + + + + + + e @.O O O O + + + + + + @.e + + + + O O O O X O O O O . . . . . . . . . . . . . . . . .               ",
"        w @.e e e e e e e w     . e e e :     : @.N e N @.+ . 8 e e e N N X O O X X X @.w O : #.N e e e N N e e X X N } X X X . X X X X X = @.w + : N N N @.#.: : N @.: : : : : = = : : : : : : : : : : : : : * : : : : : : : : : : : : : : : : : 8 : : 8 8 8 8 : 8 8 8 8 8 8 8 8 8 8 8 8 8 8 8 8 8 8 8 0 0 q q w q q q q e e e e e e e q q t t [ [ [ [ [ { { { { { {  . . .9.1.#.#.1.1.1.1.1.1.1.1.1.#.#.=.1.Q Q &.=.=.=.1.,.m m ,.( R h h h h h h h h h h h h h h h h h h h h h h k j j k k k k k k V V V V K K K K K K K J J J U U U U U U U U T T t.Z.Z.Z.Z.Z.i.t.Z.T.t.M.V.V.V.V.V.V.V.V.T.T.T.T.T.K.H.I.T.T.{.{.{.{.{.].].].].I.I.f.p.f.I.I.K.S.S.S.S.C.p.p.d.I.I.].I.I.I.I.].I.p.i.i.U U t.C.C.C.C.I.i.U U U U U U U U U t.r.I I I I t.K.t.I h.K.Z.V.V.V.V.V.V.V.r.r.K.Z.r.e.e.k.b.k.k.j.e.k.Y.Z.J.K.K.r.r.G.K.e.e.J.b.e.e.U.j.e.e.e.e.e.j.U.Z.V.V.r.r.r.V.K.k.Z.k.k.e.e.Z.V.V.Z.K.h.Y t.K.r.I t.K.I I I I I I U U U i.p.p.p.p.p.` p.U U U U U U I I J J J J J J J J J J S S J S S J ` B.-.-.-.-.-.-.-.` S S K N.N.N.` S S U A.N.M.N.A.U S ` M.M.N.N.M.J J I I I I K.h.G Y Z.Z.V.V.V.V.V.V.V.I I Z.Z.G G G G G G G G I Y A.t.I T M.M.M.N.B.J S -.N.S j j j j j j j j j g g g g g g g d d g d d f d d d d d 3 3 3 3 3 2 2 3 3 3 3 3 3 2 2 2 2 2 2 3 2 2 2 2 2 2 2 2 3 p p p p p p z z z z z z v v v v v v v v v v v v v v v v v v v v v l v l l l l l l 9 X.{ 9 9 *.X.} } } { { } *.9 9 M *.7 7 M { { { %.{ < ; *.M ; ; ; ; ; ; ; ; ; ; ; ; ; ; ; = = = = = = = ; ; ; = = = = = = = = = = = = = = = = = = = = = = + + + + + + + + + : N N N N N = + e @.O O O + + + + + + + #.} N N e : O : e e e e e e e e e e e e w . . : e e e e e e e e o   : e e e e ",
"        8 N N N N N N N @.e     O N N N w     = N N N N N + . e @.N N N e . . . . . . @.w O : @.} } } @.@.@.@.@.X X N } X X X X X X } w O = @.w + w #.@.@.@.@.= : N @.: : : : : = = : : : : : : : : : : : : : : : : : : : : : : : : = ; ; ; ; ; ; 8 ; ; 8 8 8 8 8 8 8 8 8 8 8 8 8 8 8 8 8 8 8 8 8 8 8 8 0 0 q q q e q q q q e e e M t e e t t t { { { { { { { { { {  . . . .9.<.#.#.1.1.1.1.1.1.1.1.1.#.#.,.1.Q Q ,.1.1.1.,.=.m m ,.( R h h h h h h h h h h h h h h h h h h h h h h h h m V m k k k k V V V V V K K K K K K K K J U T T T U U U U T T M.F.F.F.T.T.i.i.C.T.M.V.T.T.V.V.T.K.V.k.T.T.T.T.T.I.H.T.+X+X+X+X+X+X+XoX{.{.{.{.{.f.f.f.].].].].].I.].{.d.d.S.{.].].].].].].].S.p.p.p.i.i.p.I.I.S.I.S.i.t.t.t.t.t.t.t.t.t.t.t.t.t.T T i.K.t.t.M.K.t.y.r.t.y.r.r.r.y.r.K.Z.r.r.r.r.r.r.r.r.r.k.T.y.y.V.K.y.r.G.K.r.r.K.J.r.e.U.k.e.e.e.e.e.j.U.y.r.r.r.r.r.V.K.r.r.r.r.r.r.r.r.r.t.K.M.r.t.K.t.I t.K.T I U I U U U U U i.p.p.p.p.p.p.p.U U U U U U U U U U K K K K K K K J J S J J J J ` B.B.B.B.B.B.B.A.N.S S K A.A.S.a.K K ) A.A.A.A.A.U K N.S.N.A.N.N.I S S I I I K.h.G Y Z.Z.Z.Z.Z.K.K.K.K.I I Z.Z.I Y Y G G G Z.h.G U F.i.I i.A.B.B.B.B.K K N.B.S S S j j j j j j j j p p p p g g g d g g g f f d f f f f 3 3 2 2 2 5 3 5 5 5 5 5 5 3 2 2 2 2 3 3 3 3 3 3 3 p 3 3 p p z z z z z z z z z v v v v v v v v v v v v v v v v v v v v v v v v v v l l l l l o.X.9 9 o.X.*.X.X.*.X.X.X.9 9 { *.9 7 { *.} } } { < ; *.M < < ; ; ; ; ; ; ; ; ; ; ; ; ; = = = = = = = ; ; ; = = = = ; ; ; ; = = = = = = = = = = = = = = + + + + + = = + + 8 #.@.@.@.#.= + e @.+ O N N + + N e + O } @.@.@.@.0 O w @.} } } @.} @.} } } } @.N . . : } @.Q N Q N @.@.:   w @.N N N ",
"                        e e       . . . . . . . . . . . . . . e @.            . . . X @.w O O O O O O O O O w @.X X N } X X O X X + @.w O : @.w o w #.w = = = = = N @.: : : : : : : : : : : : : : : : : : : : : : : : : : : : : : ; ; ; ; ; ; ; ; ; ; ; 8 8 8 8 8 8 8 8 8 8 8 8 8 0 w w 8 8 8 8 8 0 0 w w w e e e e e e e e e t { { { { t { { { { t t { { { { { { {  . . . .<.<.#.#.#.#.#.#.#.#.#.#.#.#.#.,.4.#.#.1.1.Q Q Q Q Q Q 1.( R R R R h h h h m h h h h h h h m m V V V R R W W W W V k k R R W W W W W ^ ^ ^ ^ ^ ^ K K K U T U U T T T U T T M.F.M.i.C.F.a.a.S.T.C.C.T.T.C.C.T.Y.k.k.k.k.k.K.T.P.H.T.{.I.I.I.f.I.f.f.f.f.f.{.{.f.f.f.d.d.d.d.d.d.S.{.d.d.S.{.d.d.d.d.d.d.d.d.p.d.d.p.p.d.].d.p.p.p.p.p.p.p.p.p.p.p.p.p.i.i.p.p.p.i.p.T.p.i.C.T.i.i.i.i.i.i.i.i.i.i.I.K.t.t.t.t.t.t.t.t.t.C.T.s.s.C.T.s.i.K.T.s.s.I.K.y.t.T.V.y.r.y.r.r.k.T.M.y.y.y.t.t.K.T.s.s.t.i.i.i.i.i.i.i.T.C.i.a.F.a.i.a.F.i.i.i.) ) ) ) ) i.p.p._ _ _ _ p.p.p._ _ _ _ ) ) ) ) ) ) ) ) ) ) ) ) ^ ^ ^ ^ ^ ^ ^ ^ ^ ^ ^ ) ^ ^ ^ S.N.K K ^ ^ ) ) ) ) ) ) ) ^ ^ ^ ^ ^ ) N.S.) ) ) ) ) ) ) ) ) U S.i.I G I I I I I I U V.F.t.t.Z.K.I Y I I G F Z.h.G U S.i.U a.F.` ) ) ) ) U N.A.K K K K K k j p j j p p p p p f g h k h h h g g g g g g f 5 3 2 2 2 3 5 f g g g g f f f f f f f f f f f p p p p p z z z z z z z z z z c v v v v v v v v v v v v v v [ [ [ [ v v v v v v v v v v v v v *.X.l l v l l l l l l 9 9 9 9 { *.9 9 { *.7 7 9 9 9 9 *.M 9 9 7 7 7 7 7 7 7 ; ; ; ; ; ; ; ; ; = = = = ; ; ; ; ; ; ; ; ; ; ; ; ; ; ; ; ; ; ; ; ; ; ; = = = = = = = = = = = 8 #.8 + w #.: + e #.+ + N } + + } M + + + + + 8 @.w + w @.= O O O O O o o o o } N o . . . o o . . . 8 @.:   w @.      ",
"                        e e . . . . . . . X O X X . .         e @.      . . . . X X O #.e O O O O O O O O O w @.O X N } O O O O + + #.e + : #.w = w #.w = : = = = N #.: : : : : : : : : : : : : : : : : : 4 : 4 4 4 4 4 : : : : : : : ; ; ; ; ; ; ; ; ; 8 8 8 8 8 w w w w w w w w w w e e e e e e e e e e e e e e e e N N N N N { { { { { { { { { { { { { { { #.{ {  . . .{ 9.1.#.$.$.$.$.$.$.$.$.$.$.$.$.1.4.! ! 1.4.Q Q Q Q Q Q ,.&.R W W W R R R h m h R R R R R W W W W W W W W W W W W W W W W W W ^ ^ ^ ^ ^ ^ ^ ^ ^ ^ _ _ ' ` ` ` U U U I I U U M.F.N.a.C.{.N.a.S.{.C.C.{.{.C.C.T.K.k.j.k.k.V.K.T.I.H.I.+XI.I.I.I.I.R.R.R.I.f.{.{.f.f.f.d.d.d.d.d.d.I.{.f.d.I.{.d.d.d.d.d.d.d.d.d.d.d.d.d.d.{.f.d.d.d.d.d.p.d.d.p.d.p.p.p.p.p.p.p.p.p.a.I.f.p.C.T.T.T.T.T.p.p.s.C.p.p.T.S.p.p.T.T.T.T.K.s.i.C.T.s.i.K.T.T.T.T.T.p.p.I.K.s.i.T.C.i.t.t.t.t.h.T.T.T.T.M.t.s.K.T.p.p.I.T.T.T.I.p.i.p.T.C.p.a.F.T.T.T.T.p.p.p.p.p.p.i.p.p.p.p.p.p.p.p.p.p.p.p.p.p.p.p.p.p._ _ _ _ _ _ _ _ _ _ ) ) ) ) ) ) ) ) ) ) ) ) ) ) S.S.^ ^ ) ) ) ) ) _ _ ) ) ^ ^ ^ ) ) ) S.F.) ) ) ) ) ) _ ) ) ) S.a.I I I I I I I U T C.F.t.T S.F.t.t.I I I J B.h.J U S.i.) a.F.a.) ) ^ ) ) N.S.K K K K K k j j d p p p p p p p g g k h h h h h h h h g g g f 2 2 2 2 3 f f f g g g g g g g g f f f f f f f f f b b b b b c c z z z c v v v v v v v v v v v v [ ............[ [ v v v [ [ v v v v v v <.X.v v v v v v l l l l l 9 9 { *.9 9 } *.9 9 7 7 7 7 *.{ 7 8 8 7 7 7 7 8 8 7 7 ; ; ; ; ; ; ; ; = = = = ; ; ; ; ; ; ; ; ; ; ; ; ; ; ; ; ; ; ; ; ; ; = = = = = = = = = = = 8 #.8 + w #.: + e #.+ + N } + + } e + O O + + 8 @.w + w @.= O O O O O o . o o } N o . o . . . . . . 8 @.: . w @..     ",
"o e e e e e O           N @.N N N w . O N N N N N N N N N N N N @.      N N N N N N N @.e O O O O O : N N N } @.O O N @.N N N N N N #.e = : #.w = w #.@.N N : = = N #.: : : : : : : : : : : : : : : : Q @.@.@.@.@.@.@.e 4 4 : e @.@.} } : : ; { } } } 8 8 8 8 w w w w w w w w w w e e e e #.=.=.=.=.=.=.$.$.$.=.=.$.$.$.$.$.{ { #.1.1.1.1.1.1.1.1.$.#.#.#.#.#.#.#.#.#.{  .#.9.9.1.1.1.$.$.$.4.4.4.4.4.$.$.1.4.4.4.4.4.! Q ,.,.,.,.1.&.W W W W W R R h h ( ,.,.,.,.,.,.,.,.,.,.,.,.,.,.,.,.,.,.,.,.( ~ ( ~ ~ ( ( ( ( ( ( _ _ _ ' ' ' ` ` U P K J J U T M.T.C.a.S.{.T.T.{.{.f.C.{.{.C.V.T.T.U.U.Y.T.T.T.{.I.H.I.+XI.R.].{.{.{.{.].].].{.].f.f.].].].].].I.d.I.{.f.d.S.{.].].].].].].].d.d.d.].].].].{.S.d.d.d.d.d.p.p.d.p.p.p.p.p.p.p.p.p.p.p.p.p.p.p.a.S.S.S.I.T.p.i.I.T.s.i.T.S.i.i.T.I.K.K.C.i.i.C.T.s.t.V.C.K.S.C.C.p.p.p.p.i.i.T.C.i.i.t.t.r.t.V.V.V.V.t.t.t.K.I.i.i.S.I.C.C.C.i.i.p.T.C.p.p.C.C.C.C.C.p.i.i.i.i.i.i.i.i.p.p.i.i.` ` p.p.p.p._ _ ' ' _ ' ' _ ) ) ) ) ) ) ) ) ) ) ' S.S.S.S.S.) ) ) ) ) ) S.S.N.N.S.a.^ ) S.S.S.S.S.S.S.S.S.S.S.S.F.) ) ) S.S.S.S.S.S.S.S.M.I I I I I t.Z.C.Z.K.F.t.U S.F.S.K.Z.Z.Z.Z.A.t.J U S.` U a.F.S.S.S.` ) ) N.S.^ ^ ^ K K k j j p p p p p p p p / &.&.;.&.&.&.&./ h h h W &.&.%./ 2 2 2 %.%.&./ f f g g g g g g f f f f f f f f z z X.%.-.*.:.*.*.:.:.:.:.o.o.o.o.o.o...v o.+.z.z.z.z.z.z.+.+.[ [ [ [ [ [ v v v v v v <.*.+.+.X.v v v X.X.X.X.X.v 9 { *.X.} *.*.7 9 { } } } *.{ 7 7 7 7 7 7 7 8 8 M } } } } } } } { { { { { { { { } } } } } 8 ; ; ; ; = ; ; ; ; ; ; ; ; = = = = = = = = = + + + 8 @.8 + w #.N N } @.+ + N } + + } } N N N N N { @.8 + 0 @.= O w N N N N N N N @.N . . N N N N N : . 8 @.: . w @.N e e ",
": @.N e N @.O   e N . . e N N N @.e . o @.} N N N N N e e e N N N . . . N N N N N N N N w O + + O O w #.} N N N + + e N N N N N N N N w = = = = = w } N } } 8 : = N @.: : : : : : : : : : : : @.@.4 : #.#.@.@.@.@.@.@.e 4 4 : N @.@.#.#.7 7 7 } } @.} 8 8 w w w w w w w w w w e e e e e e =.1.=.=.=.=.=.$.$.$.$.=.=.1.1.1.1.#.{ #.1.<.1.1.1.1.1.9.1.#.#.#.#.#. .#.#.#.#.#.#.1.1.1.4.1.$.$.$.0.4.1.4.4.$.$.$.4.4.4.1.1.#.Q 1.4.,.,.,.( Q W W W W ( ,.Q R ( ,.,.,.,.,.,.,.,.,.,.,.,.,.,.,.,.,.,.A.F.( ( ( ( ( ( ( ( ( ' ' ' ' ( ' ' ' ` ` / P P P L T ` i.N.N.N.S.T.T.T.T.T.f.C.C.C.C.V.K.U.U.U.T.T.T.T.{.I.I.I.I.I.].].@X{.].].].].].].].f.f.{.].].].{.I.d.S.{.d.d.d.].].`.`.].].].`.d.d.p.{.].I.I.I.d.p.p.p.p.p.p.p.p.p.p.p.p.p.p.p.i.i.i.i.i.i.s.s.i.i.s.i.C.T.i.t.K.F.t.t.T.K.t.t.T.C.t.t.y.t.t.M.F.t.y.t.t.t.t.i.i.i.i.i.i.i.i.T.C.s.s.y.r.I Y G G G G G I r.Z.K.t.t.K.K.t.t.t.t.t.i.F.M.i.i.i.i.t.t.t.t.t.t.T T T ) ) ) i.i.) ) ) ) ) ) ) ) ) ) ) ) ) ) ) ) ) ) U ) U ^ ^ U U U ` S.A.N.S.S.) U N.A.K K a.N.N.N.A.N.K ) S.S.S.S.S.S.S.S.S.S.S.S.S.U U U B.N.S.S.S.S.C.C.i.I I I I I t.F.Z.C.Z.Z.T U C.Z.Z.K.Z.Z.Z.Z.Z.T J J J J U ` A.A.A.A.` K K N.S.K K K K K k j j p p p p P P p p &.&.&.&.&.&.&.&.Q h h h Q &.&.&.=.2 * * / / / / d d f f f f f f f f f 5 5 p p p p p %.>.%.%.%.*.X.:.:.:.o.o.o.o.o.+.D...v o.D.+.+.z.z.+.z.D.+.[ [ [ [ [ [ v v v v v v o.o.o.o.X.l l v <.o.X.X.*.v 9 C } } } } { 9 9 } *.} } } M 7 7 7 7 7 e *.q 7 N *.} } } } } { { { { { { { { { { { { } #.8 = = = = = = = = = = = = = = = = + + + + + + + + + + + + + 8 N N N N N O O O O + + N N N N N N N N N : X X X X X w @.N N N N N N N e . . @.N N N @.:   8 @.:   : N N e e ",
": @.+   8 @.O   e N . O O . . o } e . o @.w                     . . . . X X X X X X O O O O O O O O w @.: O O O O O + + + + + + + + + + + + + = + + + + + + = = = N @.= = : : : : : : : : : : @.@.: : #.Q : : : : : : : : : : ; ; 8 { #.7 7 7 7 7 8 8 8 8 w w w w w w w 0 0 0 0 0 8 8 q q *.=.q q q q q q q q q t t t t { <.{ t  .<.t t t { { { <.<.{ { { { { { { { { { { { {  .#.#.#.#.#.#.1.$.@.=.1.#.@.@.@.@.Q N N N N 1.=.N m m m m m m m m Q ,.W m ( ,.m m h h h m h h h m h h h h j k V ^ A.^ k V V V V V V V K K K K K K K K K J J J J I J T T T T T T t.t.t.t.t.t.t.t.t.t.h.t.r.r.r.t.h.j.k.h.k.V.V.V.V.V.s.I.T.s.s.s.s.s.s.i.t.t.t.F.C.t.t.I.i.U i.F.t.U U U U I I I I I I S S S S.N.S S I I I I S S S I I I I I I I I I I I I I I I r.r.r.r.r.I G h.K.G G V.Z.I G Z.V.I I K.V.r.r.r.Y G r.D.r.r.r.r.r.r.t.t.t.t.t.t.t.t.I.K.V.V.t.t.Y Y Y G D G Y Y r.Z.Z.G G Z.M.G G Y Y Y t.Z.t.I I I Y Y Y Y I J F J J J A A A A J A A S S S S J A S A A S S S A A A s A A A A A A s s J B.J s T N.S s T M.s s s s j j N.` j K A.` S S S S S S S S S A A A A A A A A A A A F F F F F F A A Y Z.I G I I I I A F I I I I J F F A A A D F A J S S S S S j j / ;.j j j j j j d p p p p p %./ p p &.P p p d 5 5 5 3 3 3 3 3 5 3 Z =.2 2 , * 2 2 2 2 2 2 2 2 2 3 3 3 3 3 2 2 3 2 2 p p X.%.p l z l l z l z v x x x v ..D...v o.D.v v v v v v D.+.[ [ v v v v v v v v v v l l l l l l l v *.v 9 C *.q 9 9 9 7 7 < < ; ; } { ; ; ; ; ; ; ; ; ; w *.0 ; M *.; ; ; ; ; ; ; = = = = = = = + + + 8 #.8 + + + + + + = = = = = + = + + + + + + + + + + + + + + O O O O O O O X X X X X + + + X X X X . . . . X X X . . . w @.. . .   . .         @.w   O @.:   8 @.=             ",
"= @.+   8 @.O . e N o o O o . . } e . + @.w               .     . . . . . X . X X X X . . . . O O O w @.= O X . O O X X X X O X X X O O X O + + + + X X O O + + + N @.= + + = = = = = = = : = @.@.: : #.N : : : : : : : : ; 8 7 7 7 { #.7 7 7 7 7 8 8 8 8 8 8 8 8 8 8 8 q q q 8 8 8 8 q q } *.q q q q q q q q q q q q q { <.{ t { <.t t t [ [ [ <.<.t t [ [ [ [ t t [ [ [ [ { { { { { { { { 1.#.{ #.1.} { N M M M M M e M =.=.e e w w w w b b b Z >.m g / >.g g g g g g g f f g g f f p p f f V >.V g g g g j j j j j j B B B B B B J J J J J J I I J I J I Y T T T T Y Y T Y Y r.r.r.r.r.r.t.h.j.y.t.t.t.k.k.k.s.s.K.T.i.s.t.t.t.t.t.t.U U F.M.I T K.i.I i.S.T I I S S I I I I S I I I J B.M.J J J J J J J J A G G J G G A G G G G G G G G I Z.Z.Z.Z.Z.I G t.K.G G y.t.e.e.Z.V.G G Z.Z.Z.Z.K.r.G r.D.D.D.D.r.I r.t.t.i.i.i.i.i.i.T.T.T.I.K.K.Z.Z.Z.Y G h.Z.Z.Z.Z.Z.G G r.r.G G Z.Z.Z.Z.Z.t.G G t.Z.Z.Z.Z.I A A A A A A A A A A A A A A A A A A A A A A A A A s s s s A A A A A A A J B.J s U B.S s T M.s s s s s s M.T s J B.T S A s A A A A A A A A A A A s A A A A A A A A A A F F F Y Z.I G G G G A F F A F F F F F F F F F F F A S S S S j j j s ` -.j j j j j p p p p p p p %./ p p %.P p p p 2 2 2 2 2 2 2 2 2 2 Z %.2 2 2 2 , , * 2 2 2 2 2 2 2 2 2 2 2 2 2 2 2 2 2 2 X.-.i p z z l l l l v x v x v ..D...v o.D.v v v v v v <.+.v v v v v v v v v v v v l l l l l l l v *.v 9 C *.q 9 9 9 7 < < ; ; ; } { ; ; ; ; ; ; ; ; ; q *.0 ; M *.; ; ; = = = = = = = = = = = + + + 8 #.8 + + + + + + + + + + + + + + + + + + + + + + + + + + + O + + O O O O X X O X X X X X X . . . . . . . X X . . . . w @.. . .           . . @.w   O @.:   8 @.=             ",
"o @.+   w @.o   e N . . e } @.N @.e   O N 8   = N N N N N N N N N . .   . . . . . . . . . . . . . . : N + X O + . . e } } } } } } } } } } } e + O 8 } } } } } O O e @.+ + : = + + + + = = = = } #.@.@.#.N = : #.@.@.#.#.@.@.@.#.8 7 { #.} #.#.#.#.#.#.{ 8 8 8 8 8 8 8 8 q q q q q q q q q { *.q q  .*.*.*.<.{ q q t q q [ <.[ t { <.+.<.<.+.[ [ <.+.t t [ t [ [ t t t t t t [ [ [ [ <.<.<.<.<.{ { } 1.{ M } <.<.=.=.M q 0 *.*.0 0 *.=.=.*.*.*.=.=.=.m f / >.&.&.=.=.=.=.&.f 5 f b f p p %.-.-.-.>.B p p p p p p p s s s s s c c c c c c F F F J J I J J F J I I Y Y Y Y Y Y Y Y Y r.r.r.r.t.t.t.h.t.t.t.t.t.t.t.t.t.C.T.F.F.K.K.t.t.t.K.Z.Z.K.M.I t.K.t.I t.Z.Z.B.B.N.J J J N.Z.C.N.Z.Z.N.B.` A J J J A A A A A A A A A A A A A F G G G G G Y Z.t.r.h.Z.G G t.Z.G G e.G G G Z.k.G G t.t.t.h.Z.r.G G r.r.r.r.I I r.t.i.i.i.i.i.i.i.C.a.a.C.M.M.t.h.Z.Y G h.Z.h.r.r.Y G G G G G G Z.M.Y r.Y I G G I Y Y h.Z.I A A A A A A A A A A A A A A A A A A A A A A A s s s s A A s s s s s s s J B.J s T B.S s T -.s s ` -.M.M.B.T s J M.U s J M.M.M.M.M.M.M.M.M.A A A s A A A A A A A A A A F F F Y M.G A G G F A h.Z.M.Z.M.M.M.M.Z.Z.M.Z.o.F A K N.N.N.N.N.j s / -.s s j j j j p p p p p p %.;.&.&.=.P p p %.%.%.%.%.%.%.%.&.f 2 Z %.%.%.%.%.%.%.%.C 2 2 2 2 2 2 2 2 2 2 2 2 2 3 p 2 2 X.-.i p X.:.:.:.:.X.v v v v v ..D...v o.<.+.+.+.o.v v <.+.v v v v v v v v v v v v v l l l +.o.+.+.*.v 9 C *.q 9 C X.} %.} 7 ; - { { ; ; } } } } } } } #.*.0 ; M *.} } } } } } } ; ; ; : ; ; : } } @.@.#.8 + + + + + + + = = = = = = + + + + + + + + + + + O O + + + + + + + O O X O X X X X X X . . . . . . . . X . . . . w @.} } N e     + N N N @.w   O @.:   8 @.@.N N N       ",
"o @.:   w @.o . . . . . N N e e e :           = @.e e e e e e N }       . . . . . . . . . . . . . X X X . . w @.. . N } e e e e e e e e e e 8 X + 0 @.N e N @.X X e } + + N N + + + + + + = = e N N N N w = : #.@.N N { { { { #.7 7 q { { { { { } } *.} 8 8 8 8 8 8 8 q q q q q q { *.q q  . .q q *.*.{ { <.{ q t <.[ q [ <.[ q [  . . .<.<.[ [ <. .t t [ [ [ [ t t t t t { { { [ [ <.<. . . .{ { { 1.{ M #.<.*.#.} q q 0 0 0 0 0 =.@.@.@.@.@.@.@.@.b 5 m / / / %./ / / / f f f >./ f n >.%.%./ / B p p p p p p p j j j j j s c c c c c F F F F F J I J F I I I I I I Y T T Y Y Y r.r.r.r.r.h.t.t.t.t.t.t.t.i.i.i.t.V.K.K.K.F.K.t.t.t.Z.C.C.C.t.I t.K.t.I T M.M.M.N.A.J J J i.M.M.M.M.i.` ` U S J J J J A A S A A A A A A A A A D G G G G G I Z.Y G r.Z.G G t.Z.G G G e.G G Z.k.G I I I I r.Z.r.G G G G G G G G t.i.i.i.i.p.p.i.i.i.i.i.i.i.t.G Y Z.Y G h.Z.G G G I F F G G G G Z.h.G G G G G G F F F Y Z.G F F F A A A A A A A A A A A A A A s A A s s s s s s s s j j j j j s s s J B.J s T B.J j s s s s -.;.` -.` U s s s s s J N.` ` ` ` T T M.B.A s s A A A A A A A A A A A A A A A A A A t.Z.F F M.Z.M.M.M.M.M.M.M.M.i.` P c F T B.-.-.;.A.j j / ;.j j -.-.j j j j j d d p V / / / P B p f ;./ W W W W W / &.d 2 m W W W Z Z Z Z %.Z 2 2 2 2 2 2 2 2 3 3 2 2 2 C =.p p %.-.p p :.:.o.o.:.o.v C D.o.v o.D...v ..o.o.o.z.D.v v D.+.[ [ [ [ [ [ [ v v v v v v v v v <.+.o.{ X.v 9 v *.v 9 { *.} { { 9 9 9 9 7 7 7 *.} { { { { { { { 8 ; 0 { { { { { { { { ; ; ; *.{ ; 8 #.{ N M M 8 = = = = = + + + = = = = = = + = = = = + = = = + + + + = + + + + + + + + + + X . . X X X X X X X O . . . . . X O 8 e e e } N . . O e e e e : . + @.:   : e e e N @..     ",
": @.:   w @.o . . . . . N N .                 = @.=           e @.. . . . . . . X X X X . . . . X X X X X X w @.X X N { X X X X O O X X X X X O O 0 @.: + w @.+ + N @.+ = N N + + + = = = = = ; = = = = = = : #.e : : ; ; ; q #.8 7 7 7 7 7 8 8 8 8 #.@.8 8 8 8 q q q 7 7 7 7 q q { <.q q  .*.q q <.{ q q <.{ q { <.{ t { <.{ t t t t t  .<.t t <.<.t t { { { { | {  .{ { [ [ { { { <.*.{ { { { { #.1.@.} =.1.Q Q N Q N N N Q m Q 1.&.m m m m m m m m m m m m m m m h h h h h h >.%.g n >.Z f p g j n n j j k k V V K K K K K K K K K K K K U U U U U U T T T T T T T t.T T Y Y Y Y r.t.t.i.V.s.s.s.s.s.a.a.a.a.a.p.p.a.p.p.I.T.p.p.i.p.i.p.p.p.p.a.T.a.p.p.i.p.) d.S.) ) ) ) ) ) ) ) ) ) ) ) ) ) ) ) ) ) ) ) ) ) ) ) ) ) ) ) ) ) i.i.i.i.i.p.I.p.i.a.I.i.t.N.F.t.t.i.s.s.s.K.C.t.t.U t.r.t.Z.r.G G Y Y r.h.r.I t.p.i.i.i.p.p.i.i.i.i.i.i.i.t.G Y Z.h.Y h.Z.G I t.V.i.M.M.i.) ) F.C.i.i.a.a.a.a.a.) ) a.S.a.a.a.) ) ) ) ) ) ) ) ) ) ) ) ) ) ) ) ) ~ ) ) ~ ~ ~ ~ ) ) ~ ~ ~ ~ ~ ~ ~ _ _ S.' ^ a.S.) ^ ^ ^ ^ ^ S.N.K K S S j j j j j K A.) K K S S K ' S.K K K S S S K K K K K U U U U U U U U S U i.S.U U Z.Z.I I J J K K K K K J J B s P B.J j / A.k k ;.A.k k ;.;.k k k k k k k k k k k h h h h h ,./ h h g h g W >.h d g d d g f f 3 3 %.Z 2 , 2 2 2 2 2 2 3 3 3 p p Z >.p p %.:.c c :.o.v v B.o.D v D.o.v o.D...v v v v v +.D.[ ..D.+.............[ [ [ [ [ [ [ [ [ [ <.o.v v v v v [ <.v l { <.l q q 9 9 9 9 9 9 9 *.{ 9 9 9 7 7 7 7 7 7 7 7 7 7 7 7 7 7 7 7 7 ; *.{ ; 8 #.w ; = = = = = = = = = = = = = = = = = = = = = = = = = = = = = = = = = = = = + + + + + X X X + + + O O . . . . . . X O O O O O O O e } . o O o o o . . . + @.w . . . . . w @..     ",
": @.: . w @.: o o o .   N N O O O O o o O X   : @.: + + + X O e @.X X X X X X X X X X X X X X X X X X O O X w @.X X N } = = = = : ; ; = : : ; ; ; w #.e + e #.; : N @.= = } } = = : = = = ; ; ; 8 8 : : : = 8 #.N 8 8 8 ; ; q =.q 8 8 8 8 8 8 e e e #.@.0 0 8 q q q 7 7 7 7 q q q { <.t t *.<.q t <.*.t t <. .t { <.{ { { <.{ t t t { { <.<.t t <.<.{ { { { {  . . . .{ { [ [ { { { 8.$.#.#.#.#.#.$.1.#.#.$.1.#.#.#.#.#.Q Q Q Q Q 1.&.Q Q Q Q Q Q Q W W R W W W W W W W W m m m >.&.n V >.Z f g j B V V W ^ ^ ^ ^ ^ ^ ^ ^ ^ ^ ^ ^ ^ ^ ^ ) ` ` ` ) ) ) ` ` ` ` ' p.i.i.i.t.T Y Y Y Y t.t.i.s.s.s.a.a.a.a.a.a.f.C.C.C.C.a.a.p.I.T.a.a.a.p.p.p.d.d.p.d.{.d.p.p.d.p.d.S.].d.p.d.a.p.p.p.p.p._ _ _ p.p.p.p.p.p.p.p.p.p.p.p.p.p.p.p.p.p.p.p.p.p.p.a.F.a.p.a.F.p.i.C.F.i.i.S.F.F.F.I.S.i.t.t.t.t.t.Z.r.G r.Z.Z.Z.D.Z.I U p.i.i.i.p.p.i.i.i.i.i.i.t.t.G Y Z.Z.Z.Z.Z.I Y C.T.F.F.F.S.p.p.F.S.p.p.F.F.F.F.F.a.p.a.I.I.I.F.p.p._ _ _ _ _ _ _ _ _ _ _ _ _ _ _ _ _ _ _ _ _ _ _ _ _ _ _ _ _ _ _ _ _ S._ _ d.S.' _ _ _ ~ _ S.S.) ) ^ K S j S S j K S.' ) ) ^ ~ ^ N.S.) ^ ^ ^ ^ ~ ~ ^ ) ) ) ) ) ) ^ ) U U U K K a.S.U U B.A.U U U T U U U U U U K J J U B.J j / A.K ^ ;.A.k ~ ,.,.W W W ^ W R R R R W W W W R R R ,.( k k h h h W ,.V h h h h h g h h g &.Z * , 2 2 2 2 2 3 3 f f f f Z >.B B -.:.c c >.o.c c B.o.F L D.o.H o.D...v v v [ ..+.D.....D.z.............[ [ [ [ [ [ [ [ [ [ <.o.v v v [ [ { <.v v { <.v v v v v v v 9 9 9 *.{ q q q 9 9 9 7 7 7 8 0 0 0 8 8 8 8 8 7 7 7 *.{ 8 0 #.w ; ; = = = ; : : ; ; : = = = = = ; ; ; ; ; ; = = ; = = = = = = = = = = = = = = = = + + X + + + + O O . . . . + X + = = = = O O O e } + = = O O O o o o o @.w . O o o + e @.. . . ",
"o e : . w @.@.@.@.}     e @.@.@.@.@.@.@.@.w   : @.@.@.@.@.= O e @.X X O O O O O O O O O O O O + O O O O O O 8 N O + N @.#.#.#.#.#.#.#.#.#.#.#.#.#.1.FXUXdXe #.#.#.#.@.; ; e N : : : : : : : : : #.#.#.#.N = 8 #.#.#.#.M 7 ; dXUXLX<.=.fXfXaXw =.=.=.=.#.w q q q q q 7 7 7 7 q q q { <.<.<.<.<.{ { <.<.{ { 1.*.{ { <.{ { #.1. .{ { { { { <.9.{  .<.<. . . . . . . . .{ { [ [ <.8.1.9.9.1.$.$.$.4.0.0.4.$.$.1.4.4.4.4.4.4.4.4.! ! Q 4.F.1.,.,.4.4.F.,.Q Q ] ,.,.,.,.,.A.,.F.W W W >.>.>.>.>.Z g g n V V ] S.S.F.F.S._ _ _ ( _ _ _ _ ' _ _ _ _ ' ' _ ' _ ' ' ' a.a.a.a.a.a.` T Y Y Y Y t.i.a.s.a.a.a.f.f.d.d.d.I.{.{.{.{.S.d.d.I.{.{.{.].d.d.d.S.d.d.d.].d.d.d.].].].].].d.d.d.d.d.d.d.d.d.d.d.d.d.d.d.d.d.d.d.d.p.p.p.p.p.p.p.p.p.p.p.p.p.p.p.a.F.a.p.S.F.a.p.S.F.p.p.S.F.a.p.p.p.p.i.i.i.t.i.Z.Y G Y Z.I G h.Z.I U i.i.i.i.p.i.i.i.i.i.i.i.t.t.G F H H H G G G U C.T.p.p.S.S.p.p.F.S.p.a.{.S.a.N.'.d.p.p.a.a.p.p.p.p.p._ _ _ _ _ _ _ _ _ _ _ _ _ _ _ _ _ _ _ _ _ _ _ _ _ _ _ _ _ _ _ _ S._ _ d.`.`.`.S.S._ _ S.S.S.S.S.S.A.N.N./ j K S.S.S.F.F._ ~ S.S._ _ _ ~ ~ ~ ~ ~ _ _ _ _ _ _ ^ ^ ) ^ ^ ^ ^ ' N.^ ^ A.F.F.F.F.F.F.F.F.F.F.F.A.A.B.B.B.J j / A.A.S.S.A.~ ~ ' ] ~ ~ ~ ^ ~ ~ W ~ ~ A.A.,.,.] R W ,.,.,.,.( R R ( ,.,.,.,.W h h h ,.,.,.&.Z 2 , , , 2 2 2 3 3 f f g f Z >.>.>.>.>.c c >.-.c c B.o.F L o.o.H o.D...v v v ....+.D.....+.+.....................[ [ <.D.D.D.D.o.[ v ..<.<.<.<.v v { <.<.<.<.<.*.*.+.9 9 9 *.*.*.*.*.*.*.*.M 9 9 M *.*.*.*.*.*.*.*.7 7 7 *.*.*.*.*.e 7 ; ; ; ; e #.#.#.#.@.= = = = ; ; ; ; ; ; = ; ; ; ; = = ; = = = = = = = = = = = = = + + + + + + X X . . . X O O 8 @.@.@.#.: O O e @.@.@.@.O O O 8 : o + @.w . w @.@.@.@.@.. . : ",
". . . . : w w w N N     : 8 w w 8 8 8 w @.w X = w w w N @.= O e @.O O O O O O + O O + + + + + + + + + + + = = = + + w e e e e e e e e e e e e e N 1.UXUXUX} M M N N e : : : : : : : : : : : : : N N e #.N = ; e e <XUXUXfXq UXUXUXaX{ UXUXFXw @.@.} } { q q q q q q 9 9 q q q q q { { } #.#.} { { <.<.{ { 1.*.{ { { { { #.1.#.{ { { { { <.9. . . . . . . . . . . .{ t t [ [ <.<.<.<.1.$.$.$.$.1.1.1.1.$.$.$.,.,.,.,.,.,.,.,.Q Q Q ,.,.,.,.,.,.,.,.( R R ] 4.,.&.] ] ,.,.,.W W k / / / / / V j j k V V ,.`.,.,.S.`._ _ _ _ _ _ _ _ _ _ _ ( _ _ _ _ _ ' ' ' ' ' a.a.a.a.' T T Y I I U i.p.a.f.d.d.f.d.d.d.d.d.S.{.I.I.S.d.d.d.S.S.S.S.S.d.d.d.{.S.d.d.].S.d.S.].S.S.S.S.d.d.S.].d.d.d.d.d.d.d.d.a.d.p.p.p.p.p.p._ p.p.p.p.' ' p.p.p.p.i.i.i.i.a.F.a.i.N.F.i.p.S.F.p.p.S.F.p.p.p.p.i.i.) ` T i.Z.Y F Y Z.G F o.Z.I U i.i.i.i.i.i.i.i.i.i.t.i.t.t.F G D G D D G F I C.F.p.p.S.S.` ) F.S.i.i.F.N.) a.F.a.` ) ` ` p.) ` ` ) ) ) ) ) ) ) ) ) ) ) ) ) ) ) ) ) ) ) ) ) ) ) ) ) ) ^ ^ ^ ^ ) ) ) ) ^ _ ' N.d.d.S.S.^ ^ ' ] ] ,.' ' / ` A./ j k ` ' ;.A.S.( ^ N.S.^ ^ ^ _ _ ^ ^ ^ ^ ^ ^ ^ ^ ^ ^ ^ ^ ^ K K K K K K K ` ;.;.;.;.;.;.;.;.;.;.;.-.-.` / P B j K / / ' ' ( R ~ ~ R R ~ ~ ~ R R R R R ' ( ( ,.&.k R ( ( ( ( W R R W ( ( ( ( R h h h ( / Q W m 3 2 , , , 2 2 3 3 f f g f m Z P / P P c c >.-.c c B.o.F H H H H o.D...v H [ ....+.D...........................[ [ [ z.+.+.o.o...[ [ [ o.o.{ { v v [ { { { { { { { { 9 9 9 { { { { { { { { q 9 9 { *.{ { M M M M M 7 7 7 { N N N { 0 7 7 7 ; ; e #.M e } @.= = = = ; ; ; ; ; ; ; ; ; ; ; = = = = = = = = = = = = = = = = + + + + + + + X . . . X O O 8 @.e w e = O O 8 w e e w O O O @.e o + #.w . 8 @.e w w w . . e ",
". . . . . . . . e N                 . + @.w O O O O O w @.= O N @.O O + O O O O O O + + + + + + + + + + + = + + + + + + + + + + = = = = = = = = = #.UXUXJXw : ; ; : ; : : : : : : : : : : : : ; : : ; @.N = = = = FXUXUXN w LXUXUX#.w UXUXFXw w w q q q q 8 q 7 7 q q q q q q q q t t t t t t t t <.*.t t 1.#.t { { { {  .9. .{ { { { { <.9.{  . . . . . . . . . .t { [ [ [ <.<.#.$.$.$.$.$.$.$.$.$.$.$.#.#.! #.#.#.#.Q Q Q Q Q Q Q Q Q Q Q Q Q Q Q Q Q ] ,.Q R W W W W W W h h g g g g g h k h k V W ,.`.( ( S.`.( _ ( ( _ _ _ _ _ ( ( _ ( ( ( _ _ _ ' ' ' _ ' a.' ' ) T Y Y Y T U i.a.a.d.a.a.a.d.a.a.d.d.S.{.d.d.d.d.d.d.d.d.d.d.d.d.d.d.{.S.d.d.{.S.d.d.].d.d.a.a._ _ S.`.d.d.d.d.d.a.a.p.a.p.p.p.p.p.p.p.p._ _ _ _ p.p.p.p.p.p.p.p.p.p.a.F.a.p.a.F.a.i.C.F.C.C.F.F.i.i.i.) ) ) N.N.N.Z.Z.Y G Y Z.G F o.Z.I U p.i.i.i.i.i.i.i.i.i.t.i.t.t.F G o.Y Y o.G F I C.F.p.p.S.S.p.i.F.S.p.p.F.a.p.a.F.a._ a.N.N.S.N.N._ _ _ _ _ _ _ _ _ _ _ _ _ _ _ _ _ _ _ _ _ _ _ _ _ _ _ _ _ _ _ _ _ _ _ _ ^ ^ ^ ^ ^ A.S.^ ^ ^ ^ ^ ^ ^ K k K A./ j j k ^ ^ ' S.^ _ N.S.^ ^ ^ ^ ^ ^ ^ ^ ^ ^ ^ ) ) ) ^ ) ^ ^ K K K K K K K K K K K K K K K K K K K K K J j j j j j j j k k W W ~ ~ R ~ ~ ~ W R k k k k k k k ,.' h h R R R R R R R h h h h h h h h h h h h g f 5 2 2 2 2 2 2 2 3 p f f f f g g g g b B B >.-.c c B.o.F H H H H o.D...H H H ....z.D.................................z.+.[ [ [ [ [ [ [ [ [ v v v v v v v l l l l 9 9 9 9 9 9 9 9 9 9 9 9 9 9 9 9 { *.7 7 7 7 7 7 7 7 7 7 7 7 7 7 7 7 7 7 7 7 ; M #.7 = N } = = = = = = = ; ; ; ; ; ; ; = = = = = = = = = = = = = = = = + + + = + + + O O O O X . X X 8 @.+ O O O O + O O O O O O O O @.w O + @.w . w @.: . . . . . e ",
"O : : : : : .   e N o o o o         . + @.e : : : + O w @.: O N @.O O O O O O O + + + + + + O + + + + + + + + + + + + + + + + + = = = = = = = = = = @.F.M : : : ; : ; : : : : : : : : : : : : 0 w w w #.{ = = 7 e UXUXfXq w #.dX1.e e UXUXFXe e N e e q q q q 7 q q q q q q q q t t t t t { { { { <.#.t t 1.<.{ { { { {  .9. . . . .{ { <.9. . . . . . . . . .{ | t { { [ | 8.1.$.$.$.$.1.1.$.$.$.$.$.$.#.#.$.$.&.&.#.Q Q Q Q Q Q Q ( ( ( ( Q Q Q Q Q Q ] ,.Q Q W W W W Q W W V V m g g g k k V ^ ( ( ,.`.( ( S.S.] ] ] ] _ _ _ ( ( ( _ _ _ ( _ _ _ ' ' ' _ _ ' ' ' ` U Y Y Y Y T T p.a.a.d.a.C.C.S.S.S.d.d.S.{.d.a.d.S.S.S.S.S.d.d.d.d.d.d.{.S.d.d.{.S.d.d.].S.d.d.d._ ] S.`.d.d.d.d.] d.a.p.p.p.p.p.p.p.p.p.p._ _ _ _ p.p.p.p.p._ p.p.p.p.a.F.a.p.a.F.p.i.C.F.T.T.T.S.i.i.i.i.i.) F.F.F.F.Z.Y G r.Z.G F o.Z.I U p.i.i.i.i.i.i.i.i.i.t.i.U T F Y Z.Z.Z.Z.Y F I i.a.i.p.a.p.p.p.F.S.p.p.F.d.p.a.F.a._ a.'.F.'.F.F._ _ _ _ _ _ _ _ _ _ _ _ _ _ _ _ _ _ _ _ _ _ _ _ _ _ _ _ _ _ _ _ _ _ _ ' ' ' ' ) ^ A.S.' ' ' ( ^ ^ ^ k k K A./ K K K ^ ^ ' S._ _ S.S._ ^ ^ ^ ^ ^ ^ ^ ) ) ) ) ) ) ) ) ) ^ U U U U K K K K K K K K K K K K K K K K K K j j j j j j j k k R W ~ ~ R R ~ ~ W R R W R ^ ^ ^ W ,.' h R R R R R W W W W W W W W W W W W W W V m m f 3 2 2 2 2 2 2 2 3 p p f f f g g B C C Z >.-.c c B.o.o.o.o.H H o.D.o...........z.D.................................z.+.............[ [ [ [ [ v v v v [ v v v l l 9 9 9 9 q v v v v 9 9 9 9 9 9 { *.9 9 7 7 7 7 0 0 0 0 0 0 7 7 7 7 7 7 0 0 0 { #.7 = M } 8 8 8 7 = = = = = ; ; ; ; ; ; = = = = = = = = = = = = = = = + + + = + + + O : : : : : + . 8 @.+ X + : : : : : o O : : : : @.e O + @.8 . w @.w : : : . . e ",
": @.@.@.@.@.O   e @.@.@.@.e   . . @.fXGXGXfX1.@.@.: O =.dXaXaXdXdXF.O : aXaX@.O O + @.aXaX: O + + #.dXGXFXdX#.+ + + e =.: F.dXdXN = #.fXfX1.= = : : aXaX1.: e =.: #.dXfXdXN : : : : : w 1.aXaXdXfXfX1.#.{ = 7 e fXUXUX,X*.=.dXfXfX=.=.UXUXFX=.=.<.<.fXFXLXFX1.{ q q 9.{ <.dXfX,Xt { dXfXdX1.<.1.1.1.<.#.dXLXLXGXdX1. .{  .9.9.fXhXfXdXdXfXdX9.9.9.8. . . . .{ { t t t t 8.fXLXLXFXaX0.0.aXaXaXaX4.'.'.$.#.&.4.4.4.4.&.Q Q ,.,.! Q ! 1.,.1.,.Q W ( ,.Q W ( ] W W W W W W ,.>.>.>.>./ g g h k k ^ S.F.`.`.`.( ( S.`.`.`.`.S.( ( ( ( ( _ _ _ _ _ _ ' ' ' ` ' ' ' ' ' ` T J I Y Y Y T ` a.a.a.d.a.{.{.{.{.{.S.a.S.S.a.a.S.{.{.{.{.{.d.d.].{.{.{.].S.d.d.'.d.d.d.].'.].].].d.] d.d.d.d.d._ _ _ _ d.d.d._ _ p._ _ d._ _ _ p.p.p.p.p.p._ _ p.p.p.p.a.I.a.p.d.F.p.p.p.p.p.p.p.p.i.i.i.i.i.i.F.N.U I G G D r.Z.G F o.Z.I U p.i.i.i.i.i.i.i.i.i.) ) U U A I Z.I D G G F I U i.i.i.p.p.p.p.I.S.p.p.].d.p.a.'.a._ d.`._ _ S.F._ _ _ _ _ _ _ _ _ _ _ _ _ _ _ _ _ _ _ _ _ _ ~ _ _ _ _ _ _ _ ~ ~ ~ _ S.S.S.S.S._ ~ S.S.S.S.S.S.^ ^ ~ k k V A.B.B.A.A.^ ~ ' S._ ~ S.S._ _ ) _ ) ) ) ) ) ) ) ) ) ) ) ) ) ) ) ) ) ) ^ ) ) U U U U U K K K K U K K K K K j j j j j j j k k k W W W ~ W W W R R R R R ,.S.S.S.,.] R R ( W h W ,.,.,.,.,.,.,.,.,.,.,.,.,.,.,.,./ f 5 3 2 2 2 2 2 2 3 3 p p n Z f g &.>.>.>.B.-.c F B.D.D.D.D.o.H o.D.D.D.D.......z.D.D.D.D.z.........................D.D.D.D.D.D.D.D.D.<.<.<.<.v v v o.<.<.<.v v l { { q q v *.*.*.{ 9 9 q { q 9 v { 9 9 7 7 7 7 } *.*.*.*.{ 7 7 7 7 7 0 *.*.*.*.*.7 ; N @.@.#.#.{ = = = = = ; ; ; ; = = = = ; = ; = = = = = = = = = = = + + + + + + + @.@.@.#.@.8 X + w + . w @.@.@.@.} O O } @.@.@.@.e O + @.8 . 8 @.@.@.@.@.. . : ",
": @.w : e @.O   o + + : N N . . dXUXUXUXUXUXIX1.@.N FXUXUXUXUXUXUXGXO e UXUXaXO O O aXUXUXe + + aXUXUXUXUXUXUXaX+ + #.UXIXUXUXUXUXfXUXUXUXUXJXw : : UXUXFX= #.UXfXUXUXUXUXUXaX: ; ; 1.IXUXUXUXUXUXUXF.8 7 7 7 <.UXUXLX=.N e FXUXUXe e UXUXFXe e #.LXUXUXUXUXUXLX{ q FXIXUXUXUXUXFXLXUXUXUXUXdX{ { { 9.IXUXUXUXUXUXLX<.{ { 9.IXUXUXUXUXUXUXfX . .9.8. . .{ { [ { { { t dXUXUXUXUXUXUXfX$.$.$.$.$.$.1.4.$.&.&.,.,.$.&.Q Q Q 4.,.! Q Q ( ( ( Q Q Q ( ,.( W W W W W W W W W ;.;.V V >./ g g k k R ( S.] ] ] ] ( ( ( ] ] ] S.A.~ _ _ _ ( _ ( _ ( ( _ _ _ _ _ _ _ ' ' ) ) U J J I I T T ` a.a.a.a.a.{.S.C.S.{.S.d.d.d.d.a.S.{.S.S.S.{.d.d.].`.d.d.d.d.d.d.].d.d.d.d.d.d.S.].d._ ] _ _ d.d._ _ _ _ _ d._ _ _ _ _ _ _ _ _ _ _ p.p.p.p.p._ _ ) i.i.i.a.F.a.i.a.F.p.i.p.p._ p.p.p.p.i.i.p.i.) S.N.U U G D D Y Z.G F o.Z.I U p.i.i.i.i.i.i.i.i.i.) ) U U A I Z.I G G D A I U i.) ) ) ) i.i.I.S.p.p.F.a.p.p.F.a.) a.S.' ) S.S.) ) ) ) ) ) ) ) ) ) ) ) ) ) _ _ _ _ _ _ _ _ _ _ _ _ _ _ _ _ _ _ _ ' S.d._ S.`._ _ _ ' _ _ S.S.~ ^ ~ k k k K K K / A.^ ~ ' S._ ~ N.S.~ ~ ~ ~ ~ ~ ~ ^ ^ ~ ~ ^ ^ ^ ^ ) ) ) ) ) ) ) ^ ^ ^ K K K K K K K K K K K K K K K V k j j j j j j j j k W W W R W W R R R R R ,.,.W W W R R W ,.( h W ,.( W W W W W W W W W W W W W &./ g g f 5 3 2 2 2 2 2 2 2 p Z >.f g &.>.C C Z C c c L L Y o.D.o.H ..o.j.g.o...............D.z.................O.O.....O.O...............[ [ o.<.[ v v [ [ [ [ v v l *.X.q q l v v v q 9 9 M *.v 9 9 9 9 9 7 7 7 7 } } q 0 *.{ 7 7 7 7 7 0 *.M q q q 7 ; 7 8 8 8 { { = = = = = = = = = = = = = ; ; ; = = = = = = = = = = = + + = + + + + #.N : w @.8 O . . . . w @.: : e } O O @.} : : : + O + @.8 o o : : : e @.. . . ",
": @.:   8 @.o           e N . aXUXUXUXGXIXUXUXIX@.fXUXUXUXUXUXUXUXGXO e UXUXaXO O O aXUXUXe + F.UXUXUXGXIXUXUXUXF.o #.UXUXUXUXUXUXUXUXUXUXUXUXfX= = UXUXFX: #.UXUXUXUXUXUXUXUX1.; M IXUXUXUXUXUXUXUX1.= = 7 8 aXUXUX<X=.e w FXUXUXw w UXUXFXq q LXUXUXLXLXUXUXUXFXq FXUXUXUXUXUXUXUXUXUXUXUXIX#.t #.IXUXUXIXLXUXUXUXFX{ { LXUXUXUXUXUXUXUXdX .<.fXdXaX<X<X<X<X<X{ { <XUXUXUXLXIXUXUXUX4.$.$.$.$.$.$.4.$.&.&.&.! ! Q Q Q Q 1.,.Q Q Q Q Q Q Q Q Q ( A.( R W W W W W R R h &.&.g g >./ g g h V W ( F.] ( ~ ~ ~ ( ( ( ( ( A.A.~ _ _ _ _ _ _ _ _ _ _ _ _ _ ( _ ' _ _ ) U J I J J J U U ` a.a.a.p.a.{.S.a.d.{.S.d.d.d.p.d.S.{.d.a.S.].d.d.`.S.d.a.a.a.d.d.].d.a.a.a.a.a.S.`._ d.d._ _ _ _ _ _ _ _ _ p.p.p._ _ _ _ p._ p.p.p.p.p.p.p.p.p._ ) ) ) ) a.F.a.) a.F.S.S.S.p._ _ C.S.S.S.S.C.i.) S.S.C.C.M.M.h.Z.Z.G F Y Z.I U p.i.i.i.i.i.p.i.i.i.) i.) U F Y Z.M.h.h.h.h.M.C.S.S.S.S.S._ p.F.S.) p.F.d.) a.F.a._ d.S.p.) S.S._ _ ) ) ) ) ) ) ) _ _ ) ) _ _ _ _ _ _ _ _ _ _ _ _ _ _ _ _ _ _ _ _ ' S._ _ d.S._ ~ ~ ~ _ ~ S.S.~ ~ ~ k k j j j j K A.K k ( S.^ ~ ;.S.^ ~ ~ ~ ~ ~ ~ ^ ^ ~ ~ ^ ^ ^ ^ ^ ^ ) ) ) ) ^ ^ ^ ^ K K K K K K K K K K K K K K K K V j j j j s p j j k k W ~ R ~ ~ ~ ~ R R R ,.,.R R R R h W ,.( h W ,.W h h h h h h h h h h h h h &.( h h g 5 3 2 2 2 2 2 2 2 3 Z =.p f %.>.B B B B c c c L F Y D.h.H H H ....................D.D.....................O...........[ [ [ [ [ [ [ ..<.[ v v v v v v v v l *.o.l q q 9 9 9 9 9 9 M *.v 9 9 9 7 7 7 7 7 7 { { 7 7 *.{ 7 7 7 7 7 q *.q 7 7 7 7 ; ; ; ; = { { = = = = = = = = = = = = = = = = = = = = = = = = = = + + + + + + + + #.e + 8 @.0 O O . . . w @.. . e } o O @.N o o o o o + @.w o o . . . w @.. . . ",
": @.:   8 @..   o : : : N N w UXUXLX1.w 8 dXUXaX@.GXUXLXaX#.@.1.1.N O e UXUXaXO O O aXUXUXe O GXUXUX#.O O F.UXUXIX+ @.UXUXFX8 1.UXUXUX#.e JXUXIX= = UXUXFX: #.UXUXIX#.: F.UXUXFX; <.UXUXfX#.#.1.F.1.{ e e e e LXUXUX#.=.e w FXUXUX{ { UXUXFXq 1.UXUXGX{ { LXUXLX{ q FXUXUX1.} FXUXUXfX{ dXUXUXdX .fXUXUXfX .{  .LXUXUX,X9.UXUXfX9.<X<X<X<X8. .9.UXUXUXUXUXUXUXUX{  .LXUXUXaX$.1.fXUXfX$.$.$.$.$.$.4.4.$.$.$.,.,.,.,.Q Q Q 1.1.Q Q &.,.] ] ] ( Q ] `.,.] ] ( W W ( ( ( W &.&.g g ,./ g h V W ^ ( F.,.] ] ] ] ] ] ( ( ( S.A.~ _ _ _ _ _ _ _ _ _ _ _ _ _ _ _ _ ' _ ^ K J J I K K U ) p.a.a.a.a.a.{.S.d.d.{.I.S.S.d.d.a.S.{.d.d.S.].a.a.`.`.d.d.d.p.p.d.].d.a.a.' p.p.S.`.d.d.d.d._ _ _ d.d.d.d._ p.p.p._ _ _ _ p.p.p.p.p.p.p.p.p.p.p.p._ ) ) ) a.F.a.) a.S.S.S.S.a.) ) S.F.S.S.F.C.i.i.S.S.S.Z.Z.Z.Z.Z.Z.G F Y Z.I U p.i.i.i.i.i.p.i.i.i.) i.) T F I Z.h.Z.M.M.M.B.S.S.S.S.].S._ ) F.S.) p.F.d._ a.F.a._ d.S.p._ _ p._ _ _ ) ) _ _ ) _ _ _ _ _ _ _ _ _ _ _ _ _ _ _ _ ~ ~ ~ _ _ ~ ~ ~ ~ ' S.' ) d.S._ _ _ ' ' ' S.S.~ ~ ( ' ^ ^ ^ ^ K / A.V k / A.^ K ;.S.K S K k k k K ^ ^ ~ ^ ^ ^ ^ ^ ^ ^ ^ ^ ^ ^ K K K K K K K K K K K K K K K K K K K K V V j j j s p p j k k ~ R R R R ~ k k k R ,.,.( ( ( Q Q ( ,.( h W ,.W h R W W W W h h h h h h h &.( h h g f f 2 2 2 2 2 2 2 3 Z =.p f %.>.P P P L c c c F F Y D.h.h.o.h.....g.j.z.z.z.l.....D.D...............O.....O.O.O.+.O.O...[ [ ........+.<.[ v [ [ [ [ [ v v l *.X.l q { { { { [ q 9 M *.{ M M M 7 7 q M M M } { 7 7 *.{ 7 7 7 7 7 q *.{ M M q w q q 7 ; ; { { = = = = = = = = = = = = = = = = = = = = = = = + + + = + + + + + + + #.e + 8 @.e w 8 + . . w @.. . e } o o @.} 8 8 : . . o @.w . . . . . w @.8 8 8 ",
". : .   8 @.O   e @.@.@.@.N 1.UXUXaX#.#.#.@.1.@.#.LXUXIXaX1.1.F.1.O O e UXUXaXO O O aXUXUXe @.UXUXdX+ O O O aXUXUXN @.UXUXaX+ O GXUXFX+ + dXUXUXe = UXUXFX: #.UXUXdX; ; ; fXUXUX8 #.UXUXfX1.1.2X<X<.*.#.#.*.,XUXUXfXe =.e 8 FXUXUX=.<.UXUXFX{ FXUXUX<.*.LXUXUX*.q q FXUXIXt t ,XUXUXaXt  .UXUXFX<.IXUXLXt <. .{ 8.UXUXCX<XUXUXFXdXfXfXdX<X9. .9.UXUXUXUXUXUXUXUX$.0.UXUXFX$.$.0.0.dX1.$.$.$.4.4.4.4.4.$.#.1.4.4.4.4.! ! ! &.&.Q Q 1.1.1.,.,.] Q ] ,.,.,.,.,.Q W &.,.,.,.,.&.g h ;.( k W ,.( ~ ( F.F.F.`.`.`.F.`.( ~ ~ S.S.( ( ( ( _ _ _ _ _ _ _ _ _ _ _ _ ' _ ) K K J J J U U ` p.a.p.p.p.p.a.{.S.p.d.{.{.{.{.S.a.a.S.{.d.a.S.].a.p.S.].'.'.S.p.p.d.].d._ _ _ _ _ S.`.`.`.].`._ _ _ `.`.`.`._ d.d.p._ p.p.p.p.p._ _ ) ) ) ) ) ) ) ) ) ) ) U i.F.i.) ) U U ) ) ) U ) S.S.i.i.S.C.i.i.) U U I A F D D D F A Y Z.I U p.) ) ) i.i.) i.) ) i.i.` T I F D D D A A D F I ) p.) S.S.) ) F.C.) ) S.a.) a.F.p.) a.S.p.) ) ) ) ) ) ) ) ) ) ) ) ) _ _ _ _ ) _ _ _ _ _ _ ~ _ _ ~ ~ _ _ _ ) ^ ^ ^ ^ ' ^ ^ ' S.^ ^ ;.S.S.S.S.A.K K A.S.S.A.A.A.A.B.B.K j V ^ K K ' A.k j k k k k k k S ~ ~ ^ ~ ~ ^ ^ ^ ^ K K K K K K K K K K K K S S S S K K K K K K K K K k j j s s p p d k k R R R R W R R R R ,.,.,.,.,.,.,.,.,.( h W ,.W h W ,.,.,.,.W h h Q W g g &./ d d d g f 5 2 2 2 2 2 2 2 Z *.p p %.>.>.B.B.-.c F :.o.H H D.D.D.D.D.....z.D.D.D.D.D.....D.z.O.O.O.O.O.O.O.O.......O.O.,X,X,Xz...[ ..D.D.D.D.<.[ [ o.<.<.<.<.v l q v v 9 9 *.*.*.*.*.M 9 M *.*.*.*.*.9 9 { *.*.*.*.{ 7 7 *.{ 7 7 { 0 7 0 *.*.*.*.*.*.#.#.7 ; ; { { = + + + + + + + + + = = ; = = = = = = + + + + + + + = + + + + = + + #.e + : @.@.@.@.8 O . w @.. . e N   . N @.@.@.N o O o @.w . . . . . w @.@.@.@.",
"        8 @.O . e N + + + o aXUXUX=.o = o o = = = F.UXUXUXUXUXUXUXaXO e UXUXaXO O O aXUXUXe 1.UXUX1.O O O O 1.UXUX#.@.UXUXaXO O GXUXFXO + dXUXUXe + UXUXFX: #.UXUX1.= = = aXUXUXM 8 LXUXUXUXUXUXUXLX} 8 8 8 fXUXUX#.e =.e w FXUXUXe q UXUXFX{ FXUXIX .fXUXUX<Xq q q FXUXLXt t ,XUXUXaXt  .UXUXfX{ UXUXFXt <. .t  .UXUXhX .GXUXUXUXUXUXUXIXaX . .aXaX9.9.9.9.9.9.$.aXUXUXaX$.$.$.$.$.$.$.#.$.4.$.$.$.$.#.#.,.4.#.#.#.Q Q Q Q Q Q Q ,.&.Q ( ,.( Q Q Q W Q &.,.R R &.,.m m m m g g ,.&.k W S.' ~ ~ ( ( ( ~ ~ ~ ~ ( ^ ^ ~ A.A.~ ~ ~ ^ ( _ ( ( ( ( ( ( _ _ _ _ ) ^ K K J J J I J U ) ` p.p.p.p.p.a.F.S.p.p.p.p.p.p.p.p.p.S.F.p.p.S.S._ _ a.a.' ' ' _ _ a.`.d._ _ _ _ _ _ _ a.a.S.`._ _ _ a._ _ ] _ _ _ _ _ ) ) ) ) ) ) ) ) ) ) ) ) ) U U ) U U U ` S.` U S S I I I I I U N.S.U U S.Z.U U U U I I A F D G D F A Y Z.I U p.) ) ) i.i.) i.i.) ) i.U U F D D D F A A D F I U ) ) S.C.U U S.N.U ) S.i.U ) S.) K p.S.) K K K K K ~ K K ~ ~ ~ ~ ~ ~ ) ~ ) ) ) ) ) ) _ _ _ _ ~ ~ ~ _ _ ^ ~ ~ ~ K S S S S ' A.K k ' N.k ^ ^ ^ k K A.;.K S k k j j j j j j j k k ' A.k k k k k k k k S K K ^ ^ ^ K K K K K S S S S S S S S S S S S S S S S S S S S S S k k k j j s p p j d j k k k k k k k k k R R W W W R R W R h h h W ,.W h W ,.W h h h d d ( ( 5 d &./ d 5 d d f d 3 2 2 2 2 2 2 C *.p p z B B B >.-.c F D.o.H H H ....j.U.....z.D...g.z.D.....D.z.......O.O.O.O.O...........O.O.O.....[ ..D.o.[ [ [ [ v o.<.v v v l q 9 9 9 9 9 *.{ q v *.M 9 q 9 q q { *.9 9 { } 9 9 9 9 7 7 *.{ 7 8 *.e 7 7 8 8 8 8 8 8 8 8 7 7 7 { } ; = = + + + + + + + + + = = = = = + + + + + + + + + + + + + + + + + #.e + + : = = = + O O w @.. . e N     o o o o + . . o @.w . . . . . O O O O e ",
"        8 @.O   e N . . . . aXUXUX=.. . O O O O O O aXUXUXUXUXUXUXUX#.w UXUXaXO O O aXUXUXe =.UXUX1.O O O O 1.UXUX#.#.UXUXaXO O GXUXFXO + dXUXUXe + UXUXFX= #.UXUX1.= = = aXUXUXe ; e LXUXUXUXUXUXUXFX7 7 { UXUXGXw e =.e w FXUXUXq q UXUXFX{ FXUXUXfXUXUXaXq q q q FXUXLXq q ,XUXUXaXt  .UXUXfX[ UXUXFXt <. .{ <.UXUXfX .<XLXUXUXUXUXUXUXIX . .8.<. . .{ {  .#.#.aXUXUXdX$.$.$.$.$.$.#.#.$.4.$.&.#.#.#.#.,.4.Q Q Q Q Q Q Q Q Q Q ,.&.Q Q ,.( W Q W m m ( ,.h h ( ;.g g g g g g ,.&.V ^ S.] ^ ~ ~ W ^ ~ W W W W ^ ^ ^ A.A.^ ^ ^ ^ ^ ^ ^ ^ ( ( ( ^ _ _ ^ ^ ^ K K J J J J J J U U ` ` ) ` p.p.p.T.S.p.p.p.p.p.p.p.p.p.S.F.p.p.S.S._ _ _ _ _ _ ) ) ) _ S.d._ _ _ _ _ _ _ _ _ S.S._ _ _ _ _ _ _ _ _ _ ) ) ) ) ) ) U U U U K U U U U U U U U S I U S.B.N.B.T A F T M.Z.B.A.B.S S C.Z.B.B.B.i.I T M.M.M.M.M.M.M.Z.Z.J U p.i.i.i.i.i.i.i.i.i.) ) U U F G h.M.M.M.M.M.M.Z.N.) U N.N.U U S.N.S U S.` U ) S.) K ` S.A.S.S.S.S S K K K S S K ~ ~ ~ ) ) ) ) ) ) ) ) ) ) ) ) ~ _ _ _ ^ ^ ^ K K S S S k k ` A.K k ' N.k k k k k k A.' k j j j j j j j j j j k k ' A.k k k k k k k k S K ~ ~ ~ ~ K K S S S S S S S S S S S S S S S S S S S S k S k S S k k k j j j p p j j j g k k k k k k k k k k k k h h h h h h h h W ,.W h W ,.h h d d 5 5 / / 5 5 &./ 5 5 5 5 f f d 3 2 2 2 2 2 C %.2 p p p s c :.-.c F D.o.H H H H H j.D.....z.D.....z.D.g.g.D.z.............O.O.................[ [ ....D...[ [ [ [ v o.<.v v v l 9 9 9 9 9 9 *.{ 9 q *.M 9 9 9 7 9 { *.9 9 { } 7 7 7 7 7 7 *.{ 7 8 *.e 7 7 7 7 7 7 7 7 7 7 7 7 7 { { = = = = + + + + + + + + = = = = = = = + + + + + + + + + + + + + + + #.e + + + + O + + O X w @.. . e N . . . . . . .     o @.8 . . . . . . . .   e ",
"O w w w N @.o   e N . . w e 1.UXUXfX. O e @.fXe e e e } 1.1.1.F.UXUXaX: UXUXFXO O O GXUXUXw : UXUXGXe O O e JXUXUX: @.UXUXaXO O GXUXFXO O dXUXUXe + UXUXFX= #.UXUX1.= = = aXUXUXe = = = { #.#.1.FXUXUX#.M aXUXUXaX#.#.=.e w FXUXUX{ { UXUXFX{ fXUXUXUXUXfXq <XaXq t FXUXLXt t ,XUXUXaX*.<.UXUXfX[ FXUXUX<.<. .[ fXUXUXdX<.8. .<.<XaX8.hXUXUX .{ <.<.{  .{ { #.#.#.1.UXUXGX$.1.1.0.FX1.1.1.1.4.$.#.#.#.#.Q ,.1.,.,.,.$.Q Q &.&.&.&.,.&.R Q ,.Q R R Q &.&.,.,.h h ( &.g h h g g g ,.&.R W S.( W R W R R ( ' ' ;.;.' W ~ ,.,.~ ^ ^ ^ ^ ^ ^ ^ ^ ^ ^ ^ ^ _ ^ K K K J J J J J J K U U U ) ) ) ` ` i.F.S.S.S.S.a.p.a.S.S.S.S.F.) _ S.S.) ) N.S.S.S.S.a.) ' S.a._ _ a.S.S.S.S._ _ S.S._ _ S.S.S.S.S.d._ ) ) ) ) ~ K K K U U U U U U U U U U S S S J I M.M.-.-.I A A T Z.h.M.M.i.S S i.N.M.M.A.i.J U Z.h.h.h.h.o.o.o.h.J U ) i.i.i.i.i.i.i.i.) ) ) U U F G Z.h.h.o.o.o.h.Z.C.U U N.N.S S S.N.S U S.` S ) S.) K ) N.N.N.A.S.K K K K K ~ ~ ~ ^ ^ ^ ) ) ) ) ) _ _ _ _ _ _ _ _ _ ^ ^ ^ ^ ^ ^ K K K ' ' ' ;.A.K k ' N.k k ' ' ' ' A.' j k / / / / / / / / ` ' ' A.A.k k k k k k k S S K K K K K K k S S S S S S S S S S S k S k k k S S S S k k S S S k k k k j j j p j p d d g k k k k k k k k ( ( ( ( ( W h h ( ( ( ( ,.V h W ,.( Q / / 5 5 / &./ / &.Q 5 5 5 5 d f f d 3 2 2 2 2 C %.Z Z P p p c :.o.c F D.o.F L h.h.z.Z.D.g...j.D.g.g.z.D.g.g.D.z...............O.........+.+.+.+.+.+.+.+.D...[ [ [ [ [ { <.o.o.o.{ 9 9 { { { { *.{ 9 q *.M 9 9 v { { } *.9 7 { } 7 7 9 7 9 7 *.{ 7 9 *.w 7 7 7 7 7 w { { { { { 7 7 { { ; = = = = = + + + + + + + = = = = = = = + + + + + + O + + + = + + + #.} N N e : + : e e e N @.. X e } . . e e e e e :   o @.8 . . : e e e e .   e ",
"o @.@.@.@.@.o . e N . . N @.@.LXUXUXGXaXfXIXUXfX@.fXfXfXxXxXxXFXUXUX1.. FXUXUXfXaXFXUXUXUXw O dXUXUXGXaXaXLXUXUXaXo @.UXUXaX. . GXUXFXO O dXUXUXe + UXUXFX= #.UXUX1.= = = aXUXUXe @.fXfXfXfXfXfXIXUXIX=.@.LXUXLX=.=.=.=.e 8 FXUXUX*.*.UXUXFX{ <.IXUXUXUXdXfXUXUXdXt FXUXLXt t <XUXUXaX<.9.UXUXfX[ <XUXUXUXFXfXFXUXUXLX<.<XFXCXfXCXFXhXIXUXUX .| 8.<. . . . .#.$.#.#.FXUXUXLXfXFXIXUXLXaX4.1.4.$.#.#.#.Q Q ,.1.1.1.1.1.Q Q ,.1.1.1.,.&.Q Q ,.( R R &.1.1.,.,.h g / &.g g h h h h A.,.W ( S.] ~ ( ,.~ W ( A.A.A.A.,.k R ;.,.R ~ ~ ~ ~ ~ ~ ^ ~ ^ ^ ^ ^ ^ ~ K K J J J J J S K K ^ ) ) ) ) ) ) _ ) F.F.F.F.F.a._ d.F.F.F.F.F._ _ S.S._ _ S.F.F.F.`.S._ _ F.d._ _ S.`.`.`.`._ _ S.S._ _ S.`.`.`.`.S._ _ ) ) ) ~ ~ ~ ) ) ) ) ) ) ) ) ) ) ) U S S I J J J J A A A A T Z.A J I U U U U U U U S.M.I T Z.I A F A A A D F J U ) ) ) ) ) ) ) p.) p.) i.U U G I Z.G A A A D A M.S.) U N.S.) ) S.N.) ) S.a.) ' S.) ~ ~ ~ ~ ~ N.S.^ ^ ~ ~ ~ ~ ~ ~ ~ ~ ~ ~ ) ~ ~ ~ ~ ~ ~ ~ ~ ~ ~ ~ ~ ^ ~ ^ ^ ~ ~ ~ ~ ^ A.A.A.S.S.^ k ' S.k k ;.S.S.S.S.' k K A.B.N.>.>.B.>.>.;.A.A.A.S.k k k k k k k k k K K K K K K k k k S S K K K S S S S S S S S S S k S S S S S k k k k k k k k j d j p p p j j k k R k k k k ;.,.,.,.,.( h h ,.,.,.,.,.W h W ,.,.,.,.,.5 5 / &.&.&.;./ d d 5 d d d g g g 5 3 2 2 C %.%.=.=.z p c :.X.c c B.o.F H D.D.D.D.D.g...g.g.g.g.z.U.g.g.U.z.....O.O.l...O.O.O.O.....D.,X,X,X,X,X,XD.D.O.[ [ [ [ [ o.<.<.<.<.+.v l o.*.*.*.*.{ 9 v *.M 9 9 { *.*.*.*.9 9 { X.9 9 9 9 9 9 *.{ 7 0 *.M 7 0 { 0 7 M *.*.*.*.@.7 7 { { ; ; = = = 7 = ; + + + + + + + + + + + + + + + + + + + + + = = = = = #.#.#.@.@.w + w @.@.@.@.@.O O e } . . } @.@.@.@.w   O @.:   . w @.@.@.@..   e ",
"= @.: . . . . . e N . . N N . N GXUXUXUXUXUXUXdX. GXUXUXUXUXUXUXUXGXw . N LXUXUXUXUXUXUXUXw O : GXUXUXUXUXUXUXFX: o @.UXUXaX. . GXUXFXO O dXUXUXe + UXUXFX= #.UXUX1.= = = aXUXUXw 1.UXUXUXUXUXUXUXUXaX#.aXUXUXFX} 0 0 0 8 8 FXUXUX7 { UXUXFXq q 9.UXUXUXUXUXUXUXdXq FXUXLXt t <XUXUX<.t  .UXUXfXt <.fXUXUXUXUXUXUXIX8.t 8.UXUXUXUXUXUXUXUXhX| | 8.<. . . .#.#.$.#.#.1.LXUXUXUXUXUXUXGX$.#.#.#.#.#.#.Q Q Q Q Q Q Q ,.1.Q Q 1.,.Q Q Q Q Q Q ,.( R R R W W R h h g Q &.g g h h h R S.,.W ( `.] W ( S.( ~ ' S.W R ' ,.R R ,.,.~ ~ ~ ~ ~ ~ ~ ~ ~ ~ ~ ~ ~ ^ ^ K K J J J J S S ^ ) ) ) ) _ _ _ _ _ p._ _ _ a.'.d._ d.].a.p._ _ _ _ S.`._ _ S.S._ _ `.S._ _ `.d._ _ _ _ _ d.`._ _ S.`._ _ S.S._ _ `.S._ _ _ _ ) ~ ~ ) ) ) ) ) ) ) ) ) ) ) ) U U S I J J J S A A A A T Z.A J I U ) ) ) U ) ) S.N.U T B.I A A A A A A F I U ) ) ) ) ) ) ) ) ) ) ) i.) U I I M.F A A A D A i.S.) ) S.S.) ) S.S.) _ S.a.) a.S.' ) ) ) ) ) S.S.) ) ) ) ) ) ~ ) ) ~ ~ ~ ~ ~ ~ ~ _ ~ _ ~ _ _ _ _ ~ ~ ~ ~ ~ ~ ~ ~ ~ ( S.^ ~ ~ ~ ~ ~ ' S.~ ~ N.N.~ ~ ~ ~ ~ ^ A./ j j j j j d d j k k k k k k k k k k k k k K K ~ ~ K K K K K K K K K K K K K K K S S S K K K S K k k k K ~ ~ ~ ~ ~ k k j d p p p j g h k R R R R R ,.,.R R ,.( h R ,.( h h h h h h h h h ( ,.g g g d d d d d d h d d d h h h g d d 5 2 2 2 2 p p p p z :.X.c c B.o.F Y D.h.H H H g.g.g.g.g.g.z.U.g.g.U.z.l.l.O.O.l.l.O.O.O.O.O.O.,Xz.O.O.O...........[ [ [ [ [ [ [ v v o.+.v v +.X.q q 9 l l v *.[ 9 9 9 9 9 q q 9 9 { X.9 9 9 7 9 7 *.{ 7 0 *.M 7 q *.q 7 { *.9 7 { @.7 7 } { ; 7 7 ; ; 7 7 = + + + + + + + + + + + + + + + + + + + + = = = = = = + + + : #.w + w #.= + + + + O e } . . } N . . @.w   O @.:           w @.. . e ",
": @.: . . o . . e N . . N N . o w dXUXUXUXIX1.. . GXUXUXUXUXUXUXFXw . . o w FXUXUXUXaXw FXe O O : dXIXUXUXIXaX: O . @.UXUXaX. . GXUXFXX O dXUXUXe = UXUXFX= #.UXUX1.= = = aXUXUXw 1.UXUXUXUXUXUXIXaX8 #.FXUXUX1.} 0 0 8 8 q FXUXUX7 { UXUXFXq q q <.FXUXUXUXFX<.q q FXUXPXt t ,XUXUX<.t  .UXUXfXt <. .<XLXUXUXUXFX9. .t 8.UXUXUXUXUXUXIXfX8.{ { <.<. .#.#.$.$.$.#.#.#.1.fXUXUXUXIXfX$.$.$.#.#.#.#.#.#.#.Q Q Q Q Q ,.1.Q Q 1.,.Q Q Q Q Q ! 4.] Q Q W R R h h g g / &.g h h k R W S.,.R ( `.( W ( S.( ~ ' S.^ R ] ,.R W ,.,.^ ~ ~ ~ ~ ~ ~ ~ ~ ~ ~ ~ ( ^ ^ S J J J J K S K ^ _ _ _ _ _ _ _ _ _ _ _ _ _ d.].d._ d.'.d.p.a._ _ _ S.`._ _ `.`._ _ `.S._ _ `.d._ _ _ _ _ d.`._ _ S.`._ _ S.S._ _ `.S._ _ _ _ _ _ _ _ _ ) ) ) ) ) ) ) ) ) ) U S S J J U J S U B.B.B.B.B.A J N.F.F.F.S.C.) ) F.N.U U -.F A Y Z.B.N.Z.Z.J U p.) ) ) ) ) ) ) ) ) i.) ) U J I Z.F A F F D A ` a.) ) S.S.S.S.S.S._ p.S.a.) a.S.S.S.S.S._ ) S.S._ _ ) ) ) ~ ) ) ~ ~ ~ ~ ~ ~ ~ ~ _ _ ~ ~ ~ ~ _ ~ ~ ~ ~ ~ ~ ~ ~ ~ ~ _ S._ ~ ~ ~ ~ ~ ] S.~ ~ S.S.~ ~ ~ ~ ~ ^ S.' k j j j j d j j k k k k k k k k k k k k k k k K K k K K K K ~ K K K K K K K K K K K K K K K K k ~ k ~ ~ ~ ~ ~ ~ ~ ~ k k d p p p d d d h R R R R R ,.,.R R ,.] R R ,.( h h h h h h h h h ( ,.d d g d 5 5 5 5 d d d d d h h h h g d d 2 2 2 2 2 p p p p :.X.c F B.o.H Y D.h.H H H ..g.g.g.g.g.z.U.l.l.1X;Xl.l.l.l.l.l.O.O.O.O.O.O.,Xz.O.O.O.O...| ....[ [ [ [ [ [ [ [ v +.<.v v *.+.l l l l 9 v *.[ 9 9 9 9 9 9 q 9 9 { X.9 9 9 9 7 7 *.{ 7 0 *.w 7 q *.q 7 { *.0 7 { @.7 7 } } 7 7 7 ; ; 7 ; ; ; = = = + + + X + + + + + + + + + + = + + + + + + + + O O 8 @.w + w @.= + + O O O e } . . } N . . @.w   o @.:           w @.    e ",
": @.: o . w N N @.N . . N N . . O O : N =.} N N w O O : N N N N : O o O O O O : N : O O O O O O O O O N e O X X X . . . . . . . . X O O o o + o = = = = = = = = = = = = + + = = ; ; ; ; ; 8 8 @.#.8 8 #.@.8 e =.*.#.#.#.q q q { { { *.*.q q { *.*.#.*.{ *.{ e q q q q t t t t [ t { <.<.<.<.<.t t <.<.t t <X9. . .8. .t  . .8.8.<.<.<.<.8.<.{ { 1.1.#.#.$.$.$.$.$.$.$.$.$.$.aXaX1.1.1.1.1.1.4.4.4.1.1.1.1.1.4.! Q ,.1.Q Q 1.,.! Q ,.,.,.,.4.] Q Q Q R R h h g g ( &.h h ( ,.,.,.S.,.R ( S.,.,.,.S.( ~ ' S.^ W ] A.,.,.S.A.( ( ( ( ( ( _ _ ( ( _ _ _ ^ ^ S j j j S S K K ) _ _ _ _ _ p.p._ p.p._ _ _ d.'.d.' S.'.d.a.p.a._ _ S.`._ _ `.`._ _ `.S._ _ `.`.S.S.S._ _ d.`._ _ S.S.S.S.`.S._ _ S.S._ _ S.S.S.S.a._ _ _ _ _ _ _ ) ) ) ) ) U S S J U A.U S K B.T T T U A S N.S.S.S.S.S._ _ F.C.) U A A A Y Z.T T h.B.J U p.p.i.) ) ) ) ) ) ) ) ) ) U J I Z.F A T Z.F A S ) ) ) a.N.N.N.N.a.) _ S.a.) _ N.N.N.S.S._ ) S.S._ _ ) ) ) ) ) ) ) ~ ) ~ ~ ~ ~ ^ ^ ^ ^ ~ ~ ~ ~ ^ ~ ~ ~ ~ ~ ~ ~ ~ ~ _ S.( ^ ~ ' S.S.S.S.^ ^ S.A.~ ~ ~ ~ ~ ^ S.A.;.;.K j j V ` ;.;.;.^ k k k k k k k k k k k K K k k K K K K K K K K K K K K K K ~ K ^ ~ ~ ~ ~ ~ ~ K ^ ^ ~ ~ ~ ~ ~ ~ k k j d d d d d d d k k R R R ,.,.R R ,.( R W ,.,.&.&.&.W h h Q &.( ;.,.d d Q / / / / 5 5 g d d d d d h h g g f 2 C %.%./ X.X.p p :.X.c c B.o.H Y D.h.H H j.z.z.z.z.z.z.U.U.l.l.1X;Xl.l.l.l.l.l.l.O.l.O.O.O.;X;X;X;X;X;X;Xz.z.+.+.+.+.+.+.+.+.[ [ +.<.v v +.+.v l X.X.X.X.*.[ 9 9 9 9 9 9 9 9 9 { *.9 9 { } } } *.{ 7 0 *.} } @.*.q 7 { *.0 7 { #.} } #.} 7 7 7 ; ; ; ; ; = = = = + + + X + + + + + + + + + + + + + + + + + + O O O 8 #.w + 8 #.= + O O O O e } . . { N . . @.w   o @.N e e e o   w @.    e ",
": @.: . . w N N N e . . N N . . } e X o N N N N w . o w @.N N N : O O O O O O O O O O O O O O O O O O O O O X X . . . . . . . X X O + + + + + o = = = = + + + + + = = = + + + + ; ; 7 7 ; 8 8 #.#.8 8 8 8 8 w #.#.@.#.*.q q 7 { { { { { q q *.<.*.*.} q q t q t q t t t t t t t t  .<.<.<.<.<.t t <. .t t 8. .| | |  . . . .8.<.8.8.<.<.<.<.{  . . .$.$.$.#.$.$.#.$.$.$.$.$.1.1.1.1.1.1.1.1.1.1.1.1.1.1.1.1.4.Q Q Q Q Q Q Q Q Q Q 1.,.,.,.,.( W W R h h h h g g g h h h ,.,.,.,.,.] W W ,.,.,.,.,.( W ( ,.W R ( ;.,.,.,.] ^ ~ S.,.~ ~ ~ ~ ^ ^ ^ ^ ^ K K j j j j j S S K ^ ) ) ) ) ) ) ) ) ) ) F.N.) ) ) _ ) N.F.' _ S.F.) ) S.S.) _ _ ) ) ) S.N.) _ S.S.S.S.S.' ) ~ ~ ~ ~ a.S.S.S.S.a.~ ^ S.N.^ ) S.S.S.S.' ) ) ) ) ) ) ) U U U ) U K S S J I B.J A K B.F A A s A J N.S.) ) S.N.U U S.a.U J A A A Y Z.F A Y Z.J U ) ) U U U U U U U U U U U U J I Z.J A T Z.F A A S U U U U U U U U U ) S.` U U K K K ` S.U S a.S.S S S S S S S S S S S k S k k k S k k S k k k k S k k k k k k k k ^ A.^ k k ` ;.;.;.' k k ;.;.k k ;.' k k ;.;.;.;.K j j K >.;.' ' K k k k k k k k k k j j j j j j k j j j k k S S k k k k k S S S S S S k S k k k k k k k k k k k k j j d d d d d d d d h h h h &.&.h h h h h h &.( &.&.,.m d g W ( / / / 5 5 / &./ / Z 3 3 3 5 5 5 5 d d d f f p 2 C %.X.P %.%.i p :.X.c c B.o.F H H H H H j.D.z.D.D.z.D.z.z.g.g.l.l.l.l.l.l.l.l.l.O.l.l.O.O.z.;X;X;X;X;Xz.z.+.+.+.+.+.+.+.+.<.[ [ [ v v v v v v q <.o.X.X.} v 9 9 9 9 9 9 9 9 9 9 9 7 7 } *.} } } M 7 0 } } } } } 0 7 N *.8 ; M { { { { N ; ; @.{ ; ; ; = = = = = + + + + + + + + + + + + + + + + O + + + + O @.w O O O O O 8 @.+ X w @.X X e { . . . . . . @.w   o e e e N @.:           w ",
": @.: . . . . . . . . . N N . . } e . . . . . . . . . w @.o o o . . O O O O O O O O O O O O O O O O O O O O X X . . . . . . . X X + + + + + + o = = = = + + + + + + + + + + + ; ; ; 7 7 8 8 8 @.#.8 8 8 8 8 8 8 8 8 q *.q 7 7 q 7 q q q q q *.*.q q q q q t t t t t t t t t t t t  .<.t t <.<.t t <. .t t 8. .| | [ | | | | | | | | | | |  . . . . . .#. . . . . . . .#.#.#.#.#.#.#.#.#.#.#.#.#.@.@.@.@.@.=.1.Q Q Q Q Q Q Q Q Q Q ,.&.Q Q Q R R m h h h h g g g g g h h ;.,.R R R R R R V V R k k k k ( ,.R k k k k k R R R W A.;.W W W ~ ~ ~ W W V V j j j j j j j S K K K K K K K U ^ ^ ^ ^ S.N.K U U K ) ' F.) ^ N.F.K K N.A.K K K K K K S.' K K K K K ' S.) K K K K K K K S S S S S S S.' S K A.` S S S S K K K S K S S S S S S S S S A I B.J A J B.J F F F A A M.N.K S S.N.U U A.i.J J A F F Y Z.J A Y Z.A S U U U I S S S S S S S S S S A J Z.J A T Z.F F J S U U I J J J J S S K A.` J S S S S U B.K S ` A.S S j j j j j j j j j j j j j j j j j j j j j j j j j j j j j j j V ;.V j j j j j j j j j ' ;.j j ;./ j j j j j j j j j K ;.j j j k k k k k k j j j j d j s j j j j j s j j j j j j j j j j j j j j j j j j j j j j j j j j j j j j j j p p p p d d d d d d f f / ( d d d d d d 5 5 5 m &.h 5 5 5 5 5 5 5 5 3 / / * * * * 2 2 2 2 2 3 3 3 3 3 3 3 2 C %.2 p X.%.i p :.X.c c B.o.F H H H H H H ........g.g.g.g.g.g.g...g.g.l.l.l.l.l.O.l.l.O.O.O.O.O.O.O.O.......| [ [ [ [ [ +.<.[ [ v v v v l v v q <.{ 9 9 9 9 9 9 9 9 7 9 9 7 7 7 7 7 7 { } 7 7 7 7 7 7 ; ; ; ; ; ; < M *.7 ; ; ; ; ; ; ; ; ; } { ; = = = = = = = + + + + + + + X X X X + + O + O O O O O O O @.w X X X X X 8 @.+ . w @.. . e { . . . . . . @.w           : @.=             ",
": @.:       . . . . . . N e . . N e . . . . . . . . . 8 @.o . . . . . o o o O O O O O . o o o o . . . . o o . . . . . . . X X X X O + + + + + + + + + + + + + + + + + + + = = ; = 7 7 8 8 8 8 @.#.8 8 8 8 8 7 8 8 7 q *.q 7 q q q q q q q q *.*.q q q q q q q q t t t t t t t q t  .<.t t  .<.t t <. .t t 8. .t t t t t t [ [ [ | | [ | |  . . . . .{ { { { {  .{ { { { { { { { { { { { { { { { N N N N N #.1.N N N N N m Q Q Q m ,.&.m e e 6 6 h h g g g g f f f g g h &.&.h h h h h h h h h h g d d ( ,.k k k k k k k k k k ,.' k k k k k k k k j j j j j B B j j S J S j S S S J J S S S S A.` J J J K K ` A.K K ` B.S S -.N.S S S S S j A.` k S k k j P B.K j j S S S j j j j j j j S B.` j S B.K j j j j S S S S A A A A j A A A A A s J T J s J B.Z.B.M.M.A A -.N.A A N.B.B.B.B.T A A J Z.Z.B.B.A A Y Z.A S S S J A S S S S A A A S S S A J M.J A T Z.M.M.M.N.B.B.Z.N.B.N.M.s s j N.N.N.N.U s s K N.N.N.N.N.s s s s s s s s s s s s s s s s s s s s s s s s s s s s s s s s s B ;.j u p p p p p p u p / / p p -.P p s s s p p p j j K ;.j d d d j j k d j j j j s s p u u p u u u u p p p u s p p u u u s s s s s s s s s u p s s p p p p p p p p p d p d p p p p p p 2 p 2 / / 2 2 2 2 2 2 3 3 3 g &.g 2 2 2 2 2 2 2 * * / Z , , * * > > , , , 2 2 2 2 2 2 2 2 C %.2 p X.%.i p :.X.a c B.o.D D F H H H H ........g.g.g.g.g.................l.l.O.O.O.O.O.O.O.O.............[ [ [ [ [ [ o.<.v v v v v v v l q 9 *.{ 9 9 9 9 9 9 9 7 7 7 7 < < < 7 7 < } } ; ; ; ; ; ; ; ; ; ; ; ; ; M *.8 ; = = = = = = = = @.N = = = = = + + = = = + + + + + + X X X X X O O X X X X X X X @.w X X . . . 8 @.+ . w @.. . e N           . @.w .         : @.=             ",
"o @.N N N N N N N N N N N e     N @.N N N N N N 8     : @.N N N N     . . . . . . . . . . . . . . . . . . . o . . . . . . O O O + o o o + + + + + + + + + + + + + + + = ; ; = = ; ; 7 7 7 8 8 { { 8 7 } #.#.#.} { 7 q *.q 7 q  . . . .*.q q  .<.*.*. .{ q q q q q q q q q q q t t  .<.t t  . .[ [ <. .t t 8.8.<.<.<.8.8.8.8.| [  .8.<.<.8.<.| | | [ | [ [ [ [ { { { { { { { { { { { <.<.<.<.<.<.<.=.} N e @.1.=.=.=.=.=.=.=.=.,.=.,.( m h h h h h h h 6 6 h h h Q &.&.;.;.&.g g &.&.&.&.&.&.&.;.&.&.&.;.>.k g j k j j ' ;.;.;.>./ k k k k j j j j j j j j j j j S S S S S S S S S S S S J J J N.` S K K K K ` A.K S ` A.S S ' A.N.N.N.N.N.N.A.` S S K S S ` A.K S ` N.N.N.N.;.S S -.N.N.N.A.` k S N.K k K N.N.N.N.K j j j S j S S S S A j s j s s s A J J J X.B.A A -.N.A S U U U Y I I A A F Y J J K S s T Z.s S S S S A S S S S S S J S S S S J M.F a F Y Y L L L Y J I U U U U A A S K K K K S j j S K K K K K j j j j j j j j j j j j j j j j j j j j j j j j j s s s s s s s s S ;.;.-.;.;.;.;.;.;.;.;.;./ p p -.;.-.-.-.-.;.-.K j j K >.;.;.;.;.j j j j d d d d d d d u p u u i u p u u p s s p p s s s s s s s s s s s s p p s s s s s s s s p p p d p d d d d d d d p p p Z / 2 2 / %.&.&.&.V 3 h &.g 2 n %.%.%.%./ * * / &.%.%.%.V * * * * > > > * * 2 2 2 2 C =.p p P %.p z :.X.z x B.Z.Z.Z.Z.Z.Z.D.D.....j.D.D.D.U.z.g.g.g.l.l.l.l.l.l.l.l.l.O.O.O.O.O.O.O.O.,XD.D.z.z.z.z.z...[ [ +.<.+.+.+.<.<.+.+.+.+.X.*.{ 9 9 9 9 9 7 7 7 7 7 7 7 7 M @.#.#.*.} ; ; @.@.@.@.} } } } } } } @.#.7 = ; : = + N } @.@.@.M + + + + + + + + + + + + + + + + + + X . . . . X X . . . . . } w . O o X . 8 @.O . w @.. . e @.N N N N N N @.w .   O .   : @.:   : N N N N ",
"o w w w w e e e e e e e w 8     w e e e e e e e :     = e e e N @.    .   . . . . . . . . . . . . . . . . . . . . . . . X O O O + o + + + + + + + + + + + + + + + + = ; ; = = = ; ; ; ; 7 7 7 7 7 7 7 @.#.{ { *.{ 7 q *.q 7 { *.{ {  .<.q q { { {  .<. .q q q q q q q q t t t q t  .<.t t t [ [ [ <. .[ [  . . .+.+. . .<.8.| |  .8.+.+.8.8.| | | | | | [ [ [ { { { [ { { { <.<.{ { 1.<.*.#.#.#.*.*.} N M } #.#.#.#.#.#.#.#.&.&.&.&.Q h h h h h h h h h 6 h g h ( ,.( ( / / g g ,.&./ / / / / / / / / / / j g / ;.j j ;.;./ / / ^ j k k k j j j j j j j j j j j S S S S S J J J S J J J J J J J J J T A.` J ` A.K J ` B.S S ` -.-.-.-.-.-.-.;.K S K A.` S ` A.K S ` A.-.-.N.N.S S N.N.` ` ` K j j j j j K B.` ` ` J j s S S A A S A A A A s s s s s s s s s T B.s s -.M.A A A A A A A J A A s A A s s s s L Z.A A S S S A S S A S J A F S S S S J M.F s s A s s s s A s A A A A A A A A s s s s s s s s s s s s s s s s s s s s s j j j j j j j j j j j j j j j j j j j j j j j j j j / P P / / / / / / / / / K s s P / / / / / / / B p p B P / / -.>.j d j j j d d d d d d u u u p p p p u u u s p p u s s s s s s s s s s p p p p p p p p p p p p p p d d d d p p p d d d p d p p p 3 5 &.&.Q / &.V 5 g &.g 5 m &./ Z %.&.* * m Z Z Z %.Z > * , , , , , , * 2 2 2 2 V &.p p p p i p :.X.c c o.o.o.o.h.h.h.z.D.g...j.D.z.z.D.D.g.g.g.l.l.l.l.l.l.l.l.O.O.O.O.O.,Xz.O.O.,X;X+.+.+.+.+.+...[ [ ..+.+.o.o.o.o.{ X.X.{ { { v 9 9 9 9 9 7 7 7 7 7 7 7 7 { *.{ { { M ; ; *.} { { { { { { M M N N N ; = N @.+ + { } M N M 0 + + + + + + + + + + + + + + + + + + + X . X X X X . . . . o o o o : @.8 . 8 @.+ . w @.. . 8 e e e e e e e e : . o @.:   8 @.:   8 @.e e N ",
"                                                              e @.    .   . . . . . . . . . . . .     . . . . . . . . . O O O O + + + + + + + + + + + + + + + + + + = = ; = = = ; ; ; ; 7 7 7 7 7 7 7 @.{ 7 8 *.{ 7 q *.q 7 t *.q q { <.q q q q q q  . .q q q q q q q q q t q q t  .<.t t t [ [ [ <. .[ [ t [ | | | [ |  .8.| |  .8.| |  .8.| | | | | | [ [ [ { [ [ [ { { { <.<.{ { 1.#.t t e e e e M e e e e e e e e M e e m m m m m h h h h h h h h h h h h h ( &.h h h h h h ,.( h g g g f f g g g d f g g / ;.g g ;.&.j g j j j k k k k j j j j j j j j j j j S S S S S S J J J J J J J J J J J U B.T J T B.J J ` B.J J J J J J J J J J S S S K A.` S ` A.K S ` A.S S ` N.S S ;.N.S A j j j j j j j J B.J j s s s s S S A A A A A A A s S K J J J J J J o.B.A A -.B.T T T T T U K U U J I F A A J J J o.Z.A A S S S S S S A S S A A A S S A F Z.F s s A s s J L T U K Y J L I J L L J K K K J s s j J K J K K s s s s s s s s s s s s s j j j j j j j j j j j j j j j j j j j j j j s s s s s s s s s s s s d j j j d d j j j j s p p p p p s / >.j j j k j d d d d d d u u u p p p u u u p s j d d s s s s s s d d p p p p p p p p d d d d p p d d d d d d p p p p d d d d p d 5 5 5 &.W 5 f &.V 5 h &.h 5 m &.d 3 Q &.* 2 * * 2 2 %.Z * > , , , , , , 2 * 2 2 2 V &.p p p p p p :.X.x x x x D D H H H j.D.g...j.D.g.g.z.D.g.g.l.l.l.l.l.l.l.l.O.O.O.O.O.O.,Xz.O.O.,X+.O.....| [ [ [ [ [ [ [ [ [ v v v v v v q q q q 9 9 9 9 9 7 9 7 7 7 7 7 7 { %.7 7 7 7 7 7 *.{ ; 7 ; ; ; ; ; ; ; ; ; ; ; N } = = { { = = = = = = + + + + + + + + + + + + + + + + + + X X X X X . . . . . o o O : @.8 . 8 @.+ . w @..                     . . o @.:   8 @.:   w @.    e ",
"                                                              e @.. . . . . . . . . . . .             . . . . . . . o O O + O + + + + + + + + + + + + + + + + + + + + = = = = = = ; ; ; ; 7 7 8 8 8 7 #.{ 7 8 *.{ 7 q *.q 7 t *.q 7 { <.q q q q q q  . .q q q q q q q q t t t [ t | <.t t t t t t +. .[ [ [ [ | | | | |  .8.| |  .8.| |  .<.| | | [ [ [ [ { { { [ [ { { { { <.<.{ { <.#.t t t e e e e e e e e e e M M m m m m m m m m m m m h h h h h h h h h h ( ,.h h h h h h ,.( h h g f f f f g d p f g g / ;.h h &.&.k k j j k k k k k k k j j j j j j j k j j j S S j j j j j j j j j j j S S K B.P J T A.K S ` B.S S S S S S J S S S S S S K A.` S ` A.K S ` A.k k ' N.k S ;.;.S j j j j j j S j K B.J j j j j j j S A A j s A A A A J B.B.B.B.B.N.B.B.B.s s M.B.B.B.B.B.B.A.A.A.B.B.M.L a I Z.B.B.Z.Z.A S S S S S S S S S S S A S S S A F M.J s J T A s T B.B.B.B.B.B.B.B.B.B.B.B.B.B.B.B.J s K B.B.B.B.N.s j j j j s j j j j j j j j j j j j j j j j j j d d d d d d j d d d d j j j j j j d d d d j d d d d d d d j d d d d j d d j k k ( ,.k k k k k j j j j j d p p u p p p u u p p d j d d j j j j d d j d d d d d d d d d d d d d d d d d d d d d d d p p p d d d d d d d 5 &.Q 5 g &.V 5 h &.h 5 m &.d 5 Q &.5 5 5 5 5 5 %.Z * > , , , , 2 2 2 2 2 2 p Z =.p p p p p p :.X.c x x x x D H H H j.D.g...z.D.g.g.z.U.g.g.g.l.l.l.l.l.l.l.O.l.l.l.l.l.,X;XO.O.,Xz.O.O.O.O.| | [ [ [ [ [ [ [ [ [ [ v v v v v q q 9 9 9 9 9 9 9 9 9 9 9 9 9 { X.7 7 7 7 7 7 *.{ 7 ; 7 7 7 7 7 ; ; ; ; ; ; N } ; ; { { ; ; = ; ; = = = = = = = + + + + = = = = + + + + + + + X . . . . . . . o O : @.8 X 8 @.+ . w @.. .                   . . o @.: . 8 @.: . w @.    e ",
". + .   8 @.@.@.@.O     e @.@.@.@.@.@.@.@.@.@.@.@.:   O : O   e @.. . . . . . . . . . .               . . . . o o O + @.#.#.#.#.@.#.#.e + + 8 #.@.@.@.@.#.#.8 + + + + = = ; ; ; ; ; ; 7 7 8 8 } *.*.#.*.{ 7 q *.*.*.*.*.q 7 t { q q { <.<.<.<.q q q  .[ q q q q q q t t t t t t t  .<.<.<.<.<.8.8.8. .| t | | | | | | |  .8.8.8.8.8.|  .<.8.8.8.9.8. . . . . . .{ { { { { { 1.<.{ { 1.1.1.1.1.1.1.1.#.e e #.1.1.1.1.,.Q Q ,.1.1.,.,.&.R R R h h h h h h h h h h ( ,.R R Q W R R ,.( h g V =.=.;.;.m d W ;.,.,.,.,.k R ' ' W R ^ ^ W k k k k k j j j j j j k K K K k K K K K K K ^ ^ ^ ^ ^ ^ ^ ~ ~ ~ _ S._ ^ ' S.S.S.S.S.^ ^ ^ ^ ~ ^ ^ S.S.S.S.S.S.S.S.' K ' S.S.S.S.S.~ ~ ;.A.^ ^ N.S.S.S.S.S.S.S.S.' ~ ) S.S.S.S.S.^ ~ ~ ~ K K S S S S S S K B.U J J J J J J J j S ^ ) _ ) ) _ ' ) ) ) U T B.J s J B.J J F J J S ~ ~ K U ) ) ) ~ ~ ~ K ~ ~ ~ S J M.J s T N.A s ` N.) ) ) ) ) ) ) ) ) ) ) ) ) ' S.) K ' S.' ) ;.A.K K k ~ ~ k k k ~ k ~ k ~ k k k k k k k k k k k k k k k k k k k k W ^ W R ( A.S.S.A.W R R ;.S.A.S.A.A.A.A.A.A.A.S.A.^ R ~ ^ ~ ~ ] S.~ ~ ~ ~ k k k k k k j j p p p u u i i i s j k k k k N.A.A.A.A.A.A.A./ k k ^ ,.,.A.A.A.A.A.^ k k k k k k k k g g f p d d d d ( ,.,.,.,.Q h h ,.,.,.,.,.m d R ( h h Q ,.,.,.,.6 6 5 Q m * , > & > , , 2 2 2 2 2 p Z =.>.>.>.>.>.>.>.X.c x L H D D H H H j.D.D.D.D.U.g.g.z.1X1X1X1Xz.l.l.l.l.l.l.l.l.l.l.l.l.,X;XO.O.,X,X,X,X,X,X,X,XO.| | +.D.D.<.<.+.[ [ +.<.<.<.<.{ q q 9 9 9 9 9 9 9 9 9 9 9 { X.9 7 q q 9 9 *.{ 7 7 M *.*.*.*.q 7 N *.*.*.#.@.; ; N N ; ; 8 8 ; ; = = = = = = = = = = + + + + + + + + + + + + X + . . . . . . o : N : O w @.@.@.@.@.. . .       + @.@.@.@.@.@.@.@.8 . 8 @.@.@.@.@.    e ",
": @.:   w @.w w w .     e N w w w w w w w w w e @.: . 8 @.+ . e @.. . . . . . . . . .   .           . . . . O O O o + e e e e e e e #.e + + : w e e e e e e ; + + = ; : : ; 8 8 8 8 7 8 7 8 7 { #.{ { t q 7 7 { { { { { e q q q q q { { { { { q q q t t t t t t t t t t t t t t t |  . . . . . . . . .| | 8. .| | | | |  . . . .8.8. . . .8.8.8.9.8. . . . . . . . . .#.#.#.1.1.#.#.$.$.$.$.$.$.#.#.} e e #.1.#.#.=.1.Q Q ,.,.&.&.1.&.R R R h h h h h h h R R R ] ,.R R ,.,.R R ,.( h g n Z Z / ;.m d / ,.( ( ( ( R R R R ~ R ,.,.^ W W k k j j j j j j k k ^ ^ ^ ~ ~ _ ^ ^ ^ ^ ) _ _ _ _ _ ~ _ _ _ _ _ _ _ _ d.S.N.d.d._ _ _ _ _ _ _ d.d.d.] d.] ] ] _ _ _ d.d.d.] ] ~ ~ S.S.~ ~ ] d.d.d.d.d.d.d.S.d._ _ d.d.d.S.S._ ~ ~ ~ ~ ~ ~ ~ S S S S K B.J s s s s A A s S S ~ ) _ _ ~ _ _ ) ) ^ K K N.J s J B.A s a A S K ~ ) ) ) ~ _ _ _ _ ) ) ) _ _ K K B.J s T N.A s ` N.K ^ ^ ^ _ _ _ _ ~ ~ ~ ~ ~ ' S._ ~ ' S.^ ~ ] S.~ ~ ~ ~ ~ ~ ~ ~ ~ ~ ~ ~ ~ ~ ~ ~ ~ ~ ~ ~ ~ ~ ~ ~ ~ ~ ~ ~ ~ ~ ~ ~ ~ ( S.( ~ ] S.] ] ] ~ ~ ~ ,.S.' ' ' ' ] ] ] ] ' ] S.( ~ ( S.~ ~ ] S.~ ~ ~ ~ ~ ~ k k k k k d d p u u u i i p p j j k ~ k ' ' ' ' ' ' ' A.' k k ^ ( ' ' ' ' ' ' ~ k k k k k k k k k g g d d d d d ( &.Q ( ( W h h Q Q Q Q Q h h h h h h W Q Q Q Q h h 6 6 6 5 * * , > > , , 2 2 2 3 f m Z Z P P P P X.X.L c x D.o.D D H H H ..j.j.z.z.z.g.g.z.z.z.z.1Xm.l.l.l.l.l.l.l.l.l.l.l.l.1X;XO.O.;X;X;X;X;X;Xz.+.O.O.O.+.,X+.+.+.+.[ [ +.+.o.{ <.{ q q q q 9 9 9 9 9 q 9 9 9 { X.9 9 { { 9 9 *.{ 9 9 0 { { { *.q 7 M *.{ M M M 7 7 7 7 7 7 @.{ 7 ; ; ; ; = = = = = = = + + + + + + + + + + + + + + + . . . . . . . . O O : e e e e w O X . . .   o w 8 w w w 8 8 w + . + w w w w w .   e ",
": @.:   w @.o . . . . . N N . . . . . . . . . : @.: . w @.o . e @.o o o . . . . . . .   . .         . o O O o + + + o o o + + O O + #.e + + + + + + + + + + + ; = : ; 8 8 8 7 7 7 8 8 7 8 7 7 { { 7 7 7 7 7 7 8 q q q q e e e e q q q q q t t t t t t t t t t t t t t t t t t t t t t t t t t | | | | |  .8.8. .| | | | | | |  . .6. . . . . . .9.9. . . . . . . .$.$.$.$.$.9.1.#.#.#.#.#.#.#.@.N e { { N #.1.N Q =.1.Q Q ,.,.Q Q 1.&.R R R R R R R R R R R R R ,.,.R R ,.,.R R A.&.h f 3 p p n >.m g ( ,.W R R R R R ~ ~ ~ ~ `.,.~ ^ W k j j j j j j j k ^ ^ _ _ _ _ _ _ _ _ _ _ _ _ _ _ _ _ _ _ _ _ _ _ _ _ _ _ _ _ _ _ _ _ _ _ _ _ _ _ _ _ _ _ _ _ _ _ _ _ _ _ _ _ _ _ S.`._ _ _ _ _ _ _ _ _ _ `.d._ _ _ _ _ d.`._ _ _ _ _ _ _ ~ S S S S K B.` T T L L T T U ` ' a.d._ _ _ d.d.d.d.' K K N.-.T T B.A s s A S ~ _ _ _ ) _ _ _ _ _ _ _ _ _ _ ~ K M.J s T N.T U M.N.^ ^ _ ~ _ _ d.d.d.d.] _ _ _ S._ ~ ' S._ ~ d.S.~ ~ ~ ~ ~ ~ ~ ~ ~ ~ ~ ~ ~ ~ ~ ~ ~ ~ ~ ~ ~ ~ ~ ~ ~ ~ ~ ~ ~ ~ ~ ~ ~ ( S.( ~ ] S.~ ~ ~ ~ ~ ~ ,.,.~ ~ ~ ~ ~ ~ ~ ~ ~ ( S.( ~ ( S.~ ~ ] S.~ ~ ~ ~ ~ ~ ~ k k k k k j d p p i i i i p s j k ~ ~ ~ ~ ~ ~ ~ ~ ~ S.' k ~ ~ ~ ~ ~ ~ ~ ~ ~ ~ ~ ~ ~ ~ R R R R k k h d d d d d ( ( h h h h h h h h h h h h h h h h h h h h h h h h h h 6 5 2 2 * , , , , , 2 2 p f f f f f j B B c c c F D D.o.D D H H H H H ....g.g.g.g.g.l.l.l.1Xm.l.l.l.l.l.l.;Xl.l.l.l.;X1X;Xl.l.l.O.O.O.O.O.O.O.O.O.O.+.,X| [ +.+.[ [ +.+.[ [ <.{ v v q q q q 9 q 9 9 9 q q { X.9 9 } } 9 9 *.{ 9 9 7 7 7 q *.q 7 M *.0 7 7 7 7 7 7 7 7 7 @.{ 7 7 7 ; ; ; ; ; ; = = = + + + + + + + + + + + + + + + + . . . . . . . X X O + + + + + + O O . . . .                           .         e ",
": @.: . w @.: : : : . . N N : : : o o o : : : w #.: O w #.: O e @.O o o o . . . . . .         . . o + : : : : : 8 w w w 8 8 8 : O + #.e : : 8 = + + + + = ; ; ; : 8 e e e e w 8 8 8 7 7 8 7 7 { { 7 7 7 8 8 q t N N N { { { { { e e t t t t t t t t t t t t t t t t t t | | t t |  . . . . . .6. . . . . .9.8. . . . . . .6.8.8.8.8.8.8.6.8. . .9.9. . . . . . .$.$.$.$.$.$.9.1.$.#.$.$.$.#.#.#.N @.#.#.#.$.1.Q Q ,.1.Q Q 1.,.Q Q 1.&.Q W R R R R R W R R R R R ,.,.R R ,.,.R R ,.&.m n g f p n >.V g ] ,.( ( ( ] ] ] ] ( ~ E 4.,.~ W R k j j j j j g j k ^ ( _ _ _ _ _ _ _ _ _ _ _ _ _ _ _ _ _ _ _ _ _ _ _ _ _ _ _ _ _ _ _ _ _ _ _ _ _ _ _ _ _ _ _ ] ] ] ] ] _ _ _ _ _ _ d.`._ _ _ ] ] _ _ _ _ _ `.d._ _ _ _ ) ' S._ ~ ) ) ~ ~ ~ ~ S S S S K N.N.B.B.B.B.B.M.B.B.S.S.S._ _ _ `.`.`.`.d.~ ^ N.B.B.M.N.S s I M.S ~ _ _ _ ~ _ _ ~ ~ _ _ ) ) _ _ S J M.J s T Z.M.M.B.N.^ ^ N.' ~ ~ S.S.S.S.N.~ ~ _ S.) ~ ^ ( ~ ~ ;.S.~ ~ ~ ~ ~ ~ ~ ~ ~ ~ ~ ~ ~ ~ ~ ~ ~ ~ ~ ~ ~ ~ ~ ~ ~ ~ ~ ~ ~ ~ ~ ~ ~ ( S.( ~ ] S.( ~ ~ ( ~ ~ ,.,.( ( ( ~ ~ ~ ( ( ( ] S.( ~ _ S.~ ~ ] S.~ ~ ~ ~ ~ ~ ~ R k k k k k d u p u p B B j B V K ^ ^ ^ ^ ^ ^ ^ k k S.' ^ ^ ^ ~ k k k k k k k k ~ ~ ^ ^ ~ ~ ~ R k k h d d d d ( ( h h h h h h W W W W W W R R R h h h h h h h h h h 6 5 6 5 3 3 2 * , , 2 2 2 2 p g n n B C C L L L L F F D.o.F H Y Y ..........g.g.g.l.l.z.l.l.1X1Xl.l.l.l.l.l.;X;X;Xl.l.l.1X;Xl.l.;X;X;X;X;X5.O.O.O.O.O.;X,XO.| +.+.[ [ +.+.[ [ <.{ v v q q q q q q 9 9 9 9 9 { +.9 9 X.X.9 9 *.} q q q 9 7 q *.q 9 M *.M w q q 0 0 0 0 7 7 @.{ 7 7 7 ; ; ; ; ; = = = = + + + + + + + + + + = + + + + + + X . . . . . . . X O O + + + + + O O o . . .             = = : : : o           e ",
"o w o . w #.#.#.#.} O O N #.#.#.} O O + #.@.#.#.#.: O w #.: O e @.O o o . . . .             . . o O w #.#.#.#.#.#.#.#.#.#.#.#.e O + #.#.#.#.#.8 + 8 e 8 ; 0 M 8 8 } =.=.=.=.#.8 8 8 7 7 7 7 7 { { 7 7 { t q e <.<.<.$.$.<.1.1.1.N t { #.t t { { t t #.{ t t t t t t t t | | | | t  .8.8.8.8.8.8.8.8.8.|  .9.8. . .8.8.8.9.9.9.9.9.9.9.9.9.9.6.6.9.9. . . . . . .$.$.$.$.$.$.9.1.#.#.1.1.1.1.1.#.N #.1.1.1.1.1.Q Q ,.1.Q Q &.&.Q Q 1.&.Q W W W R R W R R R R R R ,.,.R W ( ( R R ,.>.>.&.;.V f g W h h ] A.A.A.A.S.`.S.S.,.R E ] ( W R k k j j j j j j j ^ ^ ~ _ _ _ _ _ _ _ _ _ _ _ _ _ _ _ _ _ _ _ _ _ _ _ _ _ _ _ _ _ _ _ _ _ _ _ _ _ _ _ _ _ _ _ `.`.`.`.`._ _ _ _ _ _ S.S._ _ _ `.`.S.S._ _ _ S.S.`.`.`.' ) _ d._ ) ) ) ) ) ~ ~ S S S S S S j j j j j s s A S K S.S._ _ _ _ _ _ S.a.~ S s s s s s s s Y N.S ~ _ _ _ ~ _ ~ ) ~ _ _ ) ) _ _ K J M.J s s A A s s S ^ ^ S.A.^ ^ S.N.^ ^ ^ ^ ^ _ S._ ^ ~ ^ ^ ^ N.S.^ ~ ^ ^ ^ ^ ^ ~ ~ ~ ~ ~ ~ ~ ~ ~ ~ ~ ~ ~ ~ ~ ~ ~ ~ ~ ~ ~ ~ ~ ~ ~ ~ ~ ] ~ ~ ] S.S.S.S.A.~ ~ ,.S.S.S.S.~ ~ ~ S.S.S.S.S.( ~ ( S.~ ~ ] S.~ ~ ~ ~ ~ ~ ~ k k k k k k d p p p B ;.;.;.;.;.,.A.,.A.A.A.A.' k k A.A.A.A.A.^ k K ( k k ^ ( k k ' A.A.A.A.,.R k k h d d d d ( &.g h Q W h h ,.,.,.,.,.,.,.,.,.h h V W 5 6 W W d 5 W m 5 5 5 5 3 2 2 2 2 2 2 2 p Z ;.>.>.>.>.>.B.B.o.c F D.o.F H D.D.D.D.D.D.D.D.D.U.U.1X1Xl.l.1X1Xl.l.l.l.l.l.;X;X;X;X;Xl.1X;X;X;X1X1X1X,X,X;XO.;X,X,X,X,X,XO.| +.+.[ [ O.| [ [ <.{ v v q q q q q q 9 9 9 9 9 { +.9 9 M M 9 9 *.*.*.*.*.M 7 0 M 0 7 M *.*.*.*.*.#.#.*.{ ; ; e 0 ; ; ; ; ; ; = = = = = = + + + + + + + + + + + = = = + + + + X . . . . . . . . X O O + + + O O o . . .           O @.@.@.@.@.:           e ",
". . . . : 8 w w N } O O : w w 8 : o o + #.N 8 8 8 : O w #.: O e @.X o . . . .               . o O O w #.w w w w w w w w w w #.e + + 8 8 8 w @.w + w #.8 : N *.8 8 } =.e e #.#.8 8 7 7 7 ; 7 7 { { 7 q =.#.e e <.#.{ { { { { #.1.N e #.1.t t <.<.t t <.<.t t t t t t t t t t | | |  .8. . . . .6.6.8.8.|  .8.6. . .8.8.6.8.8.8.8.8.8.8.6.8.9.6.6.9.9. . . . . . .$.$.$.$.$.#.9.1.#.#.1.1.$.$.1.$.N #.1.#.#.#.#.Q Q =.1.N N N N N m ,.&.m m m h R R W R R R R R R ,.,.W W R R R R Q W W W >.V d d g g h ( ( ( ( ( ( ( ( A.,.R W W W k h k j j j j j j j k ^ ~ ~ _ ~ ( ( ^ ( ( ( _ _ _ _ _ _ _ _ _ _ _ _ _ _ _ _ _ _ _ _ _ _ _ _ _ _ _ _ _ _ _ ~ ~ ~ _ `.S.] S.S._ _ _ _ _ _ S.S.~ ~ _ ] ' a.' ) ~ _ a.a.a.N.S.' _ ) ) _ _ _ ) ) ) ~ ~ S S S S S S S S k k j j S S K ~ S.S._ _ _ ) _ ~ S.N.K S a s s s s s s Y N.S ~ _ _ ~ ~ _ ) ) _ _ _ ) _ _ _ K K B.J s s A A s s S ^ ^ S.A.^ ^ F.N.^ ^ ^ ^ ^ ' S._ ^ ^ ^ ^ ^ N.S.^ ~ ^ ^ ^ ^ ^ ~ ~ ~ ~ ~ ~ ~ ~ ~ ~ ~ ~ ~ ~ ~ ~ ~ ~ ~ ~ ~ ~ ~ ~ ~ ~ ~ ~ ~ ~ ( ( ( ( ,.S.~ ~ ( ( ( ( ( ~ ~ ^ S.,.( ( ( ~ ~ ( S.~ ~ ] S.R R R R ~ ~ k k k k k h d d d p p V ;.K V V V K ^ K K ^ ^ ;.` j j K K K ^ ;.K j K N.K j / A.j j ( ,.( ( ,.,.k k k k d d d d / / g g ,.( h h ,.( W W W V V / >.g d / &.5 5 ( ( 5 5 &.Q 5 5 5 5 5 3 5 3 3 p 3 p p Z ;.V V Z Z P P >.o.c c B.o.F L D.h.o.o.g...g.j.j.j.z.m.1Xg.l.1X1Xl.l.l.l.l.l.;X;Xl.l.l.l.1X;X;X;X1X;X;X;X,X;XO.;X,X;X+.+.+.O.| +.+.[ [ [ [ [ [ <.{ [ v v q q q q q 9 9 9 9 9 { X.9 9 9 9 9 9 M M M M *.M 7 7 7 ; ; 0 w w w w w w w } } ; ; ; ; ; ; ; ; ; = = = = = = = + + + + + + + + + + + + + = = = = + + + . . . . . . . . . X O X X O X o o . .           o @.e : e @.:           e ",
". O o o o o O O e } . . . O O O O o o + #.w O O O O O w #.= O e @.o . . .                   . O O + w #.: : + + + + o o o o @.e + + + + + = @.w + w #.8 7 e #.8 8 } #.8 8 #.#.8 8 ; ; = = 7 7 { } q q $.#.e e <.#.e e e e e #.1.N e #.1.t t <.<.t t <.$.t t t t t t t t t t t t t  .8.| | | | | | 8.8. . .8.6.|  .8.6. .6.6.6. . . . . .8.9. . .9.9. . . . . .$.$.$.$.$.#.#.9.1.#.#.1.$.#.$.1.$.#.$.1.#.@.Q Q N N =.=.M M b M b n >.Q 5 f g h h R W Q R R R R W ,.,.R R R R R m h h h m ,.W h h h k W W W W R R R R W ,.,.R W m h h g g j k k k j j k V ( ( ~ ~ ~ ^ ^ ^ ^ ^ ( ( ( ( ( ( ( ( ( ( ( _ _ _ ( ( ( _ _ _ _ _ _ _ _ _ _ _ _ _ ( ~ ( ( ( ( S.] ^ ' S.' _ _ _ ^ ~ N.S.~ ~ ~ ~ ~ ~ ~ ~ ~ ~ _ _ _ _ S.' ~ ~ ~ _ _ _ _ ~ ~ ~ ~ S S S S S S S k ^ ' ' ' ' a.~ ~ S.S.S.S.S.S.N.S.S.N.K K T T T T F s s Y B.S ~ _ _ ~ ) ~ ) ) _ _ _ ) _ S.S.a.` N.J s s A A s s j ^ ^ S.S.^ ^ S.S.N.N.N._ ~ _ S.S.N.d.d.N.a.S.S.~ ~ ~ ~ ~ ~ ~ ~ ~ ~ ~ ~ ~ ~ ~ ~ ~ ~ ~ ~ ~ ~ ~ ~ ~ ~ ~ ~ ~ ~ ~ ~ ~ ~ ~ ~ ~ ~ ~ ~ ~ ] S.~ ~ ~ ~ k k R R R ~ A.( R R k k k ^ ,.k k ( ,.k k k k k k V k k k k d d d d d d V ;.k j d d d d d d j j ;./ j j j s j j >.P j P >.B j P >.j d / ;.k k ;.;.k k k k g d d f / / f d &.( h h ,.W g f f f f V =.g p / &.5 5 / / 5 5 %.Z 3 5 5 5 5 5 f f f d f f p Z =.p p p p c c :.X.c c B.o.F L D.o.H H H H H ....g.g.z.m.g.g.U.m.l.l.l.l.;X;X;X;X;Xl.l.l.1X;X;X;X1X;X;X;X1X;XO.;X,XO.O.O.O.O.O.+.,X| [ [ [ [ [ <.{ v [ v v q q q q q 9 9 9 9 { X.9 7 9 9 9 7 7 7 7 9 *.q ; ; ; ; ; ; ; ; ; ; ; ; ; { { ; ; ; ; ; ; ; ; ; = = = = = = = + + + + + X X X + + + + + = = = = + + + + . . . . . . . . . . X X . . o o . . . . .     O @.:   : @.+           w "
};
